; generated by PrusaSlicer 2.7.4+win64 on 2024-07-11 at 03:57:22 UTC
; Postprocessed by [ArcWelder](https://github.com/FormerLurker/ArcWelderLib)
; Copyright(C) 2021 - Brad Hochgesang
; Version: 1.2.0, Branch: HEAD, BuildDate: 2021-11-21T20:25:43Z
; resolution=0.05mm
; path_tolerance=5.0%
; max_radius=9999.00mm
; default_xyz_precision=3
; default_e_precision=5
; extrusion_rate_variance_percent=5.0%


; 

; external perimeters extrusion width = 0.45mm
; perimeters extrusion width = 0.40mm
; infill extrusion width = 0.45mm
; solid infill extrusion width = 0.50mm
; top infill extrusion width = 0.45mm
; support material extrusion width = 0.42mm
; first layer extrusion width = 0.56mm

M201 X2500 Y2500 Z800 E2500 ; sets maximum accelerations, mm/sec^2
M203 X300 Y250 Z8 E80 ; sets maximum feedrates, mm / sec
M204 S2500 T2500 ; sets acceleration (S) and retract acceleration (R), mm/sec^2
M205 X15.00 Y10.00 Z2.00 E10.00 ; sets the jerk limits, mm/sec
M205 S0 T0 ; sets the minimum extruding and travel feed rate, mm/sec
;TYPE:Custom
G90 ; use absolute coordinates
M83 ; extruder relative mode
M104 S215 ; set extruder temp
M140 S60 ; set bed temp
M190 S60 ; wait for bed temp
M109 S215 ; wait for extruder temp
G28                                        ; move X/Y/Z to min endstops
G1 Z0.28                                   ; lift nozzle a bit 
G92 E0 
G1 Y3 F1800                                    ; zero the extruded length 
G1 X60  E25 F500                       ; Extrude 25mm of filament in a 5cm line. 
G92 E0                                     ; zero the extruded length again 
G1 E-2 F500                                ; Retract a little 
G1 X70 F4000                              ; Quickly wipe away from the filament line
M117
G21 ; set units to millimeters
G90 ; use absolute coordinates
M82 ; use absolute distances for extrusion
G92 E0
M107
;LAYER_CHANGE
;Z:0.28
;HEIGHT:0.28
G1 E-2 F4800
G92 E0
G1 Z.28 F7200
G1 X108.638 Y108.388
G1 E2 F4800
G92 E0
M204 S2000
;TYPE:Skirt/Brim
;WIDTH:0.56
G1 F2489
G1 X109.47 Y107.792 E.05956
G1 X110.728 Y107.271 E.1388
G1 X112.084 Y107.087 E.21844
G1 X117.61 Y107.09 E.54003
G1 X118.262 Y107.137 E.57807
G1 X119.259 Y107.37 E.63765
G1 X120.192 Y107.792 E.69724
G1 X120.762 Y108.173 E.73714
G1 X121.725 Y109.136 E.81639
G1 X122.266 Y110.005 E.87596
G1 X122.528 Y110.639 E.91588
G1 X122.761 Y111.636 E.97546
G1 X122.811 Y112.318 E1.01526
G1 X122.811 Y117.816 E1.33522
G1 X122.627 Y119.17 E1.41474
G1 X122.266 Y120.129 E1.47437
G1 X121.725 Y120.998 E1.53394
G1 X120.762 Y121.961 E1.61319
G1 X120.192 Y122.342 E1.65309
G1 X119.259 Y122.764 E1.71268
G1 X118.262 Y122.996 E1.77225
G1 X111.739 Y123.03 E2.15186
G1 X110.728 Y122.863 E2.21149
G1 X109.769 Y122.502 E2.27112
G1 X108.9 Y121.961 E2.33069
G1 X107.938 Y120.998 E2.4099
G1 X107.397 Y120.129 E2.46947
G1 X107.134 Y119.495 E2.50941
G1 X106.902 Y118.497 E2.56904
G1 X106.868 Y111.975 E2.94859
G1 X107.035 Y110.963 E3.00828
G1 X107.396 Y110.005 E3.06786
G1 X107.937 Y109.136 E3.12743
G1 X108.597 Y108.432 E3.18359
M204 S2500
G1 X108.597 Y108.432 F7200
G1 X108.948 Y108.81
M204 S2000
G1 F2489
G1 X109.217 Y108.56 E3.20496
G3 X110.873 Y107.750 I2.854 J3.737 E3.31277
G1 X112.084 Y107.587 E3.38388
G1 X117.61 Y107.59 E3.70547
G3 X120.445 Y108.560 I-0.040 J4.744 E3.88265
G1 X121.338 Y109.453 E3.95614
G3 X122.311 Y112.318 I-3.798 J2.888 E4.13508
G1 X122.311 Y117.816 E4.45504
G1 X122.149 Y119.025 E4.52603
G1 X121.665 Y120.192 E4.59955
G3 X118.213 Y122.499 I-4.084 J-2.375 E4.84935
G1 X111.788 Y122.532 E5.22326
G1 X110.873 Y122.384 E5.2772
G1 X109.706 Y121.901 E5.3507
G3 X107.399 Y118.448 I2.375 J-4.084 E5.60056
G1 X107.366 Y112.024 E5.97441
G1 X107.514 Y111.109 E6.02835
G1 X107.997 Y109.942 E6.10185
G1 X108.539 Y109.191 E6.15575
G1 X108.904 Y108.851 E6.18478
M204 S2500
G1 X108.904 Y108.851 F7200
G1 X109.242 Y109.216
M204 S2000
G1 F2489
G1 X109.534 Y108.946 E6.20792
G3 X111.018 Y108.228 I2.552 J3.382 E6.30432
G1 X112.083 Y108.087 E6.36684
G1 X117.61 Y108.09 E6.68848
G3 X118.969 Y108.326 I-0.048 J4.307 E6.76900
G1 X120.128 Y108.946 E6.84549
G1 X120.952 Y109.77 E6.91331
G1 X121.572 Y110.929 E6.9898
G3 X121.811 Y112.318 I-4.195 J1.437 E7.07208
G1 X121.811 Y117.816 E7.39204
G1 X121.67 Y118.88 E7.4545
G1 X121.224 Y119.956 E7.52228
G1 X120.737 Y120.626 E7.57048
G1 X119.721 Y121.46 E7.64698
G3 X118.164 Y122.001 I-2.142 J-3.654 E7.74337
G1 X111.837 Y122.035 E8.11157
G1 X111.018 Y121.906 E8.15982
G1 X109.942 Y121.46 E8.2276
G1 X109.272 Y120.973 E8.2758
G1 X108.438 Y119.957 E8.3523
G3 X107.897 Y118.399 I3.650 J-2.141 E8.44874
G1 X107.863 Y112.073 E8.81689
G1 X107.992 Y111.254 E8.86514
G1 X108.438 Y110.177 E8.93298
G1 X108.925 Y109.508 E8.98114
G1 X109.197 Y109.257 E9.00268
M204 S2500
G1 E7.60268 F4800
;WIPE_START
G1 F5760
G3 X109.789 Y108.790 I1.470 J1.255 E7.00268
;WIPE_END
G92 E0
G92 E0
G1 X118.857 Y111.9 F7200
G1 E2 F4800
M204 S2000
;TYPE:External perimeter
G1 F2489
G3 X118.931 Y112.337 I-1.089 J0.409 E2.02590
G1 X118.931 Y117.794 E2.34347
G3 X117.562 Y119.167 I-1.356 J0.017 E2.46894
G1 X112.101 Y119.167 E2.78674
G3 X110.731 Y117.797 I-0.014 J-1.356 E2.91208
G1 X110.731 Y112.337 E3.22982
G3 X112.101 Y110.967 I1.356 J-0.014 E3.35519
G3 X117.844 Y110.995 I0.220 J543.753 E3.68947
G3 X118.839 Y111.842 I-0.256 J1.309 E3.76887
M204 S2500
G1 X118.839 Y111.842 F7200
G1 X118.378 Y112.045
M204 S2000
;TYPE:Perimeter
G1 F2489
G3 X118.431 Y112.361 I-0.738 J0.286 E3.78761
G1 X118.431 Y117.766 E4.10215
G3 X117.537 Y118.667 I-0.862 J0.039 E4.18484
G1 X112.125 Y118.667 E4.49979
G3 X111.231 Y117.773 I-0.032 J-0.862 E4.58204
G1 X111.231 Y112.361 E4.89699
G3 X112.125 Y111.467 I0.862 J-0.032 E4.97930
G3 X117.746 Y111.487 I0.208 J731.302 E5.30646
G3 X118.360 Y111.988 I-0.166 J0.831 E5.35435
M204 S2500
G1 X118.36 Y111.988 F7200
G1 X117.899 Y112.19
M204 S2000
G1 F2489
G1 X117.931 Y112.386 E5.36591
G1 X117.931 Y117.738 E5.67737
G3 X117.512 Y118.167 I-0.373 J0.055 E5.71716
G1 X112.15 Y118.167 E6.0292
G3 X111.731 Y117.748 I-0.047 J-0.372 E6.06838
G1 X111.731 Y112.386 E6.38042
G3 X112.150 Y111.967 I0.372 J-0.047 E6.41970
G3 X117.540 Y111.969 I0.196 J6734.806 E6.73337
G3 X117.868 Y112.140 I0.046 J0.311 E6.75598
M204 S2500
G1 E5.35598 F4800
;WIPE_START
G1 F5760
G3 X117.931 Y112.886 I-1.425 J0.496 E4.75598
;WIPE_END
G92 E0
G1 X115.363 Y114.158 F7200
G1 E2 F4800
M204 S2000
;TYPE:External perimeter
G1 F2489
G3 X115.093 Y114.045 I-0.538 J0.906 E2.36688
G1 X115.308 Y114.134 E2.38042
M204 S2500
G1 X115.308 Y114.134 F7200
G1 X115.56 Y113.697
M204 S2000
;TYPE:Perimeter
G1 F2489
G3 X114.758 Y113.519 I-0.726 J1.374 E2.89982
G3 X115.505 Y113.674 I0.139 J1.207 E2.94477
M204 S2500
G1 X115.505 Y113.674 F7200
G1 X115.763 Y113.24
M204 S2000
G1 F2489
G1 X115.862 Y113.281 E2.95101
G3 X113.012 Y114.117 I-1.023 J1.787 E3.50976
G3 X115.708 Y113.217 I1.802 J0.909 E3.69301
M204 S2500
G1 X115.708 Y113.217 F7200
G1 X115.572 Y112.522
M204 S2000
;TYPE:Gap fill
;WIDTH:0.646184
G1 F2489
G2 X114.095 Y112.532 I-0.687 J7.583 E3.79390
M204 S2500
G1 E2.3939 F4800
;WIPE_START
G1 F5760
G3 X114.852 Y112.496 I0.554 J3.664 E1.79390
;WIPE_END
G92 E0
G1 X112.725 Y112.167 F7200
G1 E2 F4800
M204 S2000
;TYPE:Solid infill
;WIDTH:0.622721
G1 F2489
G1 X113.52 Y112.961 E2.07359
G1 X113.069 Y113.306 E2.11078
G1 X112.157 Y112.396 E2.19516
G1 X112.156 Y113.189 E2.2471
G1 X112.897 Y113.93 E2.31574
M204 S2500
G1 X112.897 Y113.93 F7200
G1 X112.296 Y114.333
M204 S2000
;TYPE:Gap fill
;WIDTH:0.651182
G1 F2489
G1 X112.25 Y115.032 E2.36394
;WIDTH:0.5986
G1 X112.273 Y115.451 E2.39025
;WIDTH:0.651183
G1 X112.296 Y115.801 E2.41439
M204 S2500
G1 E1.01439 F4800
;WIPE_START
G1 F5760
G3 X112.251 Y115.044 I32.554 J-2.315 E0.41439
;WIPE_END
G92 E0
G1 X113.905 Y117.481 F7200
G1 E2 F4800
M204 S2000
;TYPE:Solid infill
;WIDTH:0.659981
G1 F2489
G1 X112.629 Y116.205 E2.12602
G1 X112.156 Y116.236 E2.15912
G1 X112.156 Y116.58 E2.18314
G1 X113.318 Y117.742 E2.2979
G1 X112.47 Y117.742 E2.35712
G1 X111.931 Y117.203 E2.41035
M204 S2500
G1 E1.01035 F4800
;WIPE_START
G1 F5760
G1 X112.467 Y117.739 E.41035
;WIPE_END
G92 E0
G1 X114.097 Y117.602 F7200
G1 E2 F4800
M204 S2000
;TYPE:Gap fill
;WIDTH:0.651184
G1 F2489
G1 X114.447 Y117.625 E2.02414
;WIDTH:0.598603
G1 X114.866 Y117.648 E2.05045
;WIDTH:0.651183
G1 X115.565 Y117.602 E2.09865
M204 S2500
G1 E.69865 F4800
;WIPE_START
G1 F5760
G3 X114.809 Y117.645 I-0.559 J-3.159 E0.09865
;WIPE_END
G92 E0
G1 X116.777 Y116.217 F7200
G1 E2 F4800
M204 S2000
;TYPE:Solid infill
;WIDTH:0.623118
G1 F2489
G1 X117.506 Y116.946 E2.06757
G1 X117.501 Y117.737 E2.11942
G1 X116.592 Y116.828 E2.20368
G1 X116.142 Y117.174 E2.24088
G1 X116.935 Y117.967 E2.31438
M204 S2500
G1 E.91438 F4800
;WIPE_START
G1 F5760
G1 X116.399 Y117.431 E.31438
;WIPE_END
G92 E0
G1 X117.366 Y115.801 F7200
G1 E2 F4800
M204 S2000
;TYPE:Gap fill
;WIDTH:0.651184
G1 F2489
G1 X117.412 Y115.102 E2.0482
;WIDTH:0.598603
G1 X117.389 Y114.682 E2.07457
;WIDTH:0.651184
G1 X117.366 Y114.333 E2.09864
M204 S2500
G1 E.69864 F4800
;WIPE_START
G1 F5760
G3 X117.411 Y115.090 I-31.681 J2.263 E0.09864
;WIPE_END
G92 E0
G1 X116.637 Y112.169 F7200
G1 E2 F4800
M204 S2000
;TYPE:Solid infill
;WIDTH:0.565898
G1 F2489
G1 X117.506 Y113.038 E2.07236
G1 X117.506 Y113.754 E2.11452
G1 X115.921 Y112.169 E2.2465
M204 S2500
;LAYER_CHANGE
;Z:0.48
;HEIGHT:0.2
; BEFORE_LAYER_CHANGE 1 @ 0.48mm
G1 E.8465 F4800
;WIPE_START
G1 F5760
G1 X116.457 Y112.705 E.2465
;WIPE_END
G92 E0
G1 Z.48 F7200
; AFTER_LAYER_CHANGE 1 @ 0.48mm
M104 S190 ; set temperature
G1 X116.46 Y107.089
G1 E2 F4800
G92 E0
;TYPE:Skirt/Brim
;WIDTH:0.56
G1 F3261
G3 X119.259 Y107.370 I0.568 J8.426 E0.12157
G1 X120.192 Y107.792 E.1656
G1 X120.762 Y108.173 E.19508
G1 X121.725 Y109.136 E.25363
G1 X122.266 Y110.005 E.29764
G3 X122.811 Y112.318 I-4.864 J2.367 E0.40055
G1 X122.811 Y117.816 E.63694
G1 X122.627 Y119.17 E.69569
G1 X122.266 Y120.129 E.73975
G1 X121.725 Y120.998 E.78376
G1 X120.762 Y121.961 E.84231
G1 X120.192 Y122.342 E.87179
G1 X119.259 Y122.764 E.91582
G1 X118.262 Y122.996 E.95983
G1 X111.739 Y123.03 E1.24029
G1 X110.728 Y122.863 E1.28435
G1 X109.769 Y122.502 E1.32841
G1 X108.9 Y121.961 E1.37242
G1 X107.938 Y120.998 E1.43094
G1 X107.397 Y120.129 E1.47495
G1 X107.134 Y119.495 E1.50446
G1 X106.902 Y118.497 E1.54851
G1 X106.868 Y111.975 E1.82893
G1 X107.035 Y110.963 E1.87303
G1 X107.396 Y110.005 E1.91705
G1 X107.937 Y109.136 E1.96106
G1 X108.638 Y108.388 E2.00514
G1 X109.47 Y107.792 E2.04914
G1 X110.728 Y107.271 E2.10768
G1 X112.084 Y107.087 E2.16652
G1 X116.4 Y107.089 E2.35209
G1 X116.4 Y107.089 F7200
G1 X116.4 Y107.589
G1 F3261
G3 X119.114 Y107.848 I0.598 J8.079 E2.46992
G3 X120.445 Y108.560 I-1.533 J4.465 E2.53502
G1 X121.338 Y109.453 E2.58932
G3 X122.311 Y112.318 I-3.798 J2.888 E2.72152
G1 X122.311 Y117.816 E2.95791
G1 X122.149 Y119.025 E3.01036
G1 X121.665 Y120.192 E3.06468
G3 X118.213 Y122.499 I-4.084 J-2.375 E3.24923
G1 X111.788 Y122.532 E3.52548
G1 X110.873 Y122.384 E3.56533
G1 X109.706 Y121.901 E3.61963
G3 X107.399 Y118.448 I2.375 J-4.084 E3.80422
G1 X107.366 Y112.024 E4.08043
G1 X107.514 Y111.109 E4.12028
G1 X107.997 Y109.942 E4.17458
G3 X110.873 Y107.750 I4.084 J2.376 E4.33387
G1 X112.084 Y107.587 E4.38641
G1 X116.34 Y107.589 E4.5694
G1 X116.34 Y107.589 F7200
G1 X116.339 Y108.089
G1 F3261
G3 X118.164 Y108.132 I0.626 J12.185 E4.64794
G1 X118.969 Y108.326 E4.68354
G1 X120.128 Y108.946 E4.74005
G1 X120.952 Y109.77 E4.79015
G1 X121.572 Y110.929 E4.84666
G3 X121.811 Y112.318 I-4.195 J1.437 E4.90744
G1 X121.811 Y117.816 E5.14383
G1 X121.67 Y118.88 E5.18998
G1 X121.224 Y119.956 E5.24006
G1 X120.737 Y120.626 E5.27567
G1 X119.721 Y121.46 E5.33219
G3 X118.164 Y122.001 I-2.142 J-3.654 E5.40340
G1 X111.837 Y122.035 E5.67544
G1 X111.018 Y121.906 E5.71109
G1 X109.942 Y121.46 E5.76117
G1 X109.272 Y120.973 E5.79678
G1 X108.438 Y119.957 E5.8533
G3 X107.897 Y118.399 I3.650 J-2.141 E5.92455
G1 X107.863 Y112.073 E6.19654
G1 X107.992 Y111.254 E6.23219
G1 X108.438 Y110.177 E6.28231
G3 X111.018 Y108.228 I3.643 J2.140 E6.42474
G1 X112.083 Y108.087 E6.47093
G1 X116.279 Y108.089 E6.65134
G1 E5.25134 F4800
;WIPE_START
G1 F5760
G1 X116.339 Y108.089 E5.20384
G1 X117.037 Y108.089 E4.65134
;WIPE_END
G92 E0
G92 E0
G1 X119.058 Y112.044 F7200
G1 E2 F4800
;TYPE:External perimeter
;WIDTH:0.45
G1 F3261
G1 X119.086 Y112.329 E2.00969
G1 X119.086 Y117.805 E2.19505
G3 X117.569 Y119.322 I-1.507 J0.010 E2.27570
G1 X112.093 Y119.322 E2.46106
G3 X110.576 Y117.805 I-0.008 J-1.509 E2.54168
G1 X110.576 Y112.329 E2.72704
G3 X112.093 Y110.812 I1.509 J-0.008 E2.80768
G1 X117.645 Y110.819 E2.99561
G3 X119.045 Y111.986 I-0.051 J1.485 E3.06197
G1 X119.045 Y111.986 F7200
G1 X118.68 Y112.098
;TYPE:Perimeter
;WIDTH:0.4
G1 F3261
G1 X118.704 Y112.348 E3.06943
G1 X118.704 Y117.786 E3.23089
G3 X117.550 Y118.940 I-1.131 J0.023 E3.28490
G1 X112.112 Y118.94 E3.44636
G3 X110.958 Y117.786 I-0.023 J-1.131 E3.50035
G1 X110.958 Y112.348 E3.66181
G3 X112.112 Y111.194 I1.131 J-0.023 E3.71582
G1 X117.626 Y111.201 E3.87954
G3 X118.662 Y112.041 I-0.033 J1.100 E3.92205
G1 X118.662 Y112.041 F7200
G1 X118.328 Y112.168
G1 F3261
G1 X118.347 Y112.365 E3.92793
G1 X118.347 Y117.769 E4.08838
G3 X117.533 Y118.583 I-0.780 J0.034 E4.12670
G1 X112.13 Y118.583 E4.28712
G3 X111.315 Y117.769 I-0.035 J-0.780 E4.32545
G1 X111.315 Y112.365 E4.4859
G3 X112.129 Y111.551 I0.780 J-0.034 E4.52422
G1 X117.608 Y111.558 E4.6869
G3 X118.310 Y112.111 I-0.020 J0.747 E4.71533
G1 E3.31533 F4800
;WIPE_START
G1 F5760
G3 X118.347 Y112.865 I-2.570 J0.504 E2.71533
;WIPE_END
G92 E0
G1 X115.28 Y114.29 F7200
G1 E2 F4800
;TYPE:External perimeter
;WIDTH:0.45
G1 F3261
G3 X115.063 Y114.200 I-0.449 J0.777 E2.18215
G1 X115.224 Y114.267 E2.18805
G1 X115.224 Y114.267 F7200
G1 X115.43 Y113.938
;TYPE:Perimeter
;WIDTH:0.4
G1 F3261
G3 X114.831 Y113.784 I-0.609 J1.128 E2.40802
G3 X115.374 Y113.916 I0.027 J1.073 E2.42475
G1 X115.374 Y113.916 F7200
G1 X115.719 Y113.696
G1 F3261
G3 X114.471 Y113.472 I-0.891 J1.375 E2.69152
G3 X115.672 Y113.659 I0.377 J1.529 E2.72850
G1 E1.3285 F4800
;WIPE_START
G1 F5760
G3 X116.208 Y114.185 I-0.712 J1.262 E0.72850
;WIPE_END
G92 E0
G1 X117.467 Y111.904 F7200
G1 E2 F4800
;TYPE:Solid infill
;WIDTH:0.499999
G1 F3261
G1 X112.155 Y111.897 E2.20189
G1 X111.855 Y111.984 E2.21376
G2 X111.661 Y112.440 I0.264 J0.382 E2.23336
G1 X111.661 Y117.742 E2.43487
G1 X111.748 Y118.043 E2.44678
G2 X112.205 Y118.237 I0.381 J-0.262 E2.46643
G1 X117.507 Y118.237 E2.66794
G1 X117.807 Y118.15 E2.67981
G2 X118.001 Y117.694 I-0.259 J-0.379 E2.69943
G1 X118.001 Y112.392 E2.90094
G1 X117.914 Y112.091 E2.91285
G1 X117.737 Y111.937 E2.92177
G1 X117.693 Y111.932 E2.92345
G1 E1.52345 F4800
;WIPE_START
G1 F5760
G1 X117.737 Y111.937 E1.48839
G1 X117.914 Y112.091 E1.30265
G3 X118.001 Y112.558 I-0.764 J0.384 E0.92345
;WIPE_END
G92 E0
G1 X113.186 Y112.758 F7200
G1 E2 F4800
;WIDTH:0.389747
G1 F3261
G1 X112.52 Y112.757 E2.01921
G1 X112.52 Y113.424 E2.03845
G1 X112.924 Y112.959 E2.05621
G1 X113.005 Y112.897 E2.05915
G1 E.65915 F4800
;WIPE_START
G1 F5760
G1 X112.924 Y112.959 E.5784
G1 X112.52 Y113.424 E.09074
G1 X112.52 Y113.384 E.05915
;WIPE_END
G92 E0
G1 X114.832 Y112.669 F7200
G1 E2 F4800
;WIDTH:0.435857
G1 F3261
G1 X115.372 Y112.718 E2.01772
;WIDTH:0.472365
G1 X115.544 Y112.745 E2.02394
;WIDTH:0.499999
G3 X117.152 Y114.355 I-0.610 J2.217 E2.11414
;WIDTH:0.469232
G1 X117.189 Y114.669 E2.12535
;WIDTH:0.438602
G1 X117.226 Y114.983 E2.13575
;WIDTH:0.438105
G1 X117.181 Y115.608 E2.15634
;WIDTH:0.473437
G1 X117.153 Y115.78 E2.16258
;WIDTH:0.499999
G1 X116.979 Y116.236 E2.18113
G3 X116.129 Y117.136 I-2.359 J-1.377 E2.22848
G1 X115.543 Y117.387 E2.25271
;WIDTH:0.469233
G1 X115.229 Y117.425 E2.26392
;WIDTH:0.438603
G1 X114.915 Y117.462 E2.27432
;WIDTH:0.438104
G1 X114.29 Y117.417 E2.29491
;WIDTH:0.473437
G1 X114.118 Y117.389 E2.30115
;WIDTH:0.499999
G1 X113.662 Y117.215 E2.3197
G3 X112.762 Y116.365 I1.377 J-2.359 E2.36705
G1 X112.511 Y115.779 E2.39128
;WIDTH:0.46923
G1 X112.473 Y115.465 E2.40249
;WIDTH:0.4386
G1 X112.436 Y115.15 E2.41293
;WIDTH:0.438101
G1 X112.481 Y114.526 E2.43349
;WIDTH:0.473435
G1 X112.509 Y114.354 E2.43973
;WIDTH:0.499999
