; generated by PrusaSlicer 2.7.4+win64 on 2024-07-11 at 03:56:34 UTC
; Postprocessed by [ArcWelder](https://github.com/FormerLurker/ArcWelderLib)
; Copyright(C) 2021 - Brad Hochgesang
; Version: 1.2.0, Branch: HEAD, BuildDate: 2021-11-21T20:25:43Z
; resolution=0.05mm
; path_tolerance=5.0%
; max_radius=9999.00mm
; default_xyz_precision=3
; default_e_precision=5
; extrusion_rate_variance_percent=5.0%


; 

; external perimeters extrusion width = 0.45mm
; perimeters extrusion width = 0.40mm
; infill extrusion width = 0.45mm
; solid infill extrusion width = 0.50mm
; top infill extrusion width = 0.45mm
; support material extrusion width = 0.42mm
; first layer extrusion width = 0.56mm

M201 X2500 Y2500 Z800 E2500 ; sets maximum accelerations, mm/sec^2
M203 X300 Y250 Z8 E80 ; sets maximum feedrates, mm / sec
M204 S2500 T2500 ; sets acceleration (S) and retract acceleration (R), mm/sec^2
M205 X15.00 Y10.00 Z2.00 E10.00 ; sets the jerk limits, mm/sec
M205 S0 T0 ; sets the minimum extruding and travel feed rate, mm/sec
;TYPE:Custom
G90 ; use absolute coordinates
M83 ; extruder relative mode
M104 S215 ; set extruder temp
M140 S60 ; set bed temp
M190 S60 ; wait for bed temp
M109 S215 ; wait for extruder temp
G28                                        ; move X/Y/Z to min endstops
G1 Z0.28                                   ; lift nozzle a bit 
G92 E0 
G1 Y3 F1800                                    ; zero the extruded length 
G1 X60  E25 F500                       ; Extrude 25mm of filament in a 5cm line. 
G92 E0                                     ; zero the extruded length again 
G1 E-2 F500                                ; Retract a little 
G1 X70 F4000                              ; Quickly wipe away from the filament line
M117
G21 ; set units to millimeters
G90 ; use absolute coordinates
M82 ; use absolute distances for extrusion
G92 E0
M107
;LAYER_CHANGE
;Z:0.28
;HEIGHT:0.28
G1 E-2 F4800
G92 E0
G1 Z.28 F7200
G1 X107.582 Y99.619
G1 E2 F4800
G92 E0
M204 S2000
;TYPE:Skirt/Brim
;WIDTH:0.56
G1 F3000
G1 X108.615 Y98.545 E.08672
G1 X110.046 Y97.497 E.18994
G1 X111.011 Y96.993 E.2533
G1 X112.028 Y96.603 E.31669
G1 X113.479 Y96.264 E.4034
G1 X114.562 Y96.162 E.4667
G1 X115.651 Y96.185 E.53009
G1 X117.399 Y96.489 E.63334
G1 X118.431 Y96.836 E.6967
G1 X119.417 Y97.298 E.76007
G1 X120.667 Y98.108 E.84675
G1 X121.969 Y99.314 E.95003
G1 X122.872 Y100.499 E1.03673
G1 X123.408 Y101.446 E1.10006
G1 X123.832 Y102.449 E1.16343
G1 X124.269 Y104.169 E1.26671
G1 X124.375 Y105.252 E1.33004
G1 X124.356 Y106.341 E1.39342
G1 X120.138 Y132.18 E2.91702
G1 X119.487 Y133.708 E3.01368
G1 X118.205 Y134.764 E3.11034
G1 X116.685 Y135.111 E3.20107
G1 X113.128 Y135.111 E3.40807
G1 X111.514 Y134.717 E3.50475
G1 X110.264 Y133.623 E3.60142
G1 X109.674 Y132.18 E3.69214
G1 X105.6 Y107.42 E5.15242
G3 X105.773 Y103.104 I9.332 J-1.787 E5.40586
G1 X106.404 Y101.446 E5.5091
G3 X107.547 Y99.668 I8.319 J4.092 E5.63230
M204 S2500
G1 X107.547 Y99.668 F7200
G1 X107.95 Y99.963
M204 S2000
G1 F3000
G1 X107.98 Y99.922 E5.63526
G1 X108.933 Y98.931 E5.71527
G1 X110.318 Y97.916 E5.8152
G3 X112.197 Y97.074 I4.582 J7.708 E5.93523
G1 X113.536 Y96.76 E6.01527
G3 X115.594 Y96.682 I1.368 J8.906 E6.13532
G1 X117.285 Y96.976 E6.2352
G3 X119.195 Y97.746 I-2.380 J8.658 E6.35524
G1 X120.349 Y98.494 E6.43527
G1 X121.608 Y99.66 E6.53513
G1 X122.442 Y100.754 E6.61519
G3 X123.355 Y102.600 I-7.506 J4.861 E6.73524
G1 X123.778 Y104.264 E6.83516
G3 X123.856 Y106.322 I-8.900 J1.368 E6.95521
G1 X119.645 Y132.099 E8.47519
G1 X119.016 Y133.5 E8.56456
G1 X117.775 Y134.406 E8.65398
G1 X116.685 Y134.611 E8.71852
G1 X113.128 Y134.611 E8.92552
G1 X111.643 Y134.218 E9.01491
G1 X110.547 Y133.141 E9.10433
G1 X110.168 Y132.099 E9.16886
G1 X106.094 Y107.344 E10.62885
G3 X106.250 Y103.255 I8.815 J-1.711 E10.86896
G1 X106.861 Y101.651 E10.96885
G3 X107.914 Y100.011 I7.573 J3.704 E11.08246
M204 S2500
G1 X107.914 Y100.011 F7200
G1 X108.317 Y100.307
M204 S2000
G1 F3000
G1 X108.377 Y100.225 E11.08837
G1 X109.251 Y99.317 E11.16171
G1 X110.59 Y98.336 E11.25831
G3 X115.536 Y97.178 I4.317 J7.295 E11.55834
G1 X117.171 Y97.463 E11.65492
G3 X120.031 Y98.879 I-2.267 J8.176 E11.84162
G1 X121.248 Y100.007 E11.93819
G3 X122.879 Y102.751 I-6.368 J5.642 E12.12493
G1 X123.287 Y104.359 E12.22147
G3 X123.357 Y106.302 I-8.367 J1.274 E12.33481
G1 X119.152 Y132.018 E13.85123
G1 X118.547 Y133.28 E13.93268
G1 X116.685 Y134.112 E14.05136
G1 X113.128 Y134.112 E14.25836
G1 X111.784 Y133.72 E14.33983
G1 X110.661 Y132.018 E14.4585
G1 X106.588 Y107.267 E15.91826
G3 X106.727 Y103.406 I8.334 J-1.633 E16.14496
G1 X107.317 Y101.855 E16.24153
G3 X108.281 Y100.355 I7.025 J3.455 E16.34546
M204 S2500
G1 E14.94546 F4800
;WIPE_START
G1 F5760
G3 X108.791 Y99.795 I2.391 J1.665 E14.34546
;WIPE_END
G92 E0
G92 E0
G1 X113.508 Y111.079 F7200
G1 E2 F4800
M204 S2000
;TYPE:External perimeter
G1 F3000
G3 X109.601 Y107.424 I1.617 J-5.644 E2.32371
G3 X117.294 Y110.696 I5.305 J-1.793 E3.82095
G1 X116.305 Y111.079 E3.88267
G1 X116.305 Y131.232 E5.05547
G1 X113.508 Y131.232 E5.21824
G1 X113.508 Y111.139 E6.38755
M204 S2500
G1 E4.98755 F4800
;WIPE_START
G1 F5760
G1 X113.508 Y111.079 E4.94005
G1 X112.857 Y110.827 E4.38755
;WIPE_END
G92 E0
G1 X110.508 Y105.593 F7200
G1 E2 F4800
M204 S2000
G1 F3000
G3 X110.550 Y106.258 I4.394 J0.056 E3.56892
G1 X110.507 Y105.653 E3.60422
M204 S2500
G1 E2.20422 F4800
;WIPE_START
G1 F5760
G3 X110.573 Y104.899 I2.572 J-0.155 E1.60422
;WIPE_END
G92 E0
G1 X114.013 Y110.441 F7200
G1 E2 F4800
M204 S2000
;TYPE:Perimeter
G1 F3000
G2 X115.799 Y110.441 I0.893 J-4.241 E2.10469
G1 X115.879 Y110.707 E2.12085
G1 X115.805 Y110.736 E2.12548
G1 X115.805 Y130.732 E3.28915
G1 X114.007 Y130.732 E3.39378
G1 X114.007 Y110.736 E4.55745
G1 X113.934 Y110.707 E4.56202
G1 X113.996 Y110.499 E4.57465
M204 S2500
G1 X113.996 Y110.499 F7200
G1 X114.507 Y111.006
M204 S2000
G1 F3000
G2 X115.305 Y111.006 I0.399 J-2.730 E4.62121
G1 X115.305 Y130.232 E5.74007
G1 X114.507 Y130.232 E5.78651
G1 X114.507 Y111.066 E6.90187
M204 S2500
G1 X114.507 Y111.066 F7200
G1 X115.055 Y111.28
M204 S2000
;TYPE:Gap fill
;WIDTH:0.357767
G1 F3000
G1 X114.906 Y111.434 E6.9093
G1 X114.906 Y129.982 E7.55204
M204 S2500
G1 E6.15204 F4800
;WIPE_START
G1 F5760
G1 X114.906 Y129.224 E5.55204
;WIPE_END
G92 E0
G1 X116.083 Y110.52 F7200
G1 E2 F4800
M204 S2000
;WIDTH:0.758618
G1 F3000
G2 X119.693 Y107.063 I-1.416 J-5.092 E2.42408
G2 X112.807 Y110.168 I-4.788 J-1.430 E4.27946
G1 X113.729 Y110.52 E4.35971
M204 S2500
;LAYER_CHANGE
;Z:0.48
;HEIGHT:0.2
; BEFORE_LAYER_CHANGE 1 @ 0.48mm
G1 E2.95971 F4800
;WIPE_START
G1 F5760
G1 X113.021 Y110.249 E2.35971
;WIPE_END
G92 E0
G1 Z.48 F7200
; AFTER_LAYER_CHANGE 1 @ 0.48mm
M104 S190 ; set temperature
G1 X106.249 Y111.363
G1 E2 F4800
G92 E0
;TYPE:Skirt/Brim
;WIDTH:0.56
G1 F4221
G3 X105.457 Y106.341 I79.621 J-15.130 E0.21861
G3 X105.773 Y103.104 I9.488 J-0.708 E0.35907
G1 X106.404 Y101.446 E.43534
G3 X107.582 Y99.619 I8.589 J4.245 E0.52896
G1 X108.615 Y98.545 E.59303
G1 X110.046 Y97.497 E.66929
G3 X112.028 Y96.603 I4.856 J8.123 E0.76293
G1 X113.479 Y96.264 E.827
G3 X115.651 Y96.185 I1.428 J9.360 E0.92060
G1 X117.399 Y96.489 E.99688
G3 X119.417 Y97.298 I-2.530 J9.231 E1.09051
G1 X120.667 Y98.108 E1.15455
G1 X121.969 Y99.314 E1.23085
G1 X122.872 Y100.499 E1.29491
G3 X123.832 Y102.449 I-7.954 J5.127 E1.38852
G1 X124.269 Y104.169 E1.46482
G3 X124.356 Y106.341 I-9.357 J1.463 E1.55844
G1 X120.138 Y132.18 E2.6841
G1 X119.487 Y133.708 E2.75551
G1 X118.205 Y134.764 E2.82692
G1 X116.685 Y135.111 E2.89395
G1 X113.128 Y135.111 E3.04688
G1 X111.514 Y134.717 E3.11831
G1 X110.264 Y133.623 E3.18973
G1 X109.674 Y132.18 E3.25676
G1 X106.259 Y111.422 E4.16125
G1 X106.259 Y111.422 F7200
G1 X106.752 Y111.341
G1 F4221
G3 X105.956 Y106.322 I86.284 J-16.257 E4.37976
G3 X106.250 Y103.255 I8.997 J-0.685 E4.51282
G1 X106.861 Y101.651 E4.58662
G3 X107.980 Y99.922 I7.946 J3.916 E4.67532
G1 X108.933 Y98.931 E4.73443
G1 X110.318 Y97.916 E4.80826
G3 X112.197 Y97.074 I4.582 J7.708 E4.89694
G1 X113.536 Y96.76 E4.95607
G3 X115.594 Y96.682 I1.368 J8.906 E5.04477
G1 X117.285 Y96.976 E5.11857
G3 X119.195 Y97.746 I-2.380 J8.658 E5.20726
G1 X120.349 Y98.494 E5.26639
G1 X121.608 Y99.66 E5.34017
G1 X122.442 Y100.754 E5.39932
G3 X123.355 Y102.600 I-7.506 J4.861 E5.48801
G1 X123.778 Y104.264 E5.56183
G3 X123.856 Y106.322 I-8.900 J1.368 E5.65052
G1 X119.645 Y132.099 E6.7735
G1 X119.016 Y133.5 E6.83953
G1 X117.775 Y134.406 E6.90559
G1 X116.685 Y134.611 E6.95328
G1 X113.128 Y134.611 E7.10621
G1 X111.643 Y134.218 E7.17226
G1 X110.547 Y133.141 E7.23833
G1 X110.168 Y132.099 E7.286
G1 X106.762 Y111.4 E8.18793
G1 X106.762 Y111.4 F7200
G1 X107.255 Y111.319
G1 F4221
G3 X106.456 Y106.302 I91.791 J-17.191 E8.40637
G3 X106.727 Y103.406 I8.404 J-0.674 E8.53197
G1 X107.317 Y101.855 E8.60332
G3 X109.251 Y99.317 I7.575 J3.766 E8.74125
G1 X110.59 Y98.336 E8.81262
G3 X115.536 Y97.178 I4.317 J7.295 E9.03429
G1 X117.171 Y97.463 E9.10565
G3 X120.031 Y98.879 I-2.267 J8.176 E9.24359
G1 X121.248 Y100.007 E9.31493
G3 X122.879 Y102.751 I-6.368 J5.642 E9.45290
G1 X123.287 Y104.359 E9.52423
G3 X123.357 Y106.302 I-8.367 J1.274 E9.60796
G1 X119.152 Y132.018 E10.72831
G1 X118.547 Y133.28 E10.78848
G1 X116.685 Y134.112 E10.87617
G1 X113.128 Y134.112 E11.0291
G1 X111.784 Y133.72 E11.08929
G1 X110.661 Y132.018 E11.17696
G1 X107.265 Y111.378 E12.07632
G1 E10.67632 F4800
;WIPE_START
G1 F5760
G3 X107.142 Y110.630 I70.011 J-11.897 E10.07632
;WIPE_END
G92 E0
G92 E0
G1 X113.554 Y111.231 F7200
G1 E2 F4800
;TYPE:External perimeter
;WIDTH:0.45
G1 F4221
G3 X116.258 Y111.231 I1.352 J-5.596 E3.13095
G1 X116.258 Y131.387 E3.81321
G1 X113.554 Y131.387 E3.90474
G1 X113.554 Y111.291 E4.58497
G1 X113.554 Y111.291 F7200
G1 X113.936 Y110.992
;TYPE:Perimeter
;WIDTH:0.4
G1 F4221
G1 X113.936 Y110.947 E4.58631
G3 X109.700 Y104.309 I1.080 J-5.360 E4.84763
G3 X116.614 Y110.725 I5.206 J1.323 E5.50758
G1 X115.876 Y110.947 E5.53046
G1 X115.876 Y131.005 E6.12601
G1 X113.936 Y131.005 E6.18361
G1 X113.936 Y111.052 E6.77604
G1 E5.37604 F4800
;WIPE_START
G1 F5760
G1 X113.936 Y110.992 E5.32854
G1 X113.936 Y110.947 E5.29291
G1 X113.311 Y110.759 E4.77604
;WIPE_END
G92 E0
G1 X110.663 Y105.603 F7200
G1 E2 F4800
;TYPE:External perimeter
;WIDTH:0.45
G1 F4221
G3 X110.663 Y105.663 I4.245 J0.030 E2.90021
G1 X110.663 Y105.663 F7200
G1 X110.279 Y105.607
;TYPE:Perimeter
;WIDTH:0.4
G1 F4221
G3 X110.325 Y106.290 I4.624 J0.032 E3.74272
G1 X110.28 Y105.667 E3.76127
G1 E2.36127 F4800
;WIPE_START
G1 F5760
G3 X110.338 Y104.912 I2.610 J-0.179 E1.76127
;WIPE_END
G92 E0
G1 X114.293 Y110.574 F7200
G1 E2 F4800
G1 F4221
G2 X115.519 Y110.574 I0.613 J-4.248 E2.03650
G1 X115.519 Y130.647 E2.63249
G1 X114.293 Y130.647 E2.66889
G1 X114.293 Y110.634 E3.2631
G1 X114.293 Y110.634 F7200
G1 X114.115 Y110.589
;TYPE:Gap fill
;WIDTH:0.459114
G1 F4221
G3 X111.110 Y102.378 I0.858 J-4.969 E3.62970
G3 X116.490 Y110.370 I3.795 J3.252 E4.26585
G1 X115.698 Y110.589 E4.29429
G1 E2.89429 F4800
;WIPE_START
G1 F5760
G1 X116.428 Y110.387 E2.29429
;WIPE_END
G92 E0
G1 X114.658 Y110.967 F7200
G1 E2 F4800
;TYPE:Solid infill
;WIDTH:0.53852
G1 F4221
G1 X114.658 Y130.282 E2.79596
G1 X115.154 Y130.282 E2.8164
G1 X115.154 Y110.967 E3.61236
G1 X114.887 Y110.967 E3.62336
M106 S255
;LAYER_CHANGE
;Z:0.68
;HEIGHT:0.2
; BEFORE_LAYER_CHANGE 2 @ 0.68mm
G1 E2.22336 F4800
;WIPE_START
G1 F5760
G1 X115.154 Y110.967 E2.01199
G1 X115.154 Y111.458 E1.62336
;WIPE_END
G92 E0
G1 Z.68 F7200
; AFTER_LAYER_CHANGE 2 @ 0.68mm
G1 X113.722 Y111.271
G1 E2 F4800
G92 E0
;TYPE:External perimeter
;WIDTH:0.45
G1 F2047
G3 X116.091 Y111.271 I1.185 J-5.635 E1.14260
G1 X116.091 Y131.387 E1.8235
G1 X113.722 Y131.387 E1.90369
G1 X113.722 Y111.331 E2.58256
G1 X113.722 Y111.331 F7200
G1 X114.104 Y111.025
;TYPE:Perimeter
;WIDTH:0.4
G1 F2047
G1 X114.104 Y110.983 E2.58381
G3 X110.699 Y108.971 I1.198 J-5.914 E2.70365
G3 X116.619 Y110.723 I4.208 J-3.339 E3.51008
G1 X115.709 Y110.983 E3.53818
G1 X115.709 Y131.005 E4.13266
G1 X114.104 Y131.005 E4.18031
G1 X114.104 Y111.085 E4.77176
G1 X114.104 Y111.085 F7200
G1 X114.461 Y110.796
G1 F2047
G1 X114.461 Y110.586 E4.778
G2 X115.351 Y110.586 I0.445 J-3.078 E4.80450
G1 X115.351 Y130.647 E5.40014
G1 X114.461 Y130.647 E5.42657
G1 X114.461 Y110.856 E6.01419
G1 E4.61419 F4800
;WIPE_START
G1 F5760
G1 X114.461 Y110.796 E4.56669
G1 X114.461 Y110.586 E4.40044
G2 X114.948 Y110.615 I0.344 J-1.676 E4.01419
;WIPE_END
G92 E0
G1 X110.663 Y105.603 F7200
G1 E2 F4800
;TYPE:External perimeter
;WIDTH:0.45
G1 F2047
G3 X110.663 Y105.662 I4.244 J0.030 E2.90026
G1 X110.663 Y105.662 F7200
G1 X110.279 Y105.607
;TYPE:Perimeter
;WIDTH:0.4
G1 F2047
G3 X110.325 Y106.290 I4.628 J0.031 E3.74278
G1 X110.28 Y105.667 E3.76133
G1 E2.36133 F4800
;WIPE_START
G1 F5760
G3 X110.338 Y104.912 I2.610 J-0.179 E1.76133
;WIPE_END
G92 E0
G1 X114.282 Y110.624 F7200
G1 E2 F4800
;TYPE:Gap fill
;WIDTH:0.46019
G1 F2047
G3 X110.661 Y108.269 I0.908 J-5.358 E2.15437
G3 X116.497 Y110.367 I4.244 J-2.640 E3.01101
G1 X115.53 Y110.624 E3.04573
G1 X115.173 Y110.788 F7200
;WIDTH:0.576356
G1 F2047
G1 X114.906 Y111.064 E3.06276
G1 X114.906 Y130.469 E3.92348
;LAYER_CHANGE
;Z:0.88
;HEIGHT:0.2
; BEFORE_LAYER_CHANGE 3 @ 0.88mm
G1 E2.52348 F4800
;WIPE_START
G1 F5760
G1 X114.906 Y129.711 E1.92348
;WIPE_END
G92 E0
G1 Z.88 F7200
; AFTER_LAYER_CHANGE 3 @ 0.88mm
G1 X113.89 Y111.308
G1 E2 F4800
G92 E0
;TYPE:External perimeter
;WIDTH:0.45
G1 F2075
G3 X118.479 Y110.142 I1.003 J-5.664 E1.05828
G3 X115.923 Y111.308 I-3.676 J-4.673 E1.15422
G1 X115.923 Y131.387 E1.83387
G1 X113.89 Y131.387 E1.90268
G1 X113.89 Y111.368 E2.5803
G1 X113.89 Y111.368 F7200
G1 X114.232 Y111.005
;TYPE:Perimeter
;WIDTH:0.4
G1 F2075
G3 X110.699 Y108.971 I1.041 J-5.894 E2.70397
G3 X116.622 Y110.722 I4.208 J-3.339 E3.51030
G1 X115.541 Y111.015 E3.54355
G1 X115.541 Y131.005 E4.13708
G1 X114.272 Y131.005 E4.17476
G1 X114.272 Y111.034 E4.76772
G1 E3.36772 F4800
;WIPE_START
G1 F5760
G1 X114.232 Y111.005 E3.32861
G1 X113.548 Y110.819 E2.76772
;WIPE_END
G92 E0
G1 X110.663 Y105.602 F7200
G1 E2 F4800
;TYPE:External perimeter
;WIDTH:0.45
G1 F2075
G3 X110.663 Y105.662 I4.245 J0.030 E2.90021
G1 X110.663 Y105.662 F7200
G1 X110.279 Y105.656
;TYPE:Perimeter
;WIDTH:0.4
G1 F2075
G3 X110.325 Y106.290 I4.629 J-0.017 E3.74419
G1 X110.284 Y105.716 E3.76128
G1 E2.36128 F4800
;WIPE_START
G1 F5760
G1 X110.279 Y105.656 E2.31362
G3 X110.328 Y104.960 I2.196 J-0.195 E1.76128
;WIPE_END
G92 E0
G1 X114.629 Y110.598 F7200
G1 E2 F4800
G1 F2075
G2 X115.184 Y110.598 I0.278 J-1.915 E2.01653
G1 X115.184 Y130.647 E2.61181
G1 X114.629 Y130.647 E2.62829
G1 X114.629 Y110.658 E3.22179
G1 X114.629 Y110.658 F7200
G1 X114.45 Y110.639
;TYPE:Gap fill
;WIDTH:0.464693
G1 F2075
G3 X109.956 Y104.934 I0.561 J-5.065 E3.50560
G3 X116.327 Y110.421 I4.947 J0.698 E4.25589
G3 X115.362 Y110.639 I-2.019 J-6.693 E4.29060
G1 X115.362 Y110.639 F7200
G1 X115.005 Y110.794
;WIDTH:0.240718
G1 F2075
G1 X114.906 Y110.896 E4.29294
G1 X114.906 Y130.469 E4.61486
;LAYER_CHANGE
;Z:1.08
;HEIGHT:0.2
; BEFORE_LAYER_CHANGE 4 @ 1.08mm
G1 E3.21486 F4800
;WIPE_START
G1 F5760
G1 X114.906 Y129.711 E2.61486
;WIPE_END
G92 E0
G1 Z1.08 F7200
; AFTER_LAYER_CHANGE 4 @ 1.08mm
G1 X113.923 Y111.315
G1 E2 F4800
G92 E0
;TYPE:External perimeter
;WIDTH:0.45
G1 F2075
G3 X118.973 Y109.703 I0.972 J-5.670 E1.03705
G3 X115.889 Y111.315 I-4.165 J-4.212 E1.15653
G1 X115.889 Y131.387 E1.83594
G1 X113.923 Y131.387 E1.90249
G1 X113.923 Y111.375 E2.57987
G1 X113.923 Y111.375 F7200
G1 X114.305 Y111.063
;TYPE:Perimeter
;WIDTH:0.4
G1 F2075
G1 X114.305 Y111.022 E2.58109
G3 X112.076 Y110.197 I1.177 J-6.602 E2.65200
G3 X116.623 Y110.722 I2.830 J-4.561 E3.51330
G1 X115.507 Y111.022 E3.54761
G1 X115.507 Y131.005 E4.14093
G1 X114.305 Y131.005 E4.17662
G1 X114.305 Y111.123 E4.76694
G1 E3.36694 F4800
;WIPE_START
G1 F5760
G1 X114.305 Y111.063 E3.31944
G1 X114.305 Y111.022 E3.28698
G1 X113.671 Y110.851 E2.76694
;WIPE_END
G92 E0
G1 X110.663 Y105.599 F7200
G1 E2 F4800
;TYPE:External perimeter
;WIDTH:0.45
G1 F2075
G3 X110.704 Y106.236 I4.241 J0.047 E2.88063
G1 X110.662 Y105.659 E2.90021
G1 X110.662 Y105.659 F7200
G1 X110.299 Y105.328
;TYPE:Perimeter
