; generated by PrusaSlicer 2.7.4+win64 on 2024-07-11 at 03:59:15 UTC
; Postprocessed by [ArcWelder](https://github.com/FormerLurker/ArcWelderLib)
; Copyright(C) 2021 - Brad Hochgesang
; Version: 1.2.0, Branch: HEAD, BuildDate: 2021-11-21T20:25:43Z
; resolution=0.05mm
; path_tolerance=5.0%
; max_radius=9999.00mm
; default_xyz_precision=3
; default_e_precision=5
; extrusion_rate_variance_percent=5.0%


; 

; external perimeters extrusion width = 0.45mm
; perimeters extrusion width = 0.40mm
; infill extrusion width = 0.45mm
; solid infill extrusion width = 0.50mm
; top infill extrusion width = 0.45mm
; support material extrusion width = 0.42mm
; first layer extrusion width = 0.56mm

M201 X2500 Y2500 Z800 E2500 ; sets maximum accelerations, mm/sec^2
M203 X300 Y250 Z8 E80 ; sets maximum feedrates, mm / sec
M204 S2500 T2500 ; sets acceleration (S) and retract acceleration (R), mm/sec^2
M205 X15.00 Y10.00 Z2.00 E10.00 ; sets the jerk limits, mm/sec
M205 S0 T0 ; sets the minimum extruding and travel feed rate, mm/sec
;TYPE:Custom
G90 ; use absolute coordinates
M83 ; extruder relative mode
M104 S215 ; set extruder temp
M140 S60 ; set bed temp
M190 S60 ; wait for bed temp
M109 S215 ; wait for extruder temp
G28                                        ; move X/Y/Z to min endstops
G1 Z0.28                                   ; lift nozzle a bit 
G92 E0 
G1 Y3 F1800                                    ; zero the extruded length 
G1 X60  E25 F500                       ; Extrude 25mm of filament in a 5cm line. 
G92 E0                                     ; zero the extruded length again 
G1 E-2 F500                                ; Retract a little 
G1 X70 F4000                              ; Quickly wipe away from the filament line
M117
G21 ; set units to millimeters
G90 ; use absolute coordinates
M82 ; use absolute distances for extrusion
G92 E0
M107
;LAYER_CHANGE
;Z:0.28
;HEIGHT:0.28
G1 E-2 F4800
G92 E0
G1 Z.28 F7200
G1 X105.735 Y106.728
G1 E2 F4800
G92 E0
M204 S2000
;TYPE:Skirt/Brim
;WIDTH:0.56
G1 F3000
G1 X107.747 Y106.092 E.1228
G1 X121.932 Y106.092 E.9483
G1 X123.545 Y106.486 E1.04493
G1 X124.796 Y107.581 E1.14168
G1 X125.431 Y109.592 E1.26441
G1 X125.431 Y118.558 E1.78619
G1 X125.332 Y119.388 E1.83483
G1 X124.987 Y120.801 E1.91948
G1 X124.488 Y122.175 E2.00455
G1 X124.09 Y122.885 E2.05192
G1 X122.923 Y124.068 E2.14862
G1 X121.092 Y124.59 E2.25942
G1 X110.353 Y124.59 E2.88438
G1 X108.74 Y124.192 E2.98106
G1 X107.921 Y123.6 E3.03987
G1 X105.308 Y121.062 E3.25186
G1 X104.426 Y119.655 E3.3485
G1 X104.247 Y118.552 E3.41353
G1 X104.247 Y109.592 E3.93496
G1 X104.641 Y107.978 E4.03164
G1 X105.696 Y106.773 E4.12484
M204 S2500
G1 X105.696 Y106.773 F7200
G1 X106.08 Y107.151
M204 S2000
G1 F3000
G1 X106.217 Y107.011 E4.13624
G1 X107.747 Y106.592 E4.22856
G1 X121.932 Y106.592 E5.05406
G1 X123.417 Y106.985 E5.14345
G1 X124.512 Y108.062 E5.23283
G1 X124.931 Y109.592 E5.32515
G1 X124.931 Y118.558 E5.84693
G1 X124.846 Y119.269 E5.8886
G3 X124.033 Y121.968 I-12.676 J-2.346 E6.05289
G1 X123.66 Y122.629 E6.09706
G1 X122.561 Y123.702 E6.18644
G1 X121.091 Y124.09 E6.27492
G1 X110.354 Y124.09 E6.89976
G1 X108.269 Y123.242 E7.03075
G1 X105.657 Y120.704 E7.24269
G1 X104.866 Y119.387 E7.33209
G1 X104.747 Y118.552 E7.38117
G1 X104.747 Y109.592 E7.9026
G1 X105.14 Y108.107 E7.99199
G1 X106.038 Y107.194 E8.06652
M204 S2500
G1 X106.038 Y107.194 F7200
G1 X106.387 Y107.592
M204 S2000
G1 F3000
G1 X106.692 Y107.325 E8.09011
G1 X107.747 Y107.092 E8.15299
G1 X121.932 Y107.092 E8.97849
G1 X123.276 Y107.484 E9.05996
G1 X124.198 Y108.537 E9.14141
G1 X124.432 Y109.592 E9.2043
G1 X124.432 Y118.558 E9.72608
G1 X124.36 Y119.151 E9.76084
G3 X123.578 Y121.762 I-12.226 J-2.239 E9.91970
G1 X123.231 Y122.372 E9.96054
G1 X122.205 Y123.325 E10.04203
G1 X121.09 Y123.59 E10.10872
G1 X110.355 Y123.59 E10.73344
G1 X108.618 Y122.883 E10.84258
G1 X106.005 Y120.345 E11.05457
G1 X105.247 Y118.552 E11.16785
G1 X105.247 Y109.592 E11.68928
G1 X105.639 Y108.248 E11.77075
G1 X106.342 Y107.632 E11.82514
M204 S2500
G1 E10.42514 F4800
;WIPE_START
G1 F5760
G3 X106.692 Y107.325 I20.425 J22.932 E10.05657
G1 X106.977 Y107.262 E9.82514
;WIPE_END
G92 E0
G92 E0
G1 X110.785 Y120.71 F7200
G1 E2 F4800
M204 S2000
;TYPE:External perimeter
G1 F3000
G1 X110.575 Y120.71 E2.01222
G3 X110.271 Y119.163 I1.443 J-1.087 E2.10684
G2 X109.566 Y118.172 I-0.899 J-0.107 E2.18427
G1 X108.127 Y118.172 E2.26801
G1 X108.127 Y109.972 E2.74521
G1 X121.552 Y109.972 E3.52648
G1 X121.552 Y118.33 E4.01287
G2 X121.174 Y119.163 I0.476 J0.718 E4.06902
G3 X120.870 Y120.710 I-1.942 J0.422 E4.16364
G1 X120.66 Y120.71 E4.17586
G3 X120.355 Y119.163 I1.432 J-1.086 E4.27056
G2 X119.650 Y118.172 I-0.896 J-0.109 E4.34804
G1 X118.518 Y118.172 E4.41392
G2 X117.813 Y119.163 I0.191 J0.882 E4.49139
G3 X117.505 Y120.716 I-1.943 J0.422 E4.58641
G1 X117.3 Y120.713 E4.59834
G3 X116.994 Y119.163 I1.426 J-1.087 E4.69321
G2 X116.289 Y118.172 I-0.899 J-0.107 E4.77064
G1 X115.156 Y118.172 E4.83657
G2 X114.451 Y119.163 I0.194 J0.884 E4.91400
G3 X114.145 Y120.713 I-1.943 J0.422 E5.00887
G1 X113.94 Y120.716 E5.0208
G3 X113.632 Y119.163 I1.451 J-1.095 E5.11582
G2 X112.927 Y118.172 I-0.896 J-0.109 E5.19329
G1 X111.795 Y118.172 E5.25917
G2 X111.090 Y119.163 I0.191 J0.882 E5.33665
G3 X110.816 Y120.658 I-1.903 J0.424 E5.42780
M204 S2500
G1 E4.0278 F4800
;WIPE_START
G1 F5760
G1 X110.785 Y120.71 E3.97987
G1 X110.575 Y120.71 E3.81362
G3 X110.355 Y120.276 I1.884 J-1.228 E3.42780
;WIPE_END
G92 E0
G1 X110.68 Y118.541 F7200
G1 E2 F4800
M204 S2000
;TYPE:Perimeter
G1 F3000
G2 X109.657 Y117.672 I-1.322 J0.519 E2.08114
G1 X108.627 Y117.672 E2.14108
G1 X108.627 Y110.472 E2.56008
G1 X121.052 Y110.472 E3.28315
G1 X121.052 Y118.1 E3.72706
G2 X120.765 Y118.541 I0.732 J0.790 E3.75791
G2 X119.741 Y117.672 I-1.321 J0.519 E3.83910
G1 X118.427 Y117.672 E3.91557
G2 X117.403 Y118.541 I0.297 J1.388 E3.99676
G2 X116.380 Y117.672 I-1.322 J0.519 E4.07790
G1 X115.065 Y117.672 E4.15443
G2 X114.042 Y118.541 I0.295 J1.384 E4.23559
G2 X113.018 Y117.672 I-1.321 J0.519 E4.31678
G1 X111.704 Y117.672 E4.39325
G2 X110.708 Y118.488 I0.284 J1.362 E4.47095
M204 S2500
G1 X110.708 Y118.488 F7200
G1 X110.68 Y117.655
M204 S2000
G1 F3000
G2 X109.127 Y117.172 I-1.290 J1.411 E4.56865
G1 X109.127 Y110.972 E4.92946
G1 X120.552 Y110.972 E5.59434
G1 X120.552 Y117.442 E5.97086
G1 X119.832 Y117.172 E6.01561
G1 X118.336 Y117.172 E6.10267
G2 X117.403 Y117.655 I0.487 J2.084 E6.16429
G2 X116.470 Y117.172 I-1.413 J1.587 E6.22591
G1 X114.975 Y117.172 E6.31291
G2 X114.042 Y117.655 I0.480 J2.070 E6.37453
G2 X113.109 Y117.172 I-1.420 J1.601 E6.43615
G1 X111.613 Y117.172 E6.52321
G2 X110.730 Y117.620 I0.445 J1.972 E6.58127
M204 S2500
G1 E5.18127 F4800
;WIPE_START
G1 F5760
G1 X110.68 Y117.655 E5.13295
G2 X110.086 Y117.299 I-0.992 J0.982 E4.58127
;WIPE_END
G92 E0
G1 X110.839 Y118.922 F7200
G1 E2 F4800
M204 S2000
;TYPE:Gap fill
;WIDTH:0.276845
G1 F3000
G1 X110.732 Y119.186 E2.00719
;WIDTH:0.330347
G1 X110.709 Y119.22 E2.00848
;WIDTH:0.398249
G1 X110.68 Y119.26 E2.01042
;WIDTH:0.478319
G3 X110.633 Y120.283 I-4.858 J0.289 E2.06034
M204 S2500
G1 X110.633 Y120.283 F7200
G1 X110.638 Y120.295
M204 S2000
;WIDTH:0.309396
G1 F3000
G1 X110.849 Y119.243 E2.09148
M204 S2500
G1 E.69148 F4800
;WIPE_START
G1 F5760
G1 X110.7 Y119.986 E.09148
;WIPE_END
G92 E0
G1 X114.042 Y119.091 F7200
G1 E2 F4800
M204 S2000
;WIDTH:0.309393
G1 F3000
G1 X114.042 Y120.387 E2.03761
M204 S2500
G1 X114.042 Y120.387 F7200
G1 X113.994 Y120.282
M204 S2000
;WIDTH:0.47832
G1 F3000
G2 X114.042 Y119.260 I-4.886 J-0.742 E2.08749
;WIDTH:0.398247
G1 X114.07 Y119.22 E2.08941
;WIDTH:0.330357
G1 X114.093 Y119.186 E2.0907
;WIDTH:0.276859
G1 X114.201 Y118.922 E2.0979
M204 S2500
G1 E.6979 F4800
;WIPE_START
G1 F5760
G2 X114.044 Y119.643 I0.901 J0.574 E0.09790
;WIPE_END
G92 E0
G1 X117.403 Y119.091 F7200
G1 E2 F4800
M204 S2000
;WIDTH:0.309396
G1 F3000
G1 X117.403 Y120.387 E2.03761
M204 S2500
G1 X117.403 Y120.387 F7200
G1 X117.451 Y120.283
M204 S2000
;WIDTH:0.478322
G1 F3000
G3 X117.403 Y119.260 I4.901 J-0.743 E2.08753
;WIDTH:0.398253
G1 X117.432 Y119.22 E2.08947
;WIDTH:0.330342
G1 X117.455 Y119.186 E2.09076
;WIDTH:0.276839
G1 X117.562 Y118.922 E2.09795
M204 S2500
G1 E.69795 F4800
;WIPE_START
G1 F5760
G2 X117.401 Y119.642 I0.944 J0.589 E0.09795
;WIPE_END
G92 E0
G1 X120.443 Y117.7 F7200
G1 E2 F4800
M204 S2000
;WIDTH:0.16596
G1 F3000
G1 X120.802 Y117.905 E2.0051
M204 S2500
G1 E.6051 F4800
;WIPE_START
G1 F5760
G1 X120.443 Y117.7 E.27782
;WIPE_END
G1 E.0051 F4800
G92 E0
G1 X120.924 Y118.922 F7200
G1 E2 F4800
M204 S2000
;WIDTH:0.276841
G1 F3000
G1 X120.816 Y119.186 E2.0072
;WIDTH:0.330343
G1 X120.793 Y119.22 E2.00849
;WIDTH:0.398249
G1 X120.765 Y119.26 E2.01041
;WIDTH:0.478321
G2 X120.812 Y120.282 I4.844 J0.289 E2.06029
M204 S2500
G1 X120.812 Y120.282 F7200
G1 X120.765 Y120.387
M204 S2000
;WIDTH:0.309396
G1 F3000
G1 X120.765 Y119.091 E2.0979
M204 S2500
G1 E.6979 F4800
;WIPE_START
G1 F5760
G1 X120.765 Y119.849 E.0979
;WIPE_END
G92 E0
G1 X120.302 Y116.999 F7200
G1 E2 F4800
M204 S2000
;WIDTH:0.190511
G1 F3000
G1 X120.029 Y116.95 E2.00421
M204 S2500
G1 E.60421 F4800
;WIPE_START
G1 F5760
G1 X120.302 Y116.999 E.38463
;WIPE_END
G1 E.00421 F4800
G92 E0
G1 X119.298 Y111.172 F7200
G1 E2 F4800
M204 S2000
;TYPE:Solid infill
;WIDTH:0.580446
G1 F3000
G1 X120.127 Y112.001 E2.07102
G1 X120.127 Y112.737 E2.1156
G1 X118.787 Y111.397 E2.23039
G1 X118.051 Y111.397 E2.27497
G1 X120.127 Y113.472 E2.45277
G1 X120.127 Y114.208 E2.49735
G1 X117.315 Y111.397 E2.7382
G1 X116.579 Y111.397 E2.78278
G1 X120.127 Y114.944 E3.08668
G1 X120.127 Y115.68 E3.13126
G1 X115.843 Y111.397 E3.49821
G1 X115.108 Y111.397 E3.54273
G1 X120.127 Y116.416 E3.97269
G1 X120.127 Y116.439 E3.97408
G1 X119.704 Y116.362 E4.00012
G1 X119.648 Y116.673 E4.01926
G1 X114.372 Y111.397 E4.47123
G1 X113.636 Y111.397 E4.51581
G1 X118.986 Y116.747 E4.97412
G1 X118.253 Y116.75 E5.01852
G1 X112.9 Y111.397 E5.47709
G1 X112.164 Y111.397 E5.52167
G1 X117.718 Y116.95 E5.99742
G2 X117.403 Y117.138 I0.214 J0.716 E6.01978
G2 X116.917 Y116.886 I-0.740 J0.832 E6.05320
G1 X111.428 Y111.397 E6.52342
G1 X110.692 Y111.397 E6.568
G1 X116.043 Y116.747 E7.02636
G1 X115.307 Y116.747 E7.07094
G1 X109.956 Y111.397 E7.5293
G1 X109.552 Y111.397 E7.55377
G1 X109.552 Y111.728 E7.57382
G1 X114.66 Y116.836 E8.0114
G2 X114.150 Y117.063 I0.195 J1.125 E8.04540
G1 X109.552 Y112.464 E8.43934
G1 X109.552 Y113.2 E8.48392
G1 X113.099 Y116.747 E8.78778
G1 X112.363 Y116.747 E8.83236
G1 X109.552 Y113.936 E9.07317
G1 X109.552 Y114.672 E9.11775
G1 X111.627 Y116.747 E9.29551
G1 X111.536 Y116.747 E9.30102
G1 X111.067 Y116.923 E9.33136
G1 X109.552 Y115.407 E9.46119
G1 X109.552 Y116.143 E9.50577
G1 X110.763 Y117.354 E9.60951
M204 S2500
;LAYER_CHANGE
;Z:0.48
;HEIGHT:0.2
; BEFORE_LAYER_CHANGE 1 @ 0.48mm
G1 E8.20951 F4800
;WIPE_START
G1 F5760
G1 X110.227 Y116.818 E7.60951
;WIPE_END
G92 E0
G1 Z.48 F7200
; AFTER_LAYER_CHANGE 1 @ 0.48mm
M104 S190 ; set temperature
G1 X104.247 Y116.818
G1 E2 F4800
G92 E0
;TYPE:Skirt/Brim
;WIDTH:0.56
G1 F4037
G1 X104.247 Y109.592 E.31068
G1 X104.641 Y107.978 E.38211
G1 X105.735 Y106.728 E.45353
G1 X107.747 Y106.092 E.54426
G1 X121.932 Y106.092 E1.15415
G1 X123.545 Y106.486 E1.22554
G1 X124.796 Y107.581 E1.29702
G1 X125.431 Y109.592 E1.38769
G1 X125.431 Y118.558 E1.77319
G1 X125.332 Y119.388 E1.80913
G3 X124.488 Y122.175 I-13.169 J-2.467 E1.93452
G1 X124.09 Y122.885 E1.96952
G1 X122.923 Y124.068 E2.04097
G1 X121.092 Y124.59 E2.12283
G1 X110.353 Y124.59 E2.58456
G1 X108.74 Y124.192 E2.65599
G1 X107.921 Y123.6 E2.69944
G1 X105.308 Y121.062 E2.85606
G1 X104.426 Y119.655 E2.92746
G1 X104.247 Y118.552 E2.9755
G1 X104.247 Y116.878 E3.04747
G1 X104.247 Y116.878 F7200
G1 X104.747 Y116.878
G1 F4037
G1 X104.747 Y109.592 E3.36073
G1 X105.14 Y108.107 E3.42678
G1 X106.217 Y107.011 E3.49285
G1 X107.747 Y106.592 E3.56106
G1 X121.932 Y106.592 E4.17095
G1 X123.417 Y106.985 E4.237
G1 X124.512 Y108.062 E4.30304
G1 X124.931 Y109.592 E4.37125
G1 X124.931 Y118.558 E4.75675
G1 X124.846 Y119.269 E4.78754
G3 X124.033 Y121.968 I-12.676 J-2.346 E4.90892
G1 X123.66 Y122.629 E4.94155
G1 X122.561 Y123.702 E5.00759
G1 X121.091 Y124.09 E5.07296
G1 X110.354 Y124.09 E5.5346
G1 X108.269 Y123.242 E5.63138
G1 X105.657 Y120.704 E5.78797
G1 X104.866 Y119.387 E5.85402
G1 X104.747 Y118.552 E5.89028
G1 X104.747 Y116.938 E5.95967
G1 X105.247 Y116.938 F7200
G1 F4037
G1 X105.247 Y109.592 E6.27551
G1 X105.639 Y108.248 E6.3357
G1 X106.692 Y107.325 E6.3959
G1 X107.747 Y107.092 E6.44235
G1 X121.932 Y107.092 E7.05224
G1 X123.276 Y107.484 E7.11243
G1 X124.198 Y108.537 E7.17261
G1 X124.432 Y109.592 E7.21907
G1 X124.432 Y118.558 E7.60457
G1 X124.36 Y119.151 E7.63025
G3 X123.578 Y121.762 I-12.226 J-2.239 E7.74762
G1 X123.231 Y122.372 E7.77779
G1 X122.205 Y123.325 E7.838
G1 X121.09 Y123.59 E7.88728
G1 X110.355 Y123.59 E8.34884
G1 X108.618 Y122.883 E8.42947
G1 X106.005 Y120.345 E8.58609
G1 X105.247 Y118.552 E8.66979
G1 X105.247 Y116.998 E8.7366
G1 E7.3366 F4800
;WIPE_START
G1 F5760
G1 X105.247 Y116.938 E7.2891
G1 X105.247 Y116.24 E6.7366
;WIPE_END
G92 E0
G92 E0
G1 X111.243 Y119.082 F7200
G1 E2 F4800
;TYPE:External perimeter
;WIDTH:0.45
G1 F4037
G3 X110.873 Y120.865 I-2.190 J0.475 E2.06362
G1 X110.487 Y120.865 E2.07669
G3 X110.116 Y119.150 I1.766 J-1.280 E2.13799
G2 X109.538 Y118.327 I-0.740 J-0.095 E2.17526
G1 X107.972 Y118.327 E2.22827
G1 X107.972 Y109.817 E2.51632
G1 X121.707 Y109.817 E2.98123
G1 X121.707 Y118.407 E3.27199
G2 X121.329 Y119.150 I0.349 J0.645 E3.30195
G3 X120.958 Y120.865 I-2.137 J0.435 E3.36325
G1 X120.572 Y120.865 E3.37632
G3 X120.134 Y119.611 I1.679 J-1.290 E3.42187
G2 X120.079 Y118.639 I-1.249 J-0.417 E3.45579
G2 X119.622 Y118.327 I-0.628 J0.429 E3.47491
G1 X118.542 Y118.327 E3.51147
G2 X117.967 Y119.150 I0.169 J0.731 E3.54860
G3 X117.594 Y120.869 I-2.143 J0.435 E3.61005
G3 X117.211 Y120.867 I-0.165 J-5.082 E3.62302
G3 X116.772 Y119.611 I1.708 J-1.302 E3.66865
G2 X116.718 Y118.639 I-1.255 J-0.418 E3.70257
G2 X116.261 Y118.327 I-0.628 J0.429 E3.72169
G1 X115.184 Y118.327 E3.75815
G2 X114.606 Y119.150 I0.171 J0.735 E3.79540
G3 X114.379 Y120.624 I-1.812 J0.475 E3.84722
G1 X114.234 Y120.867 E3.8568
G3 X113.851 Y120.869 I-0.218 J-5.080 E3.86977
G3 X113.478 Y119.150 I1.770 J-1.284 E3.93122
G2 X112.899 Y118.327 I-0.743 J-0.093 E3.96849
G1 X111.823 Y118.327 E4.00491
G2 X111.242 Y119.022 I0.158 J0.723 E4.03784
G1 X111.242 Y119.022 F7200
G1 X110.911 Y118.71
;TYPE:Perimeter
;WIDTH:0.4
G1 F4037
G2 X110.927 Y119.727 I2.301 J0.472 E4.06835
G3 X110.680 Y120.442 I-2.206 J-0.362 E4.09089
G3 X110.498 Y119.182 I1.492 J-0.859 E4.12974
G2 X109.607 Y117.945 I-1.125 J-0.129 E4.17926
G1 X108.354 Y117.945 E4.21646
G1 X108.354 Y110.199 E4.44645
G1 X121.325 Y110.199 E4.83158
G1 X121.325 Y118.202 E5.0692
G2 X120.947 Y119.182 I0.739 J0.848 E5.10158
G3 X120.765 Y120.442 I-1.674 J0.401 E5.14043
G3 X120.582 Y119.182 I1.479 J-0.858 E5.17929
G2 X119.692 Y117.945 I-1.125 J-0.129 E5.22879
G1 X118.467 Y117.945 E5.26516
G2 X117.586 Y119.182 I0.248 J1.109 E5.31439
G3 X117.403 Y120.442 I-1.662 J0.402 E5.35325
G3 X117.221 Y119.182 I1.492 J-0.859 E5.39210
G2 X116.330 Y117.945 I-1.125 J-0.129 E5.44162
G1 X115.115 Y117.945 E5.47769
G2 X114.224 Y119.182 I0.244 J1.115 E5.52719
G3 X114.042 Y120.442 I-1.674 J0.401 E5.56604
G3 X113.859 Y119.182 I1.479 J-0.858 E5.60490
G2 X112.969 Y117.945 I-1.125 J-0.129 E5.65440
G1 X111.753 Y117.945 E5.6905
G2 X110.930 Y118.653 I0.242 J1.114 E5.72401
G1 X110.93 Y118.653 F7200
G1 X110.68 Y118.3
G1 F4037
G2 X109.672 Y117.588 I-1.385 J0.892 E5.76145
G1 X108.711 Y117.588 E5.78998
G1 X108.711 Y110.556 E5.99877
G1 X120.967 Y110.556 E6.36267
G1 X120.967 Y118.068 E6.58571
G1 X120.765 Y118.3 E6.59484
G2 X119.756 Y117.588 I-1.384 J0.890 E6.63231
G1 X118.396 Y117.588 E6.67269
G2 X117.403 Y118.300 I0.418 J1.631 E6.70969
G2 X116.395 Y117.588 I-1.385 J0.892 E6.74713
G1 X115.05 Y117.588 E6.78706
G2 X114.048 Y118.308 I0.338 J1.528 E6.82458
G2 X113.033 Y117.588 I-1.391 J0.886 E6.86235
G1 X111.689 Y117.588 E6.90226
G2 X110.720 Y118.255 I0.346 J1.539 E6.93795
G1 X110.72 Y118.255 F7200
G1 X110.802 Y118.464
