; generated by PrusaSlicer 2.7.4+win64 on 2024-07-11 at 03:58:29 UTC
; Postprocessed by [ArcWelder](https://github.com/FormerLurker/ArcWelderLib)
; Copyright(C) 2021 - Brad Hochgesang
; Version: 1.2.0, Branch: HEAD, BuildDate: 2021-11-21T20:25:43Z
; resolution=0.05mm
; path_tolerance=5.0%
; max_radius=9999.00mm
; default_xyz_precision=3
; default_e_precision=5
; extrusion_rate_variance_percent=5.0%


; 

; external perimeters extrusion width = 0.45mm
; perimeters extrusion width = 0.40mm
; infill extrusion width = 0.45mm
; solid infill extrusion width = 0.50mm
; top infill extrusion width = 0.45mm
; support material extrusion width = 0.42mm
; first layer extrusion width = 0.56mm

M201 X2500 Y2500 Z800 E2500 ; sets maximum accelerations, mm/sec^2
M203 X300 Y250 Z8 E80 ; sets maximum feedrates, mm / sec
M204 S2500 T2500 ; sets acceleration (S) and retract acceleration (R), mm/sec^2
M205 X15.00 Y10.00 Z2.00 E10.00 ; sets the jerk limits, mm/sec
M205 S0 T0 ; sets the minimum extruding and travel feed rate, mm/sec
;TYPE:Custom
G90 ; use absolute coordinates
M83 ; extruder relative mode
M104 S215 ; set extruder temp
M140 S60 ; set bed temp
M190 S60 ; wait for bed temp
M109 S215 ; wait for extruder temp
G28                                        ; move X/Y/Z to min endstops
G1 Z0.28                                   ; lift nozzle a bit 
G92 E0 
G1 Y3 F1800                                    ; zero the extruded length 
G1 X60  E25 F500                       ; Extrude 25mm of filament in a 5cm line. 
G92 E0                                     ; zero the extruded length again 
G1 E-2 F500                                ; Retract a little 
G1 X70 F4000                              ; Quickly wipe away from the filament line
M117
G21 ; set units to millimeters
G90 ; use absolute coordinates
M82 ; use absolute distances for extrusion
G92 E0
M107
;LAYER_CHANGE
;Z:0.28
;HEIGHT:0.28
G1 E-2 F4800
G92 E0
G1 Z.28 F7200
G1 X107.253 Y107.778
G1 E2 F4800
G92 E0
M204 S2000
;TYPE:Skirt/Brim
;WIDTH:0.56
G1 F3000
G1 X108.431 Y106.769 E.09026
G1 X111.24 Y105.147 E.27902
G1 X112.703 Y104.631 E.3693
G1 X113.609 Y104.512 E.42248
G1 X116.853 Y104.512 E.61126
G1 X117.76 Y104.632 E.6645
G1 X119.222 Y105.147 E.75471
G1 X122.031 Y106.769 E.94347
G1 X123.209 Y107.778 E1.03373
G1 X123.765 Y108.503 E1.0869
G1 X125.387 Y111.312 E1.27566
G1 X125.903 Y112.776 E1.36599
G1 X126.022 Y113.682 E1.41917
G1 X126.022 Y116.925 E1.6079
G1 X125.903 Y117.831 E1.66108
G1 X125.387 Y119.294 E1.75136
G1 X123.765 Y122.103 E1.94012
G1 X123.209 Y122.828 E1.99329
G1 X122.031 Y123.838 E2.08359
G1 X119.222 Y125.459 E2.27233
G1 X117.758 Y125.975 E2.36266
G1 X116.853 Y126.094 E2.41578
G1 X113.609 Y126.094 E2.60456
G1 X112.703 Y125.975 E2.65774
G1 X111.24 Y125.459 E2.74802
G1 X108.431 Y123.838 E2.93676
G1 X107.706 Y123.282 E2.98993
G1 X106.696 Y122.103 E3.08028
G1 X105.075 Y119.294 E3.26902
G1 X104.559 Y117.831 E3.3593
G1 X104.44 Y116.925 E3.41248
G1 X104.44 Y113.682 E3.60121
G1 X104.559 Y112.776 E3.65439
G1 X105.075 Y111.312 E3.74472
G1 X106.696 Y108.503 E3.93346
G1 X107.216 Y107.826 E3.98314
M204 S2500
G1 X107.606 Y108.132 F7200
M204 S2000
G1 F3000
G1 X108.681 Y107.202 E4.06586
G1 X111.49 Y105.58 E4.25462
G1 X112.833 Y105.114 E4.33735
G1 X113.609 Y105.012 E4.3829
G1 X116.853 Y105.012 E4.57168
G1 X117.631 Y105.114 E4.61734
G1 X118.972 Y105.58 E4.69996
G1 X121.781 Y107.202 E4.88872
G1 X122.402 Y107.678 E4.93425
G1 X123.333 Y108.753 E5.01701
G1 X124.954 Y111.562 E5.20575
G1 X125.42 Y112.905 E5.28848
G1 X125.522 Y113.682 E5.33409
G1 X125.522 Y116.925 E5.52282
G1 X125.42 Y117.701 E5.56837
G1 X124.954 Y119.044 E5.6511
G1 X123.333 Y121.853 E5.83984
G1 X122.856 Y122.474 E5.88541
G1 X121.781 Y123.405 E5.96817
G1 X118.972 Y125.026 E6.15691
G1 X117.629 Y125.492 E6.23964
G1 X116.853 Y125.594 E6.28519
G1 X113.609 Y125.594 E6.47397
G1 X112.833 Y125.492 E6.51952
G1 X111.49 Y125.026 E6.60225
G1 X108.681 Y123.405 E6.79099
G1 X108.06 Y122.928 E6.83656
G1 X107.129 Y121.853 E6.91932
G1 X105.508 Y119.044 E7.10806
G1 X105.042 Y117.701 E7.19079
G1 X104.94 Y116.925 E7.23634
G1 X104.94 Y113.682 E7.42507
G1 X105.042 Y112.905 E7.47068
G1 X105.508 Y111.562 E7.55341
G1 X107.129 Y108.753 E7.74215
G1 X107.57 Y108.179 E7.78427
M204 S2500
G1 X107.57 Y108.179 F7200
G1 X107.96 Y108.485
M204 S2000
G1 F3000
G1 X108.931 Y107.635 E7.85937
G1 X111.74 Y106.013 E8.04813
G1 X112.962 Y105.597 E8.12325
G1 X113.609 Y105.512 E8.16123
G1 X116.853 Y105.512 E8.35001
G1 X117.501 Y105.597 E8.38804
G1 X118.722 Y106.013 E8.46311
G1 X121.531 Y107.635 E8.65187
G1 X122.502 Y108.485 E8.72697
G1 X122.9 Y109.003 E8.76499
G1 X124.521 Y111.812 E8.95373
G1 X124.937 Y113.034 E9.02885
G1 X125.022 Y113.682 E9.06688
G1 X125.022 Y116.925 E9.25561
G1 X124.937 Y117.572 E9.29359
G1 X124.521 Y118.794 E9.36871
G1 X122.9 Y121.603 E9.55745
G1 X122.502 Y122.121 E9.59547
G1 X121.531 Y122.972 E9.67061
G1 X118.722 Y124.594 E9.85937
G1 X117.5 Y125.009 E9.93447
G1 X116.853 Y125.094 E9.97245
G1 X113.609 Y125.094 E10.16123
G1 X112.962 Y125.009 E10.19921
G1 X111.74 Y124.594 E10.27431
G1 X108.931 Y122.972 E10.46307
G1 X108.413 Y122.575 E10.50105
G1 X107.562 Y121.603 E10.57623
G1 X105.941 Y118.794 E10.76497
G1 X105.525 Y117.572 E10.84009
G1 X105.44 Y116.925 E10.87807
G1 X105.44 Y113.682 E11.0668
G1 X105.525 Y113.034 E11.10483
G1 X105.941 Y111.812 E11.17995
G1 X107.562 Y109.003 E11.36869
G1 X107.923 Y108.533 E11.40318
M204 S2500
G1 E10.00318 F4800
;WIPE_START
G1 F5760
G1 X107.96 Y108.485 E9.9552
G1 X108.485 Y108.025 E9.40318
;WIPE_END
G92 E0
G92 E0
G1 X115.509 Y113.386 F7200
G1 E2 F4800
M204 S2000
;TYPE:Support material
G1 F3000
G1 X116.162 Y113.603 E2.04004
G1 X116.451 Y113.797 E2.0603
G1 X116.902 Y114.322 E2.10058
G1 X117.14 Y114.971 E2.14081
G1 X117.135 Y115.663 E2.18108
G1 X116.887 Y116.31 E2.2214
G1 X116.428 Y116.827 E2.26163
G1 X115.816 Y117.151 E2.30193
G1 X115.13 Y117.239 E2.34218
G1 X114.786 Y117.189 E2.36241
G1 X114.151 Y116.913 E2.4027
G1 X113.653 Y116.427 E2.44319
G1 X113.359 Y115.805 E2.48323
G1 X113.302 Y115.115 E2.52352
G1 X113.491 Y114.449 E2.56381
G1 X113.902 Y113.892 E2.60409
G1 X114.483 Y113.515 E2.6444
G1 X114.814 Y113.411 E2.66459
G1 X115.434 Y113.383 E2.70071
M204 S2500
G1 X115.434 Y113.383 F7200
G1 X116.342 Y116.599
M204 S2000
G1 F3000
G1 X116.342 Y114.318 E2.83345
G1 X115.786 Y113.93 E2.87291
G1 X115.786 Y116.675 E3.03266
G1 X115.231 Y116.785 E3.06559
G1 X115.231 Y113.825 E3.23785
G1 X114.675 Y113.926 E3.27074
G1 X114.675 Y116.678 E3.43089
G1 X114.12 Y116.276 E3.47077
G1 X114.12 Y114.007 E3.60281
M204 S2500
G1 E2.20281 F4800
;WIPE_START
G1 F5760
G1 X114.12 Y114.765 E1.60281
;WIPE_END
G92 E0
G1 X118.334 Y111.423 F7200
G1 E2 F4800
M204 S2000
;TYPE:External perimeter
G1 F3000
G2 X119.126 Y110.737 I-0.477 J-1.351 E2.06276
G3 X120.165 Y110.221 I1.473 J1.663 E2.13108
G1 X120.313 Y110.369 E2.14326
G3 X119.435 Y111.678 I-1.775 J-0.242 E2.23789
G2 X119.213 Y112.835 I0.547 J0.705 E2.31262
G2 X119.644 Y113.394 I1.094 J-0.398 E2.35413
G2 X120.472 Y113.475 I0.491 J-0.746 E2.40439
G3 X122.045 Y113.368 I0.910 J1.766 E2.49901
G1 X122.099 Y113.572 E2.51129
G3 X120.684 Y114.266 I-1.423 J-1.113 E2.60588
G2 X119.926 Y114.978 I0.128 J0.896 E2.67021
G1 X119.926 Y115.628 E2.70804
G2 X120.684 Y116.341 I0.884 J-0.181 E2.77241
G3 X122.099 Y117.035 I-0.090 J1.974 E2.86702
G1 X122.045 Y117.238 E2.87924
G3 X120.472 Y117.131 I-0.676 J-1.678 E2.97386
G2 X119.360 Y117.518 I-0.335 J0.828 E3.04857
G2 X119.091 Y118.171 I0.887 J0.747 E3.09011
G2 X119.435 Y118.928 I0.894 J0.050 E3.14033
G3 X120.313 Y120.237 I-1.070 J1.667 E3.23493
G1 X120.165 Y120.386 E3.24715
G3 X118.856 Y119.507 I0.245 J-1.779 E3.34182
G2 X117.699 Y119.285 I-0.705 J0.547 E3.41653
G1 X117.293 Y119.537 E3.44434
G2 X117.059 Y120.545 I0.598 J0.670 E3.50833
G3 X117.166 Y122.117 I-1.763 J0.910 E3.60289
G1 X116.963 Y122.172 E3.61513
G3 X116.268 Y120.756 I1.112 J-1.425 E3.70980
G2 X115.556 Y119.999 I-0.896 J0.129 E3.77409
G1 X114.906 Y119.999 E3.81192
G2 X114.194 Y120.756 I0.179 J0.882 E3.87622
G3 X113.499 Y122.172 I-1.978 J-0.092 E3.97089
G1 X113.296 Y122.117 E3.98313
G3 X113.403 Y120.545 I1.675 J-0.676 E4.07769
G2 X113.017 Y119.432 I-0.829 J-0.336 E4.15240
G1 X112.595 Y119.206 E4.18026
G2 X111.606 Y119.507 I-0.281 J0.853 E4.24419
G3 X110.297 Y120.386 I-1.666 J-1.067 E4.33882
G1 X110.148 Y120.237 E4.35108
G3 X111.027 Y118.928 I1.790 J0.252 E4.44570
G2 X111.165 Y117.651 I-0.548 J-0.705 E4.52894
G2 X109.990 Y117.131 I-0.840 J0.310 E4.61221
G3 X108.417 Y117.238 I-0.910 J-1.766 E4.70683
G1 X108.362 Y117.035 E4.71907
G3 X109.778 Y116.341 I1.421 J1.108 E4.81372
G2 X110.533 Y115.634 I-0.128 J-0.893 E4.87768
G2 X110.330 Y114.566 I-1.420 J-0.283 E4.94286
G2 X109.329 Y114.213 I-0.942 J1.075 E5.00647
G3 X108.362 Y113.572 I0.714 J-2.127 E5.07479
G1 X108.417 Y113.368 E5.08709
G3 X109.990 Y113.475 I0.676 J1.678 E5.18171
G2 X111.102 Y113.089 I0.337 J-0.825 E5.25640
G2 X111.371 Y112.436 I-0.887 J-0.747 E5.29794
G2 X111.027 Y111.678 I-0.894 J-0.051 E5.34821
G3 X110.148 Y110.369 I1.077 J-1.673 E5.44285
G1 X110.297 Y110.221 E5.45507
G3 X111.606 Y111.099 I-0.245 J1.780 E5.54973
G2 X112.602 Y111.399 I0.711 J-0.557 E5.61412
G1 X113.165 Y111.074 E5.65195
G2 X113.403 Y110.062 I-0.595 J-0.674 E5.71626
G3 X113.296 Y108.489 I1.766 J-0.910 E5.81088
G1 X113.499 Y108.435 E5.8231
G3 X114.194 Y109.850 I-1.096 J1.417 E5.91778
G2 X114.900 Y110.606 I0.891 J-0.124 E5.98175
G2 X115.968 Y110.403 I0.281 J-1.432 E6.04690
G2 X116.322 Y109.391 I-1.090 J-0.949 E6.11115
G3 X116.965 Y108.435 I2.111 J0.726 E6.17899
G1 X117.166 Y108.489 E6.1911
G3 X117.059 Y110.062 I-1.678 J0.676 E6.28572
G2 X117.445 Y111.174 I0.825 J0.337 E6.36041
G1 X117.866 Y111.401 E6.38824
G2 X118.275 Y111.431 I0.264 J-0.797 E6.41228
M204 S2500
G1 X118.461 Y111.908 F7200
M204 S2000
;TYPE:Perimeter
G1 F3000
G1 X118.706 Y111.829 E6.42726
G2 X118.771 Y113.071 I1.235 J0.558 E6.50232
G1 X119.081 Y113.571 E6.53656
G2 X119.977 Y114.031 I1.028 J-0.899 E6.59638
G2 X119.426 Y114.891 I0.863 J1.160 E6.65702
G1 X119.426 Y115.715 E6.70497
G2 X119.977 Y116.575 I1.373 J-0.273 E6.76561
G2 X118.934 Y117.253 I0.136 J1.351 E6.84066
G1 X118.656 Y117.772 E6.87492
G2 X118.706 Y118.778 I1.290 J0.440 E6.93474
G2 X117.463 Y118.843 I-0.558 J1.246 E7.00981
G1 X116.963 Y119.153 E7.04405
G2 X116.503 Y120.050 I0.913 J1.034 E7.10390
G2 X115.643 Y119.499 I-1.152 J0.851 E7.16456
G1 X114.819 Y119.499 E7.21251
G2 X113.959 Y120.050 I0.266 J1.362 E7.27317
G2 X113.281 Y119.007 I-1.347 J0.134 E7.34822
G1 X112.763 Y118.728 E7.38246
G2 X111.756 Y118.778 I-0.440 J1.309 E7.44232
G2 X111.598 Y117.401 I-1.235 J-0.556 E7.52693
G2 X110.484 Y116.575 I-1.246 J0.516 E7.61160
G2 X111.031 Y115.728 I-0.841 J-1.143 E7.67147
G2 X110.904 Y114.523 I-2.315 J-0.365 E7.74286
G2 X110.484 Y114.031 I-1.197 J0.597 E7.78079
G2 X111.527 Y113.354 I-0.134 J-1.349 E7.85583
G1 X111.806 Y112.835 E7.89012
G2 X111.756 Y111.829 I-1.304 J-0.439 E7.94992
G2 X112.776 Y111.876 I0.572 J-1.322 E8.01056
G1 X113.49 Y111.464 E8.05853
G2 X113.959 Y110.557 I-0.917 J-1.049 E8.11916
G2 X114.806 Y111.103 I1.145 J-0.846 E8.17899
G2 X116.011 Y110.976 I0.365 J-2.315 E8.25039
G2 X116.503 Y110.557 I-0.586 J-1.186 E8.28828
G2 X117.181 Y111.600 I1.351 J-0.136 E8.36333
G1 X117.699 Y111.878 E8.39754
G2 X118.403 Y111.923 I0.440 J-1.355 E8.43892
M204 S2500
G1 E7.03892 F4800
;WIPE_START
G1 F5760
G2 X118.706 Y111.829 I-0.646 J-2.618 E6.78770
G2 X118.602 Y112.254 I0.780 J0.416 E6.43892
;WIPE_END
G92 E0
G1 X115.582 Y118.107 F7200
G1 E2 F4800
M204 S2000
;TYPE:External perimeter
G1 F3000
G3 X116.084 Y117.998 I-0.346 J-2.805 E3.00219
G1 X115.641 Y118.096 E3.02859
M204 S2500
G1 X115.641 Y118.096 F7200
G1 X115.615 Y118.606
M204 S2000
;TYPE:Perimeter
G1 F3000
G3 X116.236 Y118.476 I-0.367 J-3.301 E4.20694
G1 X115.674 Y118.6 E4.24043
M204 S2500
G1 X115.674 Y118.6 F7200
G1 X115.846 Y119.306
M204 S2000
;TYPE:Gap fill
;WIDTH:0.498424
G1 F3000
G1 X116.688 Y118.784 E4.29098
;WIDTH:0.432522
G2 X117.268 Y118.453 I-1.665 J-3.592 E4.31996
;WIDTH:0.506538
G1 X118.389 Y117.842 E4.38631
M204 S2500
G1 X118.389 Y117.842 F7200
G1 X117.774 Y118.46
M204 S2000
;WIDTH:0.459929
G1 F3000
G2 X118.658 Y116.866 I-152.647 J-85.697 E4.47120
;WIDTH:0.520411
G1 X119.257 Y115.982 E4.52842
M204 S2500
G1 X119.257 Y115.982 F7200
G1 X119.012 Y116.766
M204 S2000
;WIDTH:0.486443
G1 F3000
G1 X118.973 Y115.758 E4.57849
;WIDTH:0.427044
G1 X118.993 Y115.315 E4.59743
;WIDTH:0.483472
G3 X119.020 Y113.847 I8.470 J-0.578 E4.66986
M204 S2500
G1 X119.02 Y113.847 F7200
G1 X119.244 Y114.66
M204 S2000
;WIDTH:0.4913
G1 F3000
G3 X118.479 Y113.414 I7.650 J-5.555 E4.74330
;WIDTH:0.417958
G1 X118.297 Y113.117 E4.75781
;WIDTH:0.494484
G1 X117.805 Y112.152 E4.81258
M204 S2500
G1 X117.805 Y112.152 F7200
G1 X118.376 Y112.693
M204 S2000
;WIDTH:0.520401
G1 F3000
G1 X117.519 Y112.298 E4.86315
;WIDTH:0.470384
G1 X117.05 Y112.016 E4.88929
;WIDTH:0.416834
G1 X116.794 Y111.877 E4.90139
;WIDTH:0.496532
G1 X115.875 Y111.29 E4.95679
M204 S2500
G1 X115.875 Y111.29 F7200
G1 X116.704 Y111.535
M204 S2000
;WIDTH:0.506536
G1 F3000
G1 X115.421 Y111.558 E5.02348
;WIDTH:0.435807
G2 X114.752 Y111.560 I-0.321 J4.580 E5.05276
;WIDTH:0.498422
G1 X113.762 Y111.529 E5.1033
M204 S2500
G1 X113.762 Y111.529 F7200
G1 X114.612 Y111.299
M204 S2000
;WIDTH:0.477998
G1 F3000
G3 X112.068 Y112.789 I-21.769 J-34.251 E5.24675
M204 S2500
G1 X112.068 Y112.789 F7200
G1 X112.738 Y112.137
M204 S2000
;WIDTH:0.492395
G1 F3000
G1 X111.9 Y113.572 E5.33038
;WIDTH:0.422521
G1 X111.783 Y113.774 E5.34023
;WIDTH:0.49755
G1 X111.227 Y114.684 E5.39454
M204 S2500
G1 X111.227 Y114.684 F7200
G1 X111.466 Y113.827
M204 S2000
;WIDTH:0.516619
G1 F3000
G1 X111.476 Y114.919 E5.45258
;WIDTH:0.452532
G1 X111.477 Y116.789 E5.53801
M204 S2500
G1 X111.477 Y116.789 F7200
G1 X111.241 Y115.883
M204 S2000
;WIDTH:0.48608
G1 F3000
G2 X112.752 Y118.472 I54.131 J-29.857 E5.68668
M204 S2500
G1 X112.752 Y118.472 F7200
G1 X112.069 Y117.819
M204 S2000
;WIDTH:0.456816
G1 F3000
G3 X113.704 Y118.758 I-15.556 J28.980 E5.77377
;WIDTH:0.514195
G1 X114.633 Y119.3 E5.83063
M204 S2500
G1 X114.633 Y119.3 F7200
G1 X113.749 Y119.062
M204 S2000
;WIDTH:0.477993
G1 F3000
G3 X116.697 Y119.080 I1.220 J41.539 E5.97407
M204 S2500
G1 E4.57407 F4800
;WIPE_START
G1 F5760
G1 X115.94 Y119.057 E3.97407
;WIPE_END
G92 E0
G1 X116.755 Y120.376 F7200
G1 E2 F4800
M204 S2000
;WIDTH:0.276828
G1 F3000
G1 X116.719 Y120.659 E2.0072
;WIDTH:0.330335
G1 X116.706 Y120.698 E2.00849
;WIDTH:0.398251
G1 X116.689 Y120.744 E2.01042
;WIDTH:0.468748
G2 X116.993 Y121.759 I8.671 J-2.044 E2.06085
M204 S2500
G1 E.66085 F4800
;WIPE_START
G1 F5760
G3 X116.767 Y121.036 I6.113 J-2.308 E0.06085
;WIPE_END
G92 E0
G1 X114.014 Y120.459 F7200
G1 E2 F4800
M204 S2000
;WIDTH:0.276873
G1 F3000
G1 X113.83 Y120.698 E2.00761
;WIDTH:0.330368
G1 X113.792 Y120.729 E2.00915
;WIDTH:0.398245
G2 X113.742 Y120.861 I0.063 J0.099 E2.01486
;WIDTH:0.467908
G3 X113.469 Y121.759 I-7.792 J-1.878 E2.05944
M204 S2500
G1 E.65944 F4800
;WIPE_START
G1 F5760
G2 X113.695 Y121.036 I-6.113 J-2.308 E0.05944
;WIPE_END
G92 E0
G1 X110.546 Y119.831 F7200
G1 E2 F4800
M204 S2000
;WIDTH:0.50274
G1 F3000
G2 X111.117 Y119.417 I-0.338 J-1.067 E2.03682
;WIDTH:0.433081
G1 X111.368 Y119.166 E2.05223
M204 S2500
G1 E.65223 F4800
;WIPE_START
G1 F5760
G1 X111.117 Y119.417 E.37121
G1 X110.861 Y119.673 E.0846
G1 X110.824 Y119.691 E.05223
;WIPE_END
G92 E0
G1 X109.954 Y116.717 F7200
G1 E2 F4800
M204 S2000
;WIDTH:0.433078
G1 F3000
G1 X109.611 Y116.809 E2.01542
;WIDTH:0.502741
G2 X108.775 Y117.065 I1.735 J7.160 E2.06049
M204 S2500
G1 E.66049 F4800
;WIPE_START
G1 F5760
G3 X109.498 Y116.839 I2.308 J6.113 E0.06049
;WIPE_END
G92 E0
G1 X108.863 Y113.527 F7200
G1 E2 F4800
M204 S2000
;WIDTH:0.50274
G1 F3000
G2 X109.611 Y113.797 I1.217 J-2.201 E2.04111
;WIDTH:0.433074
G1 X109.954 Y113.889 E2.05653
M204 S2500
G1 E.65653 F4800
;WIPE_START
G1 F5760
G3 X109.224 Y113.687 I6.422 J-24.628 E0.05653
;WIPE_END
G92 E0
G1 X111.368 Y111.44 F7200
G1 E2 F4800
M204 S2000
;WIDTH:0.43308
G1 F3000
G1 X111.117 Y111.189 E2.01541
;WIDTH:0.50274
G2 X110.491 Y110.631 I-2.926 J2.652 E2.05868
M204 S2500
G1 E.65868 F4800
;WIPE_START
G1 F5760
