; generated by PrusaSlicer 2.7.4+win64 on 2024-07-11 at 04:01:21 UTC
; Postprocessed by [ArcWelder](https://github.com/FormerLurker/ArcWelderLib)
; Copyright(C) 2021 - Brad Hochgesang
; Version: 1.2.0, Branch: HEAD, BuildDate: 2021-11-21T20:25:43Z
; resolution=0.05mm
; path_tolerance=5.0%
; max_radius=9999.00mm
; default_xyz_precision=3
; default_e_precision=5
; extrusion_rate_variance_percent=5.0%


; 

; external perimeters extrusion width = 0.45mm
; perimeters extrusion width = 0.40mm
; infill extrusion width = 0.45mm
; solid infill extrusion width = 0.50mm
; top infill extrusion width = 0.45mm
; support material extrusion width = 0.42mm
; first layer extrusion width = 0.56mm

M201 X2500 Y2500 Z800 E2500 ; sets maximum accelerations, mm/sec^2
M203 X300 Y250 Z8 E80 ; sets maximum feedrates, mm / sec
M204 S2500 T2500 ; sets acceleration (S) and retract acceleration (R), mm/sec^2
M205 X15.00 Y10.00 Z2.00 E10.00 ; sets the jerk limits, mm/sec
M205 S0 T0 ; sets the minimum extruding and travel feed rate, mm/sec
;TYPE:Custom
G90 ; use absolute coordinates
M83 ; extruder relative mode
M104 S215 ; set extruder temp
M140 S60 ; set bed temp
M190 S60 ; wait for bed temp
M109 S215 ; wait for extruder temp
G28                                        ; move X/Y/Z to min endstops
G1 Z0.28                                   ; lift nozzle a bit 
G92 E0 
G1 Y3 F1800                                    ; zero the extruded length 
G1 X60  E25 F500                       ; Extrude 25mm of filament in a 5cm line. 
G92 E0                                     ; zero the extruded length again 
G1 E-2 F500                                ; Retract a little 
G1 X70 F4000                              ; Quickly wipe away from the filament line
M117
G21 ; set units to millimeters
G90 ; use absolute coordinates
M82 ; use absolute distances for extrusion
G92 E0
M107
;LAYER_CHANGE
;Z:0.28
;HEIGHT:0.28
G1 E-2 F4800
G92 E0
G1 Z.28 F7200
G1 X105.495 Y85.251
G1 E2 F4800
G92 E0
M204 S2000
;TYPE:Skirt/Brim
;WIDTH:0.56
G1 F3000
G1 X106.441 Y84.124 E.08563
G1 X107.263 Y83.483 E.14629
G1 X107.791 Y83.178 E.18178
G1 X109.174 Y82.675 E.26742
G1 X110.511 Y82.518 E.34576
G1 X122.99 Y82.518 E1.07197
G1 X124.604 Y82.912 E1.16865
G1 X125.854 Y84.006 E1.26532
G1 X126.49 Y86.018 E1.38812
G1 X126.49 Y137.228 E4.36828
G1 X126.095 Y138.842 E4.46498
G1 X125.001 Y140.092 E4.56165
G1 X122.99 Y140.728 E4.68439
G1 X108.03 Y140.728 E5.55499
G1 X106.416 Y140.333 E5.65169
G1 X105.166 Y139.239 E5.74836
G1 X104.53 Y137.228 E5.8711
G1 X104.53 Y88.499 E8.70688
G3 X105.465 Y85.303 I6.007 J0.023 E8.90304
M204 S2500
G1 X105.465 Y85.303 F7200
G1 X105.905 Y85.537
M204 S2000
G1 F3000
G1 X106.795 Y84.477 E8.98359
G1 X108.002 Y83.632 E9.06933
G1 X109.303 Y83.158 E9.14991
G1 X110.511 Y83.018 E9.22068
G1 X122.99 Y83.018 E9.94689
G1 X124.475 Y83.411 E10.03628
G1 X125.57 Y84.488 E10.12566
G1 X125.99 Y86.018 E10.21799
G1 X125.99 Y137.228 E13.19815
G1 X125.596 Y138.713 E13.28756
G1 X124.52 Y139.808 E13.3769
G1 X122.99 Y140.228 E13.46923
G1 X108.03 Y140.228 E14.33983
G1 X106.545 Y139.834 E14.42924
G1 X105.449 Y138.758 E14.51862
G1 X105.03 Y137.228 E14.61094
G1 X105.03 Y88.499 E17.44672
G3 X105.282 Y86.874 I5.734 J0.057 E17.54266
G1 X105.88 Y85.592 E17.62498
M204 S2500
G1 X105.88 Y85.592 F7200
G1 X106.314 Y85.824
M204 S2000
G1 F3000
G1 X107.148 Y84.83 E17.70049
G3 X108.605 Y83.902 I3.354 J3.658 E17.80140
G1 X109.861 Y83.565 E17.87708
G1 X122.99 Y83.518 E18.64113
G1 X124.334 Y83.91 E18.7226
G1 X125.256 Y84.963 E18.80405
G1 X125.49 Y86.018 E18.86694
G1 X125.49 Y137.228 E21.8471
G1 X125.098 Y138.572 E21.92857
G1 X124.045 Y139.494 E22.01002
G1 X122.99 Y139.728 E22.07291
G1 X108.03 Y139.728 E22.94351
G1 X106.686 Y139.336 E23.02498
G1 X105.763 Y138.283 E23.10647
G1 X105.53 Y137.228 E23.16935
G1 X105.53 Y88.499 E26.00513
G3 X105.765 Y87.003 I5.187 J0.048 E26.09349
G1 X106.289 Y85.879 E26.16566
M204 S2500
G1 E24.76566 F4800
;WIPE_START
G1 F5760
G1 X106.314 Y85.824 E24.71783
G1 X106.762 Y85.29 E24.16566
;WIPE_END
G92 E0
G92 E0
G1 X122.61 Y136.848 F7200
G1 E2 F4800
M204 S2000
;TYPE:External perimeter
G1 F3000
G1 X108.41 Y136.848 E2.82637
G1 X108.41 Y88.515 E5.63911
G3 X110.527 Y86.398 I2.103 J-0.014 E5.83271
G1 X122.61 Y86.398 E6.53588
G1 X122.61 Y136.788 E9.46832
M204 S2500
G1 X122.11 Y136.348 F7200
M204 S2000
;TYPE:Perimeter
G1 F3000
G1 X108.91 Y136.348 E10.23649
G1 X108.91 Y88.537 E13.01885
G3 X110.549 Y86.898 I1.610 J-0.029 E13.16916
G1 X122.11 Y86.898 E13.84195
G1 X122.11 Y136.288 E16.7162
M204 S2500
G1 X121.61 Y135.848 F7200
M204 S2000
G1 F3000
G1 X109.41 Y135.848 E17.42618
G1 X109.41 Y88.559 E20.17816
G3 X110.571 Y87.398 I1.114 J-0.047 E20.28523
G1 X121.61 Y87.398 E20.92764
G1 X121.61 Y135.788 E23.74369
M204 S2500
G1 E22.34369 F4800
;WIPE_START
G1 F5760
G1 X121.61 Y135.848 E22.29619
G1 X120.912 Y135.848 E21.74369
;WIPE_END
G92 E0
G1 X120.39 Y87.598 F7200
G1 E2 F4800
M204 S2000
;TYPE:Solid infill
;WIDTH:0.56475
G1 F3000
G1 X121.185 Y88.393 E2.06605
G1 X121.185 Y89.107 E2.108
G1 X119.901 Y87.823 E2.21468
G1 X119.187 Y87.823 E2.25663
G1 X121.185 Y89.821 E2.42263
G1 X121.185 Y90.534 E2.46452
G1 X118.473 Y87.823 E2.6898
G1 X117.76 Y87.823 E2.73169
G1 X121.185 Y91.248 E3.01625
G1 X121.185 Y91.962 E3.0582
G1 X117.046 Y87.823 E3.40208
G1 X116.332 Y87.823 E3.44403
G1 X121.185 Y92.676 E3.84723
G1 X121.185 Y93.389 E3.88912
G1 X115.619 Y87.823 E4.35156
G1 X114.905 Y87.823 E4.39351
G1 X121.185 Y94.103 E4.91527
G1 X121.185 Y94.817 E4.95722
G1 X114.191 Y87.823 E5.5383
G1 X113.477 Y87.823 E5.58025
G1 X121.185 Y95.53 E6.22061
G1 X121.185 Y96.244 E6.26256
G1 X112.764 Y87.823 E6.96219
G1 X112.05 Y87.823 E7.00414
G1 X121.185 Y96.958 E7.7631
G1 X121.185 Y97.671 E7.80499
G1 X111.336 Y87.823 E8.62322
G1 X110.623 Y87.823 E8.66511
G1 X121.185 Y98.385 E9.54262
G1 X121.185 Y99.099 E9.58457
G1 X110.076 Y87.99 E10.50753
G2 X109.844 Y88.471 I0.420 J0.499 E10.53973
G1 X121.185 Y99.813 E11.48201
G1 X121.185 Y100.526 E11.5239
G1 X109.835 Y89.176 E12.46688
G1 X109.835 Y89.889 E12.50877
G1 X121.185 Y101.24 E13.45179
G1 X121.185 Y101.954 E13.49374
G1 X109.835 Y90.603 E14.43676
G1 X109.835 Y91.317 E14.47871
G1 X121.185 Y102.667 E15.42169
G1 X121.185 Y103.381 E15.46364
G1 X109.835 Y92.031 E16.40662
G1 X109.835 Y92.744 E16.44851
G1 X121.185 Y104.095 E17.39153
G1 X121.185 Y104.808 E17.43342
G1 X109.835 Y93.458 E18.3764
G1 X109.835 Y94.172 E18.41835
G1 X121.185 Y105.522 E19.36133
G1 X121.185 Y106.236 E19.40328
G1 X109.835 Y94.885 E20.3463
G1 X109.835 Y95.599 E20.38825
G1 X121.185 Y106.95 E21.33127
G1 X121.185 Y107.663 E21.37316
G1 X109.835 Y96.313 E22.31614
G1 X109.835 Y97.026 E22.35803
G1 X121.185 Y108.377 E23.30105
G1 X121.185 Y109.091 E23.343
G1 X109.835 Y97.74 E24.28602
G1 X109.835 Y98.454 E24.32797
G1 X121.185 Y109.804 E25.27095
G1 X121.185 Y110.518 E25.3129
G1 X109.835 Y99.168 E26.25588
G1 X109.835 Y99.881 E26.29777
G1 X121.185 Y111.232 E27.24079
G1 X121.185 Y111.945 E27.28268
G1 X109.835 Y100.595 E28.22566
G1 X109.835 Y101.309 E28.26761
G1 X121.185 Y112.659 E29.21059
G1 X121.185 Y113.373 E29.25254
G1 X109.835 Y102.022 E30.19556
G1 X109.835 Y102.736 E30.23751
G1 X121.185 Y114.087 E31.18053
G1 X121.185 Y114.8 E31.22242
G1 X109.835 Y103.45 E32.1654
G1 X109.835 Y104.163 E32.20729
G1 X121.185 Y115.514 E33.15031
G1 X121.185 Y116.228 E33.19226
G1 X109.835 Y104.877 E34.13528
G1 X109.835 Y105.591 E34.17723
G1 X121.185 Y116.941 E35.12021
G1 X121.185 Y117.655 E35.16216
G1 X109.835 Y106.305 E36.10514
G1 X109.835 Y107.018 E36.14703
G1 X121.185 Y118.369 E37.09005
G1 X121.185 Y119.082 E37.13194
G1 X109.835 Y107.732 E38.07492
G1 X109.835 Y108.446 E38.11687
G1 X121.185 Y119.796 E39.05985
G1 X121.185 Y120.51 E39.1018
G1 X109.835 Y109.159 E40.04482
G1 X109.835 Y109.873 E40.08677
G1 X121.185 Y121.224 E41.02979
G1 X121.185 Y121.937 E41.07168
G1 X109.835 Y110.587 E42.01466
G1 X109.835 Y111.3 E42.05655
G1 X121.185 Y122.651 E42.99957
G1 X121.185 Y123.365 E43.04152
G1 X109.835 Y112.014 E43.98454
G1 X109.835 Y112.728 E44.02649
G1 X121.185 Y124.078 E44.96947
G1 X121.185 Y124.792 E45.01142
G1 X109.835 Y113.442 E45.9544
G1 X109.835 Y114.155 E45.99629
G1 X121.185 Y125.506 E46.93931
G1 X121.185 Y126.219 E46.9812
G1 X109.835 Y114.869 E47.92418
G1 X109.835 Y115.583 E47.96613
G1 X121.185 Y126.933 E48.90911
G1 X121.185 Y127.647 E48.95106
G1 X109.835 Y116.296 E49.89408
G1 X109.835 Y117.01 E49.93603
G1 X121.185 Y128.361 E50.87905
G1 X121.185 Y129.074 E50.92094
G1 X109.835 Y117.724 E51.86392
G1 X109.835 Y118.437 E51.90581
G1 X121.185 Y129.788 E52.84883
G1 X121.185 Y130.502 E52.89078
G1 X109.835 Y119.151 E53.8338
G1 X109.835 Y119.865 E53.87575
G1 X121.185 Y131.215 E54.81873
G1 X121.185 Y131.929 E54.86068
G1 X109.835 Y120.579 E55.80366
G1 X109.835 Y121.292 E55.84555
G1 X121.185 Y132.643 E56.78857
G1 X121.185 Y133.356 E56.83046
G1 X109.835 Y122.006 E57.77344
G1 X109.835 Y122.72 E57.81539
G1 X121.185 Y134.07 E58.75837
G1 X121.185 Y134.784 E58.80032
G1 X109.835 Y123.433 E59.74334
G1 X109.835 Y124.147 E59.78529
G1 X121.111 Y135.423 E60.72212
G1 X120.397 Y135.423 E60.76407
G1 X109.835 Y124.861 E61.64158
G1 X109.835 Y125.574 E61.68347
G1 X119.683 Y135.423 E62.5017
G1 X118.97 Y135.423 E62.54359
G1 X109.835 Y126.288 E63.30255
G1 X109.835 Y127.002 E63.3445
G1 X118.256 Y135.423 E64.04413
G1 X117.542 Y135.423 E64.08608
G1 X109.835 Y127.716 E64.72639
G1 X109.835 Y128.429 E64.76828
G1 X116.829 Y135.423 E65.34936
G1 X116.115 Y135.423 E65.39131
G1 X109.835 Y129.143 E65.91307
G1 X109.835 Y129.857 E65.95502
G1 X115.401 Y135.423 E66.41746
G1 X114.687 Y135.423 E66.45941
G1 X109.835 Y130.57 E66.86257
G1 X109.835 Y131.284 E66.90452
G1 X113.974 Y135.423 E67.2484
G1 X113.26 Y135.423 E67.29035
G1 X109.835 Y131.998 E67.57491
G1 X109.835 Y132.711 E67.6168
G1 X112.546 Y135.423 E67.84208
G1 X111.833 Y135.423 E67.88397
G1 X109.835 Y133.425 E68.04997
G1 X109.835 Y134.139 E68.09192
G1 X111.119 Y135.423 E68.1986
G1 X110.405 Y135.423 E68.24055
G1 X109.61 Y134.628 E68.3066
M204 S2500
;LAYER_CHANGE
;Z:0.48
;HEIGHT:0.2
; BEFORE_LAYER_CHANGE 1 @ 0.48mm
G1 E66.9066 F4800
;WIPE_START
G1 F5760
G1 X110.146 Y135.164 E66.3066
;WIPE_END
G92 E0
G1 Z.48 F7200
; AFTER_LAYER_CHANGE 1 @ 0.48mm
M104 S190 ; set temperature
G1 X110.146 Y140.728
G1 E2 F4800
G92 E0
;TYPE:Skirt/Brim
;WIDTH:0.56
G1 F6000
G1 X108.03 Y140.728 E.09098
G1 X106.416 Y140.333 E.16242
G1 X105.166 Y139.239 E.23384
G1 X104.53 Y137.228 E.32452
G1 X104.53 Y88.499 E2.41964
G3 X105.495 Y85.251 I6.044 J0.028 E2.56715
G1 X106.441 Y84.124 E2.63041
G3 X107.791 Y83.178 I4.069 J4.370 E2.70145
G1 X109.174 Y82.675 E2.76472
G1 X110.511 Y82.518 E2.8226
G1 X122.99 Y82.518 E3.35914
G1 X124.604 Y82.912 E3.43057
G1 X125.854 Y84.006 E3.50199
G1 X126.49 Y86.018 E3.59272
G1 X126.49 Y137.228 E5.79451
G1 X126.095 Y138.842 E5.86595
G1 X125.001 Y140.092 E5.93737
G1 X122.99 Y140.728 E6.02805
G1 X110.206 Y140.728 E6.5777
G1 X110.206 Y140.728 F7200
G1 X110.206 Y140.228
G1 F6000
G1 X108.03 Y140.228 E6.67126
G1 X106.545 Y139.834 E6.73732
G1 X105.449 Y138.758 E6.80336
G1 X105.03 Y137.228 E6.87157
G1 X105.03 Y88.499 E8.96669
G3 X105.282 Y86.874 I5.734 J0.057 E9.03757
G1 X105.905 Y85.537 E9.10099
G1 X106.795 Y84.477 E9.1605
G1 X108.002 Y83.632 E9.22385
G1 X109.303 Y83.158 E9.28338
G1 X110.511 Y83.018 E9.33567
G1 X122.99 Y83.018 E9.87221
G1 X124.475 Y83.411 E9.93826
G1 X125.57 Y84.488 E10.0043
G1 X125.99 Y86.018 E10.07252
G1 X125.99 Y137.228 E12.27431
G1 X125.596 Y138.713 E12.34037
G1 X124.52 Y139.808 E12.40638
G1 X122.99 Y140.228 E12.4746
G1 X110.266 Y140.228 E13.02167
G1 X110.266 Y140.228 F7200
G1 X110.266 Y139.728
G1 F6000
G1 X108.03 Y139.728 E13.11781
G1 X106.686 Y139.336 E13.178
G1 X105.763 Y138.283 E13.2382
G1 X105.53 Y137.228 E13.28465
G1 X105.53 Y88.499 E15.37977
G3 X105.765 Y87.003 I5.187 J0.048 E15.44505
G1 X106.314 Y85.824 E15.50097
G1 X107.148 Y84.83 E15.55676
G3 X108.605 Y83.902 I3.354 J3.658 E15.63132
G1 X109.861 Y83.565 E15.68723
G1 X122.99 Y83.518 E16.25172
G1 X124.334 Y83.91 E16.31191
G1 X125.256 Y84.963 E16.37209
G1 X125.49 Y86.018 E16.41855
G1 X125.49 Y137.228 E18.62034
G1 X125.098 Y138.572 E18.68053
G1 X124.045 Y139.494 E18.74071
G1 X122.99 Y139.728 E18.78717
G1 X110.326 Y139.728 E19.33166
G1 E17.93166 F4800
;WIPE_START
G1 F5760
G1 X110.266 Y139.728 E17.88416
G1 X109.568 Y139.728 E17.33166
;WIPE_END
G92 E0
G92 E0
G1 X122.765 Y137.003 F7200
G1 E2 F4800
;TYPE:External perimeter
;WIDTH:0.45
G1 X108.255 Y137.003 E2.49115
G1 X108.255 Y88.509 E4.13261
G3 X110.521 Y86.243 I2.257 J-0.009 E4.25305
G1 X122.765 Y86.243 E4.66749
G1 X122.765 Y129.458 E6.13027
G1 X122.765 Y136.943 E6.38363
G1 X122.383 Y136.621 F7200
;TYPE:Perimeter
;WIDTH:0.4
G1 F9000
G1 X108.637 Y136.621 E6.79177
G1 X108.637 Y88.525 E8.2198
G3 X110.537 Y86.625 I1.880 J-0.020 E8.30851
G1 X122.383 Y86.625 E8.66023
G1 X122.383 Y129.458 E9.932
G1 X122.383 Y136.561 E10.1429
G1 X122.383 Y136.561 F7200
G1 X122.026 Y136.264
G1 F9000
G1 X108.994 Y136.264 E10.52984
G1 X108.994 Y88.541 E11.9468
G3 X110.553 Y86.982 I1.527 J-0.032 E12.01976
G1 X122.026 Y86.982 E12.36041
G1 X122.026 Y129.458 E13.62158
G1 X122.026 Y136.204 E13.82188
G1 X122.026 Y136.204 F7200
G1 X121.888 Y135.261
;TYPE:Top solid infill
;WIDTH:0.469913
G1 X121.206 Y135.943 E13.85612
G1 X120.602 Y135.943 E13.87756
G1 X121.705 Y134.84 E13.93294
G1 X121.705 Y134.236 E13.95438
G1 X119.998 Y135.943 E14.04009
G1 X119.394 Y135.943 E14.06153
G1 X121.705 Y133.632 E14.17757
G1 X121.705 Y133.029 E14.19898
G1 X118.791 Y135.943 E14.3453
G1 X118.187 Y135.943 E14.36674
G1 X121.705 Y132.425 E14.54338
G1 X121.705 Y131.821 E14.56482
G1 X117.846 Y135.68 E14.75858
G1 X117.846 Y135.076 E14.78002
G1 X121.705 Y131.217 E14.97378
G1 X121.705 Y130.613 E14.99522
G1 X117.846 Y134.472 E15.18898
G1 X117.846 Y133.869 E15.21039
G1 X121.705 Y130.009 E15.40418
G1 X121.705 Y129.405 E15.42562
G1 X117.846 Y133.265 E15.61941
G1 X117.846 Y132.661 E15.64085
G1 X121.705 Y128.802 E15.83461
G1 X121.705 Y128.502 E15.84526
G1 X121.533 Y128.369 E15.85298
G1 X117.846 Y132.057 E16.03813
G1 X117.846 Y131.453 E16.05957
G1 X121.134 Y128.165 E16.22466
G2 X120.659 Y128.036 I-0.633 J1.393 E16.24220
G1 X117.846 Y130.849 E16.38344
G1 X117.846 Y130.245 E16.40488
G1 X120.063 Y128.028 E16.5162
G1 X119.455 Y128.032 E16.53779
G1 X117.85 Y129.637 E16.61838
G3 X118.247 Y128.637 I2.049 J0.235 E16.65700
G1 X118.901 Y127.983 E16.68984
G1 E15.28984 F4800
;WIPE_START
G1 F5760
G1 X118.365 Y128.519 E14.68984
;WIPE_END
G92 E0
G1 X112.5 Y136.126 F7200
G1 E2 F4800
;WIDTH:0.46703
G1 F7200
G1 X113.176 Y135.45 E2.03371
G1 X113.176 Y134.85 E2.05487
G1 X112.084 Y135.943 E2.10936
G1 X111.484 Y135.943 E2.13052
G1 X113.176 Y134.251 E2.2149
G1 X113.176 Y133.651 E2.23606
G1 X110.884 Y135.943 E2.35037
G1 X110.284 Y135.943 E2.37153
G1 X113.176 Y133.051 E2.51576
G1 X113.176 Y132.451 E2.53692
G1 X109.685 Y135.943 E2.71105
G1 X109.315 Y135.943 E2.7241
G1 X109.315 Y135.713 E2.73221
G1 X113.176 Y131.851 E2.92479
G1 X113.176 Y131.252 E2.94591
G1 X109.315 Y135.113 E3.13847
G1 X109.315 Y134.513 E3.15963
G1 X113.176 Y130.652 E3.35219
G1 X113.176 Y130.052 E3.37335
G1 X109.315 Y133.913 E3.56591
G1 X109.315 Y133.313 E3.58707
G1 X113.149 Y129.48 E3.77825
G2 X113.000 Y129.028 I-1.696 J0.309 E3.79507
G1 X109.315 Y132.714 E3.97887
G1 X109.315 Y132.114 E4.00003
G1 X112.783 Y128.646 E4.17299
G2 X112.469 Y128.360 I-0.922 J0.696 E4.18803
G1 X109.315 Y131.514 E4.34533
G1 X109.315 Y130.914 E4.36649
G1 X112.07 Y128.16 E4.50386
G2 X111.595 Y128.035 I-0.611 J1.358 E4.52124
G1 X109.315 Y130.314 E4.63492
G1 X109.315 Y129.715 E4.65604
G1 X111.002 Y128.028 E4.74017
G1 X110.397 Y128.033 E4.76151
G1 X109.315 Y129.115 E4.81547
G1 X109.315 Y128.515 E4.83663
G1 X109.846 Y127.984 E4.86311
G1 E3.46311 F4800
;WIPE_START
G1 F5760
G1 X109.315 Y128.515 E2.86861
G1 X109.315 Y128.522 E2.86311
;WIPE_END
G92 E0
G1 X110.342 Y87.348 F7200
G1 E2 F4800
;TYPE:Solid infill
;WIDTH:0.499999
G1 F9000
G1 X109.36 Y88.33 E2.05278
G1 X109.34 Y88.996 E2.0781
G1 X111.008 Y87.328 E2.16775
G1 X111.655 Y87.328 E2.19234
G1 X109.34 Y89.643 E2.31677
G1 X109.34 Y90.289 E2.34132
G1 X112.301 Y87.328 E2.50047
G1 X112.948 Y87.328 E2.52506
G1 X109.34 Y90.936 E2.71899
