; generated by PrusaSlicer 2.7.4+win64 on 2024-07-11 at 04:14:26 UTC
; Postprocessed by [ArcWelder](https://github.com/FormerLurker/ArcWelderLib)
; Copyright(C) 2021 - Brad Hochgesang
; Version: 1.2.0, Branch: HEAD, BuildDate: 2021-11-21T20:25:43Z
; resolution=0.05mm
; path_tolerance=5.0%
; max_radius=9999.00mm
; default_xyz_precision=3
; default_e_precision=5
; extrusion_rate_variance_percent=5.0%


; 

; external perimeters extrusion width = 0.45mm
; perimeters extrusion width = 0.40mm
; infill extrusion width = 0.45mm
; solid infill extrusion width = 0.50mm
; top infill extrusion width = 0.45mm
; support material extrusion width = 0.42mm
; first layer extrusion width = 0.56mm

M201 X2500 Y2500 Z800 E2500 ; sets maximum accelerations, mm/sec^2
M203 X300 Y250 Z8 E80 ; sets maximum feedrates, mm / sec
M204 S2500 T2500 ; sets acceleration (S) and retract acceleration (R), mm/sec^2
M205 X15.00 Y10.00 Z2.00 E10.00 ; sets the jerk limits, mm/sec
M205 S0 T0 ; sets the minimum extruding and travel feed rate, mm/sec
;TYPE:Custom
G90 ; use absolute coordinates
M83 ; extruder relative mode
M104 S215 ; set extruder temp
M140 S60 ; set bed temp
M190 S60 ; wait for bed temp
M109 S215 ; wait for extruder temp
G28                                        ; move X/Y/Z to min endstops
G1 Z0.28                                   ; lift nozzle a bit 
G92 E0 
G1 Y3 F1800                                    ; zero the extruded length 
G1 X60  E25 F500                       ; Extrude 25mm of filament in a 5cm line. 
G92 E0                                     ; zero the extruded length again 
G1 E-2 F500                                ; Retract a little 
G1 X70 F4000                              ; Quickly wipe away from the filament line
M117
G21 ; set units to millimeters
G90 ; use absolute coordinates
M82 ; use absolute distances for extrusion
G92 E0
M107
;LAYER_CHANGE
;Z:0.28
;HEIGHT:0.28
G1 E-2 F4800
G92 E0
G1 Z.28 F7200
G1 X85.271 Y77.658
G1 E2 F4800
G92 E0
M204 S2000
;TYPE:Skirt/Brim
;WIDTH:0.56
G1 F3000
G1 X90.046 Y72.889 E.39274
G1 X90.617 Y72.428 E.43545
G1 X91.413 Y71.913 E.49062
G1 X92.241 Y71.52 E.54396
G1 X93.345 Y71.164 E.61146
G1 X94.381 Y70.995 E.67255
G1 X139.467 Y71.084 E3.29633
G1 X141.153 Y71.332 E3.3955
G3 X143.078 Y72.106 I-1.993 J7.738 E3.51649
G1 X148.366 Y75.092 E3.8699
G1 X149.52 Y75.973 E3.95439
G1 X150.698 Y77.295 E4.05744
G3 X152.489 Y80.209 I-31.913 J21.622 E4.25653
G3 X153.239 Y83.127 I-7.125 J3.387 E4.43283
G1 X152.193 Y155.991 E8.67358
G1 X151.85 Y157.984 E8.79127
G1 X151.523 Y158.908 E8.84831
G1 X150.498 Y160.87 E8.97713
G3 X148.474 Y162.996 I-5.801 J-3.496 E9.14913
G1 X146.912 Y163.872 E9.25335
G1 X145.212 Y164.301 E9.35538
G1 X89.574 Y163.951 E12.59329
G1 X87.695 Y163.746 E12.70329
G1 X86.182 Y163.188 E12.79714
G1 X84.816 Y162.283 E12.8925
G1 X83.604 Y160.899 E12.99956
G1 X82.906 Y159.466 E13.09232
G1 X82.552 Y157.933 E13.18388
G1 X82.623 Y84.643 E17.44899
G1 X82.745 Y83.136 E17.53698
G1 X82.874 Y82.464 E17.5768
G1 X83.403 Y80.759 E17.68069
G1 X84.121 Y79.253 E17.77778
G1 X85.236 Y77.707 E17.88871
M204 S2500
G1 X85.236 Y77.707 F7200
G1 X85.625 Y78.012
M204 S2000
G1 F3000
G1 X90.4 Y73.243 E18.28145
G1 X91.685 Y72.332 E18.37312
G3 X94.387 Y71.495 I3.456 J6.376 E18.53870
G1 X139.466 Y71.584 E21.16207
G1 X141.064 Y71.824 E21.25611
G3 X142.865 Y72.558 I-1.876 J7.180 E21.36952
G1 X148.115 Y75.524 E21.72043
G1 X149.205 Y76.362 E21.80044
G1 X150.312 Y77.612 E21.89761
G3 X152.055 Y80.458 I-31.668 J21.352 E22.09187
G3 X152.739 Y83.120 I-6.644 J3.126 E22.25265
G1 X151.693 Y155.984 E26.4934
G1 X151.36 Y157.884 E26.60566
G1 X151.079 Y158.676 E26.65457
G1 X150.055 Y160.638 E26.78336
G3 X148.226 Y162.562 I-5.339 J-3.244 E26.93886
G1 X146.672 Y163.434 E27.04256
G1 X145.215 Y163.801 E27.13
G1 X89.577 Y163.451 E30.36791
G1 X87.755 Y163.25 E30.47458
G1 X86.459 Y162.772 E30.55497
G1 X85.092 Y161.866 E30.65041
G1 X84.054 Y160.68 E30.74213
G1 X83.355 Y159.247 E30.83492
G1 X83.052 Y157.933 E30.91339
G1 X83.123 Y84.644 E35.17844
G1 X83.353 Y82.605 E35.29785
G1 X83.862 Y80.959 E35.39811
G1 X84.536 Y79.531 E35.49
G1 X85.59 Y78.061 E35.59526
M204 S2500
G1 X85.59 Y78.061 F7200
G1 X85.978 Y78.366
M204 S2000
G1 F3000
G1 X90.753 Y73.596 E35.98804
G1 X91.956 Y72.752 E36.07356
G3 X94.392 Y71.995 I3.192 J5.974 E36.22281
G1 X139.465 Y72.084 E38.84584
G1 X140.976 Y72.317 E38.93481
G3 X142.652 Y73.010 I-1.794 J6.713 E39.04057
G1 X147.864 Y75.957 E39.38901
G1 X148.891 Y76.75 E39.46452
G1 X150.123 Y78.206 E39.57551
G1 X151.621 Y80.706 E39.74512
G1 X151.876 Y81.334 E39.78456
G3 X152.239 Y83.113 I-6.551 J2.263 E39.89043
G1 X151.193 Y155.977 E44.13118
G1 X150.87 Y157.785 E44.23806
G1 X150.636 Y158.445 E44.27881
G1 X149.612 Y160.407 E44.4076
G3 X147.979 Y162.128 I-4.921 J-3.034 E44.54650
G1 X146.433 Y162.995 E44.64965
G1 X145.218 Y163.301 E44.72256
G1 X89.58 Y162.951 E47.96047
G1 X87.815 Y162.753 E48.06383
G1 X86.735 Y162.355 E48.13081
G1 X85.369 Y161.449 E48.2262
G1 X84.503 Y160.461 E48.30266
G1 X83.804 Y159.028 E48.39545
G1 X83.552 Y157.933 E48.46084
G1 X83.623 Y84.644 E52.72589
G1 X83.833 Y82.747 E52.83696
G1 X84.32 Y81.158 E52.93368
G1 X84.951 Y79.81 E53.0203
G1 X85.943 Y78.415 E53.11992
M204 S2500
G1 E51.71992 F4800
;WIPE_START
G1 F5760
G1 X85.978 Y78.366 E51.67225
G1 X86.472 Y77.873 E51.11992
;WIPE_END
G92 E0
G92 E0
G1 X144.371 Y82.854 F7200
G1 E2 F4800
M204 S2000
;TYPE:Support material interface
;WIDTH:0.42
G1 F3000
G1 X141.222 Y79.705 E2.18658
G1 X141.148 Y79.669 E2.19003
G1 X141.101 Y79.764 E2.19447
G1 X140.489 Y79.505 E2.22231
G1 X144.414 Y83.43 E2.45487
G1 X144.643 Y84.193 E2.48825
G1 X139.538 Y79.087 E2.79076
G1 X138.841 Y78.924 E2.82075
G1 X140.247 Y80.329 E2.90403
G1 X139.42 Y80.036 E2.94079
G1 X138.2 Y78.815 E3.01311
G1 X137.583 Y78.732 E3.03919
G1 X138.683 Y79.832 E3.10437
G1 X138.042 Y79.725 E3.1316
G1 X137.139 Y78.821 E3.18513
G1 X136.574 Y78.79 E3.20884
G1 X137.428 Y79.643 E3.25941
G1 X136.85 Y79.598 E3.2837
G1 X135.907 Y78.656 E3.33954
G1 X135.374 Y78.656 E3.36187
G1 X136.299 Y79.581 E3.41668
G1 X135.758 Y79.573 E3.43935
G1 X134.962 Y78.777 E3.48651
G1 X134.428 Y78.777 E3.50888
G1 X135.224 Y79.573 E3.55604
G1 X134.691 Y79.573 E3.57837
G1 X133.774 Y78.656 E3.6327
G1 X133.321 Y78.656 E3.65168
G1 X133.321 Y78.736 E3.65503
G1 X134.158 Y79.573 E3.70462
G1 X133.624 Y79.573 E3.72699
G1 X132.829 Y78.777 E3.77412
G1 X132.295 Y78.777 E3.79649
G1 X133.091 Y79.573 E3.84365
G1 X132.558 Y79.573 E3.86598
G1 X131.641 Y78.656 E3.92031
G1 X131.441 Y78.656 E3.92869
G1 X131.441 Y78.777 E3.93376
G1 X131.229 Y78.777 E3.94264
G1 X132.024 Y79.573 E3.98977
G1 X131.491 Y79.573 E4.0121
G1 X130.526 Y78.607 E4.06931
M204 S2500
G1 E2.66931 F4800
;WIPE_START
G1 F5760
G1 X131.062 Y79.143 E2.06931
;WIPE_END
G92 E0
G1 X131.127 Y79.742 F7200
G1 E2 F4800
M204 S2000
G1 F3000
G1 X130.041 Y78.656 E2.06435
G1 X129.561 Y78.655 E2.08446
G1 X129.561 Y78.709 E2.08672
G1 X130.424 Y79.572 E2.13785
G1 X129.891 Y79.572 E2.16018
G1 X129.096 Y78.777 E2.20729
G1 X128.563 Y78.777 E2.22962
G1 X129.358 Y79.572 E2.27673
G1 X128.824 Y79.572 E2.2991
G1 X127.908 Y78.655 E2.3534
G1 X127.681 Y78.655 E2.36291
G1 X127.681 Y78.777 E2.36802
G1 X127.496 Y78.777 E2.37577
G1 X128.291 Y79.572 E2.42288
G1 X127.758 Y79.572 E2.44521
G1 X126.793 Y78.607 E2.50239
M204 S2500
G1 E1.10239 F4800
;WIPE_START
G1 F5760
G1 X127.329 Y79.143 E.50239
;WIPE_END
G92 E0
G1 X127.394 Y79.742 F7200
G1 E2 F4800
M204 S2000
G1 F3000
G1 X126.308 Y78.655 E2.06438
G1 X125.801 Y78.682 E2.08565
G1 X126.691 Y79.572 E2.13838
G1 X126.158 Y79.572 E2.16071
G1 X125.363 Y78.777 E2.20782
G1 X124.83 Y78.777 E2.23015
G1 X125.625 Y79.572 E2.27726
G1 X125.091 Y79.572 E2.29963
G1 X124.175 Y78.655 E2.35393
G1 X123.921 Y78.655 E2.36457
G1 X123.921 Y78.777 E2.36968
G1 X123.763 Y78.777 E2.3763
G1 X124.558 Y79.572 E2.42341
G1 X124.025 Y79.572 E2.44574
G1 X123.06 Y78.608 E2.50289
M204 S2500
G1 E1.10289 F4800
;WIPE_START
G1 F5760
G1 X123.596 Y79.144 E.50289
;WIPE_END
G92 E0
G1 X123.661 Y79.742 F7200
G1 E2 F4800
M204 S2000
G1 F3000
G1 X122.575 Y78.655 E2.06438
G1 X122.041 Y78.655 E2.08675
G1 X122.958 Y79.572 E2.14108
G1 X122.425 Y79.572 E2.16341
G1 X121.63 Y78.777 E2.21052
G1 X121.097 Y78.777 E2.23285
G1 X121.891 Y79.572 E2.27993
G1 X121.358 Y79.572 E2.30226
G1 X120.442 Y78.655 E2.35656
G1 X120.161 Y78.655 E2.36833
G1 X120.161 Y78.777 E2.37344
G1 X120.03 Y78.777 E2.37893
G1 X120.825 Y79.572 E2.42604
G1 X120.291 Y79.572 E2.44841
G1 X119.497 Y78.777 E2.49549
G1 X118.964 Y78.777 E2.51782
G1 X119.758 Y79.571 E2.56487
G1 X119.225 Y79.571 E2.5872
G1 X118.308 Y78.655 E2.6415
G1 X118.281 Y78.777 E2.64674
G1 X117.897 Y78.777 E2.66283
G1 X118.691 Y79.571 E2.70988
G1 X118.158 Y79.571 E2.73221
G1 X117.364 Y78.777 E2.77926
G1 X116.966 Y78.777 E2.79594
G1 X116.935 Y78.655 E2.80121
G1 X116.709 Y78.655 E2.81068
G1 X117.625 Y79.571 E2.86495
G1 X117.091 Y79.571 E2.88732
G1 X116.298 Y78.777 E2.93434
G1 X115.764 Y78.777 E2.95671
G1 X116.558 Y79.571 E3.00376
G1 X116.025 Y79.571 E3.02609
G1 X115.231 Y78.777 E3.07314
G1 X115.089 Y78.777 E3.07909
G1 X115.058 Y78.655 E3.08436
G1 X114.575 Y78.655 E3.1046
G1 X115.492 Y79.571 E3.1589
G1 X114.958 Y79.571 E3.18127
G1 X114.164 Y78.777 E3.22832
G1 X113.631 Y78.777 E3.25065
G1 X114.425 Y79.571 E3.2977
G1 X113.892 Y79.571 E3.32003
G1 X112.975 Y78.655 E3.37433
G1 X112.645 Y78.655 E3.38816
G1 X112.645 Y78.777 E3.39327
G1 X112.565 Y78.777 E3.39662
G1 X113.358 Y79.571 E3.44364
G1 X112.825 Y79.571 E3.46597
G1 X112.031 Y78.777 E3.51302
G1 X111.498 Y78.777 E3.53535
G1 X112.292 Y79.571 E3.5824
G1 X111.758 Y79.571 E3.60477
G1 X110.842 Y78.655 E3.65904
G1 X110.768 Y78.655 E3.66214
G1 X110.768 Y78.777 E3.66725
G1 X110.432 Y78.777 E3.68133
G1 X111.225 Y79.571 E3.72835
G1 X110.692 Y79.571 E3.75068
G1 X109.898 Y78.777 E3.79773
G1 X109.452 Y78.777 E3.81642
G1 X109.421 Y78.655 E3.82169
G1 X109.242 Y78.655 E3.82919
G1 X110.158 Y79.571 E3.88346
G1 X109.625 Y79.571 E3.90579
G1 X108.824 Y78.769 E3.95328
G1 X108.299 Y78.777 E3.97528
G1 X109.092 Y79.571 E4.0223
G1 X108.558 Y79.57 E4.04467
G1 X107.765 Y78.777 E4.09166
G1 X107.576 Y78.777 E4.09958
G1 X107.545 Y78.655 E4.10485
G1 X107.109 Y78.655 E4.12312
G1 X108.025 Y79.57 E4.17737
G1 X107.492 Y79.57 E4.1997
G1 X106.699 Y78.777 E4.24669
G1 X106.166 Y78.777 E4.26902
G1 X106.958 Y79.57 E4.31598
G1 X106.425 Y79.57 E4.33831
G1 X105.509 Y78.655 E4.39256
G1 X105.132 Y78.655 E4.40836
G1 X105.099 Y78.777 E4.41366
G1 X105.892 Y79.57 E4.46065
G1 X105.358 Y79.57 E4.48302
G1 X104.566 Y78.777 E4.52998
G1 X104.032 Y78.777 E4.55235
G1 X104.825 Y79.57 E4.59934
G1 X104.292 Y79.57 E4.62167
G1 X103.376 Y78.655 E4.67592
G1 X103.256 Y78.655 E4.68095
G1 X103.256 Y78.777 E4.68606
G1 X102.966 Y78.778 E4.69821
G1 X103.758 Y79.57 E4.74514
G1 X103.225 Y79.57 E4.76747
G1 X102.433 Y78.778 E4.8144
G1 X101.947 Y78.778 E4.83476
G1 X101.916 Y78.655 E4.84007
G1 X101.776 Y78.655 E4.84594
G1 X102.692 Y79.57 E4.90019
G1 X102.159 Y79.57 E4.92252
G1 X101.366 Y78.778 E4.96948
G1 X100.833 Y78.778 E4.99181
G1 X101.625 Y79.57 E5.03874
G1 X101.092 Y79.57 E5.06107
G1 X100.3 Y78.778 E5.108
G1 X100.06 Y78.778 E5.11806
G1 X100.029 Y78.654 E5.12342
G1 X99.643 Y78.654 E5.13959
G1 X100.559 Y79.57 E5.19386
G1 X100.025 Y79.57 E5.21623
G1 X99.233 Y78.778 E5.26316
G1 X98.7 Y78.778 E5.28549
G1 X99.492 Y79.57 E5.33242
G1 X98.959 Y79.57 E5.35475
G1 X98.043 Y78.654 E5.40902
G1 X97.608 Y78.654 E5.42725
G1 X97.576 Y78.721 E5.43036
G1 X98.425 Y79.57 E5.48066
G1 X97.892 Y79.57 E5.50299
G1 X97.104 Y78.781 E5.54971
G1 X96.578 Y78.789 E5.57175
G1 X96.675 Y78.668 E5.57825
G2 X96.466 Y78.676 I-0.041 J1.660 E5.58701
G1 X97.362 Y79.573 E5.64013
G1 X96.847 Y79.591 E5.66172
G1 X95.976 Y78.72 E5.71333
G1 X95.487 Y78.765 E5.7339
G1 X96.352 Y79.63 E5.78515
G1 X95.872 Y79.683 E5.80538
G1 X95.025 Y78.836 E5.85557
G1 X94.587 Y78.93 E5.87434
G1 X95.42 Y79.764 E5.92373
G1 X94.991 Y79.868 E5.94222
G1 X94.161 Y79.038 E5.9914
G1 X94.076 Y79.06 E5.99508
G1 X94.097 Y79.135 E5.99834
G1 X93.8 Y79.211 E6.01118
G1 X94.586 Y79.996 E6.05772
G1 X94.188 Y80.132 E6.07534
G1 X93.398 Y79.342 E6.12215
G1 X93.007 Y79.484 E6.13958
G1 X93.82 Y80.297 E6.18775
G1 X93.459 Y80.469 E6.2045
G1 X92.642 Y79.652 E6.25291
G1 X92.287 Y79.83 E6.26955
G1 X93.127 Y80.67 E6.31932
G1 X92.804 Y80.881 E6.33548
G1 X91.966 Y80.043 E6.38513
G1 X91.654 Y80.264 E6.40115
G1 X92.508 Y81.118 E6.45175
G1 X92.225 Y81.369 E6.4676
G1 X91.374 Y80.518 E6.51802
G1 X91.114 Y80.791 E6.53382
G1 X91.965 Y81.641 E6.58421
G1 X91.719 Y81.929 E6.60008
G1 X90.878 Y81.088 E6.64991
G1 X90.656 Y81.399 E6.66592
G1 X91.498 Y82.241 E6.71581
G1 X91.292 Y82.568 E6.732
G1 X90.469 Y81.745 E6.78076
G1 X90.288 Y82.098 E6.79738
G1 X91.106 Y82.915 E6.84582
G1 X90.938 Y83.281 E6.86269
G1 X90.099 Y82.442 E6.9124
G1 X89.951 Y82.827 E6.92968
G1 X90.787 Y83.663 E6.97921
G1 X90.653 Y84.062 E6.99684
G1 X89.88 Y83.29 E7.04261
G1 X89.782 Y83.725 E7.06129
G1 X90.542 Y84.485 E7.10632
G1 X90.452 Y84.928 E7.12526
G1 X89.642 Y84.118 E7.17325
G1 X89.526 Y84.535 E7.19138
G1 X90.379 Y85.389 E7.24195
G1 X90.334 Y85.877 E7.26248
G1 X89.568 Y85.111 E7.30787
G1 X89.533 Y85.609 E7.32879
G1 X90.314 Y86.39 E7.37507
G1 X90.303 Y86.912 E7.39695
G1 X89.462 Y86.071 E7.44678
G1 X89.393 Y86.077 E7.44968
G1 X89.391 Y86.534 E7.46883
G1 X90.303 Y87.445 E7.52284
G1 X90.303 Y87.978 E7.54517
G1 X89.521 Y87.197 E7.59148
G1 X89.521 Y87.73 E7.61381
G1 X90.303 Y88.512 E7.66015
G1 X90.303 Y89.045 E7.68248
G1 X89.391 Y88.133 E7.73652
G1 X89.391 Y88.484 E7.75123
G1 X89.521 Y88.499 E7.75671
G1 X89.521 Y88.796 E7.76915
G1 X90.303 Y89.578 E7.81549
G1 X90.303 Y90.111 E7.83782
G1 X89.521 Y89.33 E7.88413
G1 X89.484 Y89.826 E7.90497
G1 X90.303 Y90.645 E7.9535
G1 X90.303 Y91.178 E7.97583
G1 X89.222 Y90.097 E8.03988
M204 S2500
G1 E6.63988 F4800
;WIPE_START
G1 F5760
G1 X89.758 Y90.633 E6.03988
;WIPE_END
G92 E0
G1 X90.472 Y91.881 F7200
G1 E2 F4800
M204 S2000
G1 F3000
G1 X89.521 Y90.929 E2.05638
G1 X89.521 Y91.463 E2.07875
G1 X90.303 Y92.244 E2.12506
G1 X90.303 Y92.778 E2.14743
G1 X89.391 Y91.866 E2.20147
G1 X89.391 Y92.24 E2.21714
G1 X89.521 Y92.256 E2.22263
G1 X89.521 Y92.529 E2.23407
G1 X90.303 Y93.311 E2.28041
G1 X90.303 Y93.844 E2.30274
G1 X89.521 Y93.062 E2.34908
G1 X89.508 Y93.583 E2.37092
G1 X90.303 Y94.378 E2.41803
G1 X90.303 Y94.911 E2.44036
G1 X89.392 Y94 E2.49434
G1 X89.392 Y94.117 E2.49924
G1 X89.521 Y94.133 E2.50469
G1 X89.521 Y94.662 E2.52685
G1 X90.303 Y95.444 E2.57319
G1 X90.303 Y95.977 E2.59552
G1 X89.521 Y95.195 E2.64186
G1 X89.521 Y95.458 E2.65288
G1 X89.392 Y95.47 E2.65831
G1 X89.392 Y95.6 E2.66376
G1 X90.303 Y96.511 E2.71774
G1 X90.303 Y97.044 E2.74007
G1 X89.521 Y96.262 E2.78641
G1 X89.52 Y96.795 E2.80874
G1 X90.303 Y97.577 E2.8551
G1 X90.303 Y98.111 E2.87747
G1 X89.52 Y97.328 E2.92386
G1 X89.392 Y97.347 E2.92928
G1 X89.392 Y97.733 E2.94545
G1 X90.303 Y98.644 E2.99943
G1 X90.303 Y99.177 E3.02176
G1 X89.52 Y98.395 E3.06812
G1 X89.52 Y98.928 E3.09045
G1 X90.303 Y99.71 E3.13681
G1 X90.303 Y100.244 E3.15918
G1 X89.392 Y99.333 E3.21316
G1 X89.392 Y99.752 E3.23072
G1 X89.52 Y99.768 E3.23612
G1 X89.52 Y99.994 E3.24559
G1 X90.303 Y100.777 E3.29198
G1 X90.303 Y101.31 E3.31431
G1 X89.52 Y100.528 E3.36067
G1 X89.52 Y101.061 E3.383
G1 X90.303 Y101.843 E3.42936
G1 X90.303 Y102.377 E3.45173
G1 X89.392 Y101.466 E3.50571
G1 X89.392 Y101.629 E3.51254
G1 X89.52 Y101.644 E3.51794
G1 X89.52 Y102.127 E3.53818
G1 X90.303 Y102.91 E3.58457
G1 X90.303 Y103.443 E3.6069
G1 X89.52 Y102.661 E3.65326
G1 X89.52 Y102.969 E3.66616
G1 X89.392 Y102.981 E3.67155
G1 X89.392 Y103.066 E3.67511
G1 X90.303 Y103.977 E3.72909
G1 X90.303 Y104.51 E3.75142
G1 X89.52 Y103.727 E3.79781
G1 X89.52 Y104.26 E3.82014
G1 X90.303 Y105.043 E3.86653
G1 X90.303 Y105.576 E3.88886
G1 X89.52 Y104.794 E3.93522
G1 X89.392 Y104.858 E3.94122
G1 X89.392 Y105.199 E3.95551
G1 X90.303 Y106.11 E4.00949
G1 X90.303 Y106.643 E4.03182
G1 X89.52 Y105.86 E4.07821
G1 X89.52 Y106.393 E4.10054
G1 X90.303 Y107.176 E4.14693
G1 X90.303 Y107.709 E4.16926
G1 X89.392 Y106.799 E4.22321
G1 X89.392 Y107.267 E4.24282
G1 X89.52 Y107.282 E4.24822
G1 X89.52 Y107.46 E4.25568
G1 X90.303 Y108.243 E4.30207
G1 X90.303 Y108.776 E4.3244
