; generated by PrusaSlicer 2.7.4+win64 on 2024-07-11 at 04:02:34 UTC
; Postprocessed by [ArcWelder](https://github.com/FormerLurker/ArcWelderLib)
; Copyright(C) 2021 - Brad Hochgesang
; Version: 1.2.0, Branch: HEAD, BuildDate: 2021-11-21T20:25:43Z
; resolution=0.05mm
; path_tolerance=5.0%
; max_radius=9999.00mm
; default_xyz_precision=3
; default_e_precision=5
; extrusion_rate_variance_percent=5.0%


; 

; external perimeters extrusion width = 0.45mm
; perimeters extrusion width = 0.40mm
; infill extrusion width = 0.45mm
; solid infill extrusion width = 0.50mm
; top infill extrusion width = 0.45mm
; support material extrusion width = 0.42mm
; first layer extrusion width = 0.56mm

M201 X2500 Y2500 Z800 E2500 ; sets maximum accelerations, mm/sec^2
M203 X300 Y250 Z8 E80 ; sets maximum feedrates, mm / sec
M204 S2500 T2500 ; sets acceleration (S) and retract acceleration (R), mm/sec^2
M205 X15.00 Y10.00 Z2.00 E10.00 ; sets the jerk limits, mm/sec
M205 S0 T0 ; sets the minimum extruding and travel feed rate, mm/sec
;TYPE:Custom
G90 ; use absolute coordinates
M83 ; extruder relative mode
M104 S215 ; set extruder temp
M140 S60 ; set bed temp
M190 S60 ; wait for bed temp
M109 S215 ; wait for extruder temp
G28                                        ; move X/Y/Z to min endstops
G1 Z0.28                                   ; lift nozzle a bit 
G92 E0 
G1 Y3 F1800                                    ; zero the extruded length 
G1 X60  E25 F500                       ; Extrude 25mm of filament in a 5cm line. 
G92 E0                                     ; zero the extruded length again 
G1 E-2 F500                                ; Retract a little 
G1 X70 F4000                              ; Quickly wipe away from the filament line
M117
G21 ; set units to millimeters
G90 ; use absolute coordinates
M82 ; use absolute distances for extrusion
G92 E0
M107
;LAYER_CHANGE
;Z:0.28
;HEIGHT:0.28
G1 E-2 F4800
G92 E0
G1 Z.28 F7200
G1 X100.02 Y87.928
G1 E2 F4800
G92 E0
M204 S2000
;TYPE:Skirt/Brim
;WIDTH:0.56
G1 F3000
G1 X100.435 Y87.501 E.03465
G1 X101.52 Y86.714 E.11265
G1 X105.527 Y84.79 E.37133
G1 X107.03 Y84.451 E.46099
G1 X123.517 Y84.451 E1.42045
G1 X124.847 Y84.608 E1.49839
G1 X125.838 Y84.928 E1.55899
G1 X126.758 Y85.416 E1.6196
G1 X127.579 Y86.056 E1.68018
G1 X128.277 Y86.829 E1.74079
G1 X128.83 Y87.711 E1.80137
G1 X129.221 Y88.676 E1.86196
G1 X129.439 Y89.695 E1.9226
G1 X129.49 Y90.431 E1.96553
G1 X129.49 Y141.679 E4.9479
G3 X128.525 Y144.928 I-6.051 J-0.029 E5.14761
G1 X127.579 Y146.055 E5.23324
G3 X124.246 Y147.609 I-4.069 J-4.377 E5.45053
G1 X107.03 Y147.66 E6.45242
G1 X105.527 Y147.321 E6.54208
G1 X101.821 Y145.558 E6.78091
G1 X100.562 Y144.721 E6.86889
G1 X100.02 Y144.183 E6.91333
G1 X99.217 Y142.729 E7.00999
G1 X99.095 Y141.813 E7.06377
G1 X99.095 Y90.298 E10.06168
G1 X99.489 Y88.684 E10.15836
G1 X99.985 Y87.977 E10.20862
M204 S2500
G1 X99.985 Y87.977 F7200
G1 X100.388 Y88.266
M204 S2000
G1 F3000
G1 X101.256 Y87.474 E10.277
G1 X102.036 Y87.004 E10.33
G1 X105.742 Y85.241 E10.56883
G1 X107.03 Y84.951 E10.64566
G1 X123.517 Y84.951 E11.60512
G1 X124.717 Y85.09 E11.67542
G3 X128.941 Y89.738 I-1.210 J5.343 E12.06418
G1 X128.99 Y141.679 E15.08688
G3 X128.738 Y143.305 I-5.747 J-0.058 E15.18288
G1 X128.115 Y144.641 E15.26867
G1 X127.226 Y145.701 E15.34918
G1 X126.018 Y146.547 E15.435
G3 X124.202 Y147.111 I-2.514 J-4.888 E15.54608
G1 X107.03 Y147.16 E16.54541
G1 X105.742 Y146.869 E16.62225
G1 X102.036 Y145.107 E16.86106
G1 X101.016 Y144.45 E16.93167
G1 X100.388 Y143.844 E16.98246
G1 X99.595 Y141.813 E17.10934
G1 X99.595 Y90.298 E20.10725
G1 X100.366 Y88.322 E20.23069
M204 S2500
G1 X100.366 Y88.322 F7200
G1 X100.756 Y88.605
M204 S2000
G1 F3000
G1 X101.556 Y87.874 E20.29375
G1 X102.25 Y87.455 E20.34093
G1 X105.957 Y85.693 E20.57979
G1 X107.03 Y85.45 E20.64381
G1 X123.517 Y85.451 E21.60327
G1 X124.588 Y85.573 E21.666
G3 X126.872 Y86.763 I-1.082 J4.864 E21.81741
G1 X127.706 Y87.756 E21.89288
G3 X128.481 Y90.213 I-4.219 J2.681 E22.04434
G1 X128.49 Y141.679 E25.0394
G3 X128.255 Y143.176 I-5.199 J-0.049 E25.12782
G1 X127.706 Y144.354 E25.20345
G1 X126.872 Y145.348 E25.27896
G3 X125.415 Y146.276 I-3.354 J-3.658 E25.37987
G1 X124.159 Y146.613 E25.45555
G1 X107.03 Y146.66 E26.45237
G1 X105.957 Y146.418 E26.51638
G1 X102.25 Y144.656 E26.75524
G3 X100.756 Y143.506 I2.137 J-4.322 E26.86549
G1 X100.095 Y141.813 E26.97126
G1 X100.095 Y90.298 E29.96917
G1 X100.734 Y88.661 E30.07144
M204 S2500
G1 E28.67144 F4800
;WIPE_START
G1 F5760
G1 X100.756 Y88.605 E28.62381
G1 X101.271 Y88.134 E28.07144
;WIPE_END
G92 E0
G92 E0
G1 X104.382 Y94.915 F7200
G1 E2 F4800
M204 S2000
;TYPE:Support material
G1 F3000
G1 X109.025 Y94.915 E2.2702
G1 X109.025 Y112.885 E3.31596
G1 X107.763 Y113.165 E3.39119
G1 X106.872 Y111.254 E3.51389
G1 X104.31 Y111.029 E3.66356
G1 X104.31 Y94.912 E4.60149
M204 S2500
G1 X104.31 Y94.912 F7200
G1 X108.126 Y112.854
M204 S2000
G1 F3000
G1 X108.126 Y95.365 E5.61926
G1 X107.57 Y95.365 E5.65162
G1 X107.57 Y111.687 E6.60148
G1 X107.17 Y110.828 E6.65662
G1 X107.015 Y110.815 E6.66567
G1 X107.015 Y95.365 E7.56478
G1 X106.459 Y95.365 E7.59714
G1 X106.459 Y110.766 E8.4934
G1 X105.904 Y110.717 E8.52582
G1 X105.904 Y95.365 E9.41923
G1 X105.348 Y95.365 E9.45159
G1 X105.348 Y110.669 E10.34221
G1 X104.793 Y110.62 E10.37463
G1 X104.793 Y95.14 E11.27549
M204 S2500
G1 E9.87549 F4800
;WIPE_START
G1 F5760
G1 X104.793 Y95.898 E9.27549
;WIPE_END
G92 E0
G1 X109.025 Y119.226 F7200
G1 E2 F4800
M204 S2000
G1 F3000
G1 X109.025 Y137.195 E3.0457
G1 X104.31 Y137.202 E3.32009
G1 X104.31 Y121.081 E4.25825
G1 X106.871 Y120.857 E4.40786
G1 X107.763 Y118.946 E4.53059
G1 X108.952 Y119.21 E4.60147
M204 S2500
G1 X108.952 Y119.21 F7200
G1 X108.126 Y136.97
M204 S2000
G1 F3000
G1 X108.126 Y119.487 E5.61889
G1 X108.018 Y119.463 E5.62533
G1 X107.57 Y120.423 E5.68698
G1 X107.57 Y136.745 E6.63684
G1 X107.015 Y136.745 E6.66914
G1 X107.015 Y121.296 E7.56819
G1 X106.459 Y121.345 E7.60067
G1 X106.459 Y136.745 E8.49687
G1 X105.904 Y136.745 E8.52917
G1 X105.904 Y121.393 E9.42258
G1 X105.348 Y121.442 E9.45506
G1 X105.348 Y136.745 E10.34562
G1 X104.793 Y136.745 E10.37792
G1 X104.793 Y121.265 E11.27878
M204 S2500
G1 E9.87878 F4800
;WIPE_START
G1 F5760
G1 X104.793 Y122.023 E9.27878
;WIPE_END
G92 E0
G1 X122.63 Y88.181 F7200
G1 E2 F4800
M204 S2000
;TYPE:External perimeter
;WIDTH:0.519597
G1 F3000
G1 X119.38 Y88.181 E2.17385
M204 S2500
G1 E.77385 F4800
;WIPE_START
G1 F5760
G1 X120.138 Y88.181 E.17385
;WIPE_END
G92 E0
G1 X116.08 Y88.181 F7200
G1 E2 F4800
M204 S2000
;WIDTH:0.519853
G1 F3000
G1 X112.821 Y88.18 E2.17443
M204 S2500
G1 E.77443 F4800
;WIPE_START
G1 F5760
G1 X113.579 Y88.18 E.17443
;WIPE_END
G92 E0
G1 X116.463 Y90.328 F7200
G1 E2 F4800
M204 S2000
;WIDTH:0.56
G1 F3000
G2 X116.360 Y88.773 I-6.566 J-0.346 E2.09084
G1 X116.36 Y88.231 E2.12238
G3 X117.505 Y88.292 I0.322 J4.723 E2.18923
G2 X118.538 Y88.231 I0.266 J-4.264 E2.24956
G1 X119.087 Y88.231 E2.28151
G2 X118.958 Y90.330 I8.548 J1.579 E2.40418
G1 X121.035 Y90.33 E2.52505
G1 X121.035 Y91.83 E2.61234
G1 X125.039 Y91.83 E2.84535
G1 X125.008 Y89.56 E2.97746
G2 X122.984 Y89.534 I-1.503 J38.242 E3.09527
G3 X122.910 Y88.231 I5.615 J-0.973 E3.17135
G3 X125.341 Y89.379 I0.277 J2.561 E3.33569
G3 X125.611 Y90.446 I-1.855 J1.037 E3.40046
G1 X125.61 Y141.663 E6.38103
G3 X123.493 Y143.780 I-2.103 J0.014 E6.57462
G1 X118.939 Y143.78 E6.83964
G1 X118.939 Y123.78 E8.00354
G1 X115.582 Y123.78 E8.1989
G1 X115.582 Y143.78 E9.3628
G1 X107.41 Y143.78 E9.83837
G1 X107.41 Y142.28 E9.92566
G1 X104.428 Y142.28 E10.0992
G3 X102.975 Y141.664 I-0.020 J-1.974 E10.19357
G1 X102.975 Y138.696 E10.36629
G3 X104.426 Y138.080 I1.442 J1.379 E10.46052
G1 X109.91 Y138.08 E10.77966
G1 X109.91 Y94.03 E13.34315
G1 X104.426 Y94.03 E13.66229
G3 X102.975 Y93.414 I-0.007 J-2.000 E13.75652
G1 X102.975 Y90.446 E13.92924
G3 X104.428 Y89.830 I1.439 J1.372 E14.02358
G1 X107.41 Y89.83 E14.19712
G1 X107.41 Y88.33 E14.28441
G1 X111.035 Y88.325 E14.49537
G2 X112.045 Y88.231 I-0.117 J-6.730 E14.55444
G1 X112.531 Y88.231 E14.58272
G2 X112.421 Y89.530 I6.683 J1.220 E14.65867
G1 X111.984 Y89.53 E14.6841
G1 X111.984 Y91.83 E14.81795
G1 X115.984 Y91.83 E15.05073
G1 X115.984 Y90.329 E15.13808
G1 X116.403 Y90.328 E15.16246
M204 S2500
G1 X116.403 Y90.328 F7200
G1 X116.972 Y90.827
M204 S2000
;TYPE:Perimeter
G1 F3000
G2 X116.857 Y88.716 I-11.139 J-0.452 E15.28566
G2 X118.495 Y88.740 I0.883 J-4.387 E15.38145
G2 X118.454 Y90.830 I17.246 J1.384 E15.50314
G1 X120.535 Y90.83 E15.62424
G1 X120.535 Y92.33 E15.71153
G1 X125.111 Y92.33 E15.97783
G1 X125.11 Y141.641 E18.84748
G3 X123.471 Y143.280 I-1.608 J0.031 E18.99784
G1 X119.439 Y143.28 E19.23248
G1 X119.439 Y123.28 E20.39638
G1 X115.082 Y123.28 E20.64994
G1 X115.082 Y143.28 E21.81384
G1 X107.91 Y143.28 E22.23121
G1 X107.91 Y141.78 E22.3185
G1 X104.45 Y141.78 E22.51985
G3 X103.475 Y141.449 I-0.029 J-1.515 E22.58089
G1 X103.475 Y138.911 E22.72859
G3 X104.445 Y138.580 I0.952 J1.204 E22.78931
G1 X107.833 Y138.58 E22.98647
G2 X110.684 Y140.316 I1.180 J1.272 E23.35958
G2 X110.188 Y138.580 I-1.716 J-0.449 E23.46943
G1 X110.41 Y138.58 E23.48235
G1 X110.41 Y93.53 E26.10403
G1 X110.188 Y93.53 E26.11695
G2 X107.337 Y92.691 I-1.175 J-1.270 E26.54261
G2 X107.833 Y93.530 I1.812 J-0.505 E26.59982
G1 X104.445 Y93.53 E26.79698
G3 X103.475 Y93.200 I-0.012 J-1.557 E26.85764
G1 X103.475 Y90.661 E27.0054
G3 X104.450 Y90.330 I0.951 J1.199 E27.06641
G1 X107.91 Y90.33 E27.26776
G1 X107.91 Y88.829 E27.35511
G1 X111.049 Y88.825 E27.53778
G1 X111.484 Y88.801 E27.56313
G1 X111.484 Y92.33 E27.7685
G1 X116.484 Y92.33 E28.05947
G1 X116.484 Y90.828 E28.14688
G1 X116.912 Y90.827 E28.17179
M204 S2500
G1 X116.912 Y90.827 F7200
G1 X117.48 Y91.325
M204 S2000
G1 F3000
G1 X117.433 Y89.292 E28.29013
G1 X117.966 Y89.292 E28.32115
G1 X117.951 Y91.33 E28.43975
G1 X120.035 Y91.33 E28.56103
G1 X120.035 Y92.83 E28.64832
G1 X124.611 Y92.83 E28.91462
G1 X124.611 Y141.619 E31.75389
G3 X123.449 Y142.781 I-1.117 J0.045 E31.86099
G1 X119.939 Y142.781 E32.06525
G1 X119.939 Y122.781 E33.22915
G1 X114.582 Y122.781 E33.5409
G1 X114.582 Y142.781 E34.7048
G1 X108.41 Y142.781 E35.06398
G1 X108.41 Y142.026 E35.10792
G2 X110.910 Y138.701 I0.601 J-2.151 E35.41859
G1 X110.91 Y93.41 E38.0543
G1 X110.948 Y93.361 E38.05791
G1 X111.168 Y92.83 E38.09136
G1 X116.984 Y92.83 E38.42982
G1 X116.984 Y91.327 E38.51729
G1 X117.42 Y91.326 E38.54266
M204 S2500
G1 E37.14266 F4800
;WIPE_START
G1 F5760
G1 X117.48 Y91.325 E37.09515
G1 X117.464 Y90.627 E36.54266
;WIPE_END
G92 E0
G1 X110.781 Y90.907 F7200
G1 E2 F4800
M204 S2000
G1 F3000
G2 X108.410 Y90.085 I-1.773 J1.285 E2.15520
G1 X108.41 Y89.328 E2.19925
G1 X110.984 Y89.325 E2.34904
G1 X110.984 Y90.838 E2.43709
G1 X110.837 Y90.888 E2.44613
M204 S2500
G1 E1.04613 F4800
;WIPE_START
G1 F5760
G1 X110.781 Y90.907 E.99931
G2 X110.284 Y90.424 I-1.157 J0.693 E0.44613
;WIPE_END
G92 E0
G1 X106.936 Y93.031 F7200
G1 E2 F4800
M204 S2000
G1 F3000
G1 X104.464 Y93.031 E2.14386
G3 X103.975 Y92.917 I-0.039 J-0.937 E2.17338
G1 X103.975 Y90.936 E2.28866
G3 X104.471 Y90.830 I0.480 J1.035 E2.31836
G1 X107.299 Y90.83 E2.48294
G2 X106.913 Y92.975 I1.575 J1.391 E2.61613
M204 S2500
G1 E1.21613 F4800
;WIPE_START
G1 F5760
G1 X106.936 Y93.031 E1.1682
G1 X106.239 Y93.031 E.61613
;WIPE_END
G92 E0
G1 X106.936 Y139.08 F7200
G1 E2 F4800
M204 S2000
G1 F3000
G1 X106.85 Y139.289 E2.01315
G2 X107.299 Y141.281 I2.075 J0.579 E2.13671
G1 X104.471 Y141.281 E2.30129
G3 X103.975 Y141.175 I-0.016 J-1.141 E2.33099
G1 X103.975 Y139.186 E2.44674
G3 X104.464 Y139.080 I0.473 J1.003 E2.47604
G1 X106.876 Y139.08 E2.61641
M204 S2500
G1 E1.21641 F4800
;WIPE_START
G1 F5760
G1 X106.936 Y139.08 E1.16891
G2 X106.788 Y139.757 I1.205 J0.618 E0.61641
;WIPE_END
G92 E0
G1 X109.022 Y93.47 F7200
G1 E2 F4800
M204 S2000
;TYPE:External perimeter
G1 F3000
G3 X109.328 Y93.429 I-0.009 J-1.228 E2.42993
G1 X109.082 Y93.462 E2.44437
M204 S2500
G1 E1.04437 F4800
;WIPE_START
G1 F5760
G3 X108.361 Y93.280 I-0.102 J-1.115 E0.44437
;WIPE_END
G92 E0
G1 X109.312 Y138.679 F7200
G1 E2 F4800
M204 S2000
G1 F3000
G1 X109.326 Y138.68 E2.00082
G3 X108.996 Y138.641 I-0.308 J1.189 E2.42938
G1 X109.253 Y138.672 E2.44444
M204 S2500
G1 X109.253 Y138.672 F7200
G1 X109.031 Y138.362
M204 S2000
;TYPE:Gap fill
;WIDTH:0.169956
G1 F3000
G3 X109.757 Y138.430 I-0.108 J5.067 E2.45378
M204 S2500
G1 X109.757 Y138.43 F7200
G1 X109.536 Y138.33
M204 S2000
;WIDTH:0.161844
G1 F3000
G1 X109.899 Y138.663 E2.45962
M204 S2500
G1 X109.899 Y138.663 F7200
G1 X108.964 Y138.362
M204 S2000
;WIDTH:0.167979
G1 F3000
G1 X108.262 Y138.432 E2.46848
M204 S2500
G1 X108.262 Y138.432 F7200
G1 X108.485 Y138.33
M204 S2000
;WIDTH:0.167291
G1 F3000
G1 X108.122 Y138.663 E2.47463
M204 S2500
G1 E1.07463 F4800
;WIPE_START
G1 F5760
G1 X108.485 Y138.33 E.68465
;WIPE_END
G1 E.47463 F4800
G92 E0
G1 X106.627 Y140.284 F7200
G1 E2 F4800
M204 S2000
;TYPE:Solid infill
;WIDTH:0.569278
G1 F3000
G1 X105.847 Y139.505 E2.06534
G1 X105.127 Y139.505 E2.10802
G1 X106.478 Y140.856 E2.22127
G1 X105.758 Y140.856 E2.26395
G1 X104.399 Y139.511 E2.37729
G1 X104.399 Y140.217 E2.41914
G1 X105.263 Y141.081 E2.49157
M204 S2500
G1 E1.09157 F4800
;WIPE_START
G1 F5760
G1 X104.727 Y140.545 E.49157
;WIPE_END
G92 E0
G1 X108.66 Y142.421 F7200
G1 E2 F4800
M204 S2000
;TYPE:Gap fill
;WIDTH:0.277133
G1 F3000
G2 X109.347 Y142.422 I0.347 J-2.731 E2.01739
;WIDTH:0.328839
G1 X109.706 Y142.396 E2.02865
;WIDTH:0.421001
G1 X110.05 Y142.328 E2.04338
;WIDTH:0.513165
G1 X110.393 Y142.259 E2.06183
M204 S2500
G1 E.66183 F4800
;WIPE_START
G1 F5760
G3 X109.649 Y142.400 I-0.925 J-2.848 E0.06183
;WIPE_END
G92 E0
G1 X109.536 Y93.78 F7200
G1 E2 F4800
M204 S2000
;WIDTH:0.161852
G1 F3000
G1 X109.899 Y93.448 E2.00583
M204 S2500
G1 X109.779 Y93.652 F7200
M204 S2000
;WIDTH:0.258115
G1 F3000
G1 X109.415 Y93.725 E2.01439
;WIDTH:0.171771
G1 X109.057 Y93.749 E2.01905
M204 S2500
G1 X109.057 Y93.749 F7200
G1 X108.964 Y93.749
M204 S2000
;WIDTH:0.167981
G1 F3000
G3 X108.424 Y93.688 I-0.027 J-2.184 E2.02589
;WIDTH:0.258112
G1 X108.241 Y93.652 E2.03019
M204 S2500
G1 X108.241 Y93.652 F7200
G1 X108.122 Y93.448
M204 S2000
;WIDTH:0.167297
G1 F3000
G1 X108.485 Y93.78 E2.03633
M204 S2500
G1 E.63633 F4800
;WIPE_START
G1 F5760
G1 X108.122 Y93.448 E.24689
;WIPE_END
G1 E.03633 F4800
G92 E0
G1 X111.093 Y92.58 F7200
G1 E2 F4800
M204 S2000
;WIDTH:0.324903
G1 F3000
G2 X111.080 Y91.709 I-3.473 J-0.384 E2.02690
;WIDTH:0.378827
G1 X111.038 Y91.482 E2.03547
;WIDTH:0.467856
G1 X110.963 Y91.109 E2.05353
M204 S2500
G1 E.65353 F4800
;WIPE_START
G1 F5760
G3 X111.090 Y91.855 I-2.924 J0.882 E0.05353
;WIPE_END
G92 E0
G1 X105.811 Y91.03 F7200
G1 E2 F4800
M204 S2000
;TYPE:Solid infill
;WIDTH:0.600748
G1 F3000
G1 X106.424 Y91.643 E2.05456
G1 X106.345 Y92.243 E2.09265
G1 X106.358 Y92.341 E2.09887
G1 X105.272 Y91.255 E2.19553
G1 X104.507 Y91.255 E2.24368
G1 X105.857 Y92.606 E2.36389
G1 X105.093 Y92.606 E2.41197
G1 X104.174 Y91.687 E2.49377
M204 S2500
G1 E1.09377 F4800
;WIPE_START
G1 F5760
G1 X104.71 Y92.223 E.49377
;WIPE_END
G92 E0
G1 X123.175 Y88.481 F7200
G1 E2 F4800
M204 S2000
;TYPE:Gap fill
;WIDTH:0.795918
G1 F3000
G1 X123.549 Y88.9 E2.04811
G1 X123.76 Y88.929 E2.06635
;WIDTH:0.733299
G1 X124.799 Y89.113 E2.14904
M204 S2500
G1 E.74904 F4800
;WIPE_START
G1 F5760
G1 X124.053 Y88.981 E.14904
;WIPE_END
G92 E0
G1 X125.295 Y90.065 F7200
G1 E2 F4800
M204 S2000
;WIDTH:0.151178
G1 F3000
G3 X125.327 Y92.080 I-21.522 J1.350 E2.02137
M204 S2500
G1 E.62137 F4800
;WIPE_START
G1 F5760
G1 X125.322 Y91.322 E.02137
;WIPE_END
G92 E0
G1 X124.411 Y94.049 F7200
G1 E2 F4800
M204 S2000
;TYPE:Solid infill
;WIDTH:0.563771
G1 F3000
G1 X123.618 Y93.255 E2.0658
G1 X122.905 Y93.255 E2.10761
G1 X124.186 Y94.536 E2.21383
G1 X124.186 Y95.248 E2.25558
G1 X122.193 Y93.255 E2.42084
G1 X121.481 Y93.255 E2.46259
G1 X124.186 Y95.961 E2.68693
G1 X124.186 Y96.673 E2.72868
G1 X120.544 Y93.03 E3.03072
M204 S2500
G1 E1.63072 F4800
;WIPE_START
G1 F5760
G1 X121.08 Y93.566 E1.03072
;WIPE_END
G92 E0
G1 X119.835 Y92.322 F7200
G1 E2 F4800
M204 S2000
G1 F3000
G1 X119.268 Y91.755 E2.04702
G1 X118.556 Y91.755 E2.08877
G1 X124.186 Y97.385 E2.55562
