; generated by PrusaSlicer 2.7.4+win64 on 2024-07-11 at 04:05:20 UTC
; Postprocessed by [ArcWelder](https://github.com/FormerLurker/ArcWelderLib)
; Copyright(C) 2021 - Brad Hochgesang
; Version: 1.2.0, Branch: HEAD, BuildDate: 2021-11-21T20:25:43Z
; resolution=0.05mm
; path_tolerance=5.0%
; max_radius=9999.00mm
; default_xyz_precision=3
; default_e_precision=5
; extrusion_rate_variance_percent=5.0%


; 

; external perimeters extrusion width = 0.45mm
; perimeters extrusion width = 0.40mm
; infill extrusion width = 0.45mm
; solid infill extrusion width = 0.50mm
; top infill extrusion width = 0.45mm
; support material extrusion width = 0.42mm
; first layer extrusion width = 0.56mm

M201 X2500 Y2500 Z800 E2500 ; sets maximum accelerations, mm/sec^2
M203 X300 Y250 Z8 E80 ; sets maximum feedrates, mm / sec
M204 S2500 T2500 ; sets acceleration (S) and retract acceleration (R), mm/sec^2
M205 X15.00 Y10.00 Z2.00 E10.00 ; sets the jerk limits, mm/sec
M205 S0 T0 ; sets the minimum extruding and travel feed rate, mm/sec
;TYPE:Custom
G90 ; use absolute coordinates
M83 ; extruder relative mode
M104 S215 ; set extruder temp
M140 S60 ; set bed temp
M190 S60 ; wait for bed temp
M109 S215 ; wait for extruder temp
G28                                        ; move X/Y/Z to min endstops
G1 Z0.28                                   ; lift nozzle a bit 
G92 E0 
G1 Y3 F1800                                    ; zero the extruded length 
G1 X60  E25 F500                       ; Extrude 25mm of filament in a 5cm line. 
G92 E0                                     ; zero the extruded length again 
G1 E-2 F500                                ; Retract a little 
G1 X70 F4000                              ; Quickly wipe away from the filament line
M117
G21 ; set units to millimeters
G90 ; use absolute coordinates
M82 ; use absolute distances for extrusion
G92 E0
M107
;LAYER_CHANGE
;Z:0.28
;HEIGHT:0.28
G1 E-2 F4800
G92 E0
G1 Z.28 F7200
G1 X87.523 Y78.15
G1 E2 F4800
G92 E0
M204 S2000
;TYPE:Skirt/Brim
;WIDTH:0.56
G1 F3000
G1 X88.184 Y77.453 E.0559
G1 X88.925 Y76.84 E.11187
G1 X90.109 Y76.124 E.19239
G1 X91.512 Y75.592 E.27971
G1 X92.872 Y75.343 E.36017
G1 X142.388 Y74.793 E3.24193
G1 X143.708 Y74.949 E3.31928
G3 X146.441 Y76.397 I-1.338 J5.829 E3.50112
G1 X147.386 Y77.524 E3.58671
G3 X148.338 Y80.467 I-4.994 J3.241 E3.76857
G1 X148.352 Y140.752 E7.27685
G1 X147.957 Y142.365 E7.37349
G1 X146.863 Y143.615 E7.47016
G1 X144.852 Y144.251 E7.5929
G1 X88.642 Y144.251 E10.86404
G1 X87.028 Y143.857 E10.96072
G1 X85.778 Y142.763 E11.05739
G1 X85.142 Y140.752 E11.18013
G1 X85.142 Y138.259 E11.32521
G1 X85.661 Y83.061 E14.5376
G1 X85.744 Y82.102 E14.59362
G1 X86.103 Y80.646 E14.68089
G1 X86.671 Y79.385 E14.76137
G1 X87.489 Y78.2 E14.84517
M204 S2500
G1 X87.489 Y78.2 F7200
G1 X87.899 Y78.483
M204 S2000
G1 F3000
G1 X87.916 Y78.459 E14.84688
G3 X89.234 Y77.233 I5.703 J4.810 E14.95182
G1 X90.314 Y76.58 E15.02527
G3 X92.012 Y75.983 I3.302 J6.678 E15.13020
G1 X93.441 Y75.809 E15.21397
G1 X142.388 Y75.293 E18.0626
G1 X143.579 Y75.432 E18.13238
G3 X146.087 Y76.751 I-1.203 J5.332 E18.29899
G1 X146.977 Y77.811 E18.37954
G3 X147.840 Y80.511 I-4.589 J2.955 E18.54619
G1 X147.852 Y140.752 E22.05191
G1 X147.458 Y142.237 E22.14132
G1 X146.382 Y143.332 E22.23066
G1 X144.852 Y143.751 E22.32298
G1 X88.642 Y143.751 E25.59412
G1 X87.157 Y143.358 E25.68351
G1 X86.061 Y142.281 E25.77293
G1 X85.642 Y140.752 E25.86519
G1 X86.154 Y83.244 E29.212
G1 X86.236 Y82.192 E29.27341
G1 X86.58 Y80.795 E29.35714
G1 X87.099 Y79.643 E29.43067
G1 X87.865 Y78.533 E29.50915
M204 S2500
G1 X87.865 Y78.533 F7200
G1 X88.276 Y78.816
M204 S2000
G1 F3000
G1 X88.31 Y78.767 E29.51262
G3 X92.102 Y76.474 I5.320 J4.516 E29.77486
G1 X93.472 Y76.308 E29.85517
G1 X142.388 Y75.793 E32.70199
G1 X143.45 Y75.915 E32.7642
G3 X145.734 Y77.104 I-1.076 J4.854 E32.91559
G1 X146.567 Y78.098 E32.99106
G3 X147.342 Y80.555 I-4.181 J2.670 E33.14254
G1 X147.352 Y140.752 E36.6457
G1 X146.96 Y142.096 E36.72717
G1 X145.907 Y143.018 E36.80862
G1 X144.852 Y143.251 E36.8715
G1 X88.642 Y143.251 E40.14264
G1 X87.298 Y142.859 E40.22411
G1 X86.375 Y141.806 E40.3056
G1 X86.142 Y140.752 E40.36842
G1 X86.654 Y83.249 E43.71494
G1 X86.728 Y82.282 E43.77138
G1 X87.058 Y80.943 E43.85163
G1 X87.526 Y79.902 E43.91805
G1 X88.242 Y78.865 E43.99139
M204 S2500
G1 E42.59139 F4800
;WIPE_START
G1 F5760
G1 X88.276 Y78.816 E42.54417
G3 X88.752 Y78.305 I1.855 J1.251 E41.99139
;WIPE_END
G92 E0
G92 E0
G1 X126.286 Y90.285 F7200
G1 E2 F4800
M204 S2000
;TYPE:Support material
G1 F3000
G3 X127.879 Y92.139 I-0.265 J1.839 E2.15472
G1 X127.879 Y97.605 E2.47281
G1 X127.808 Y98.127 E2.50347
G1 X127.454 Y98.802 E2.54783
G1 X127.078 Y99.147 E2.57753
G1 X126.309 Y99.486 E2.62644
G1 X126.13 Y99.746 E2.64481
G1 X126.134 Y102.084 E2.78087
G1 X120.41 Y102.084 E3.11398
G1 X120.414 Y99.746 E3.25004
G1 X120.235 Y99.486 E3.26841
G1 X119.465 Y99.147 E3.31737
G3 X118.684 Y97.877 I1.047 J-1.519 E3.40638
G1 X118.665 Y92.139 E3.7403
G1 X118.834 Y91.35 E3.78726
G3 X119.519 Y90.560 I1.681 J0.765 E3.84874
G1 X120.258 Y90.285 E3.89463
G1 X126.211 Y90.279 E4.24106
M204 S2500
G1 X126.211 Y90.279 F7200
G1 X127.301 Y98.63
M204 S2000
G1 F3000
G1 X127.301 Y91.54 E4.65366
G2 X126.745 Y90.920 I-1.259 J0.569 E4.70269
G1 X126.745 Y98.822 E5.16255
G1 X126.19 Y99.05 E5.19747
G1 X126.19 Y90.729 E5.68171
G1 X125.634 Y90.714 E5.71408
G1 X125.634 Y101.634 E6.34957
G1 X125.079 Y101.634 E6.38187
G1 X125.079 Y90.714 E7.01736
G1 X124.523 Y90.714 E7.04972
G1 X124.523 Y101.634 E7.68521
G1 X123.968 Y101.634 E7.71751
G1 X123.968 Y90.714 E8.353
G1 X123.412 Y90.714 E8.38536
G1 X123.412 Y101.634 E9.02085
G1 X122.857 Y101.634 E9.05315
G1 X122.857 Y90.714 E9.68864
G1 X122.301 Y90.714 E9.721
G1 X122.301 Y101.634 E10.35649
G1 X121.746 Y101.634 E10.38879
G1 X121.746 Y90.714 E11.02428
G1 X121.191 Y90.714 E11.05658
G1 X121.191 Y101.634 E11.69207
G1 X120.86 Y101.634 E11.71133
G1 X120.864 Y99.606 E11.82935
G1 X120.635 Y99.274 E11.85282
G1 X120.635 Y90.714 E12.35097
G1 X120.08 Y90.791 E12.38358
G1 X120.08 Y98.945 E12.8581
G1 X119.524 Y98.606 E12.896
G1 X119.524 Y90.837 E13.34812
M204 S2500
G1 E11.94812 F4800
;WIPE_START
G1 F5760
G1 X119.524 Y91.595 E11.34812
;WIPE_END
G92 E0
G1 X100.429 Y80.766 F7200
G1 E2 F4800
M204 S2000
G1 F3000
G1 X102.635 Y80.76 E2.12838
G1 X102.635 Y85.785 E2.42081
G1 X97.109 Y85.785 E2.7424
G1 X97.109 Y80.76 E3.03483
G1 X100.354 Y80.766 E3.22367
M204 S2500
G1 X101.75 Y85.56 F7200
M204 S2000
G1 F3000
G1 X101.75 Y81.212 E3.4767
G1 X101.194 Y81.214 E3.50906
G1 X101.194 Y85.335 E3.74888
G1 X100.639 Y85.335 E3.78118
G1 X100.639 Y81.216 E4.02088
G1 X100.083 Y81.215 E4.05324
G1 X100.083 Y85.335 E4.293
G1 X99.528 Y85.335 E4.3253
G1 X99.528 Y81.214 E4.56512
G1 X98.972 Y81.213 E4.59748
G1 X98.972 Y85.335 E4.83736
G1 X98.417 Y85.335 E4.86966
G1 X98.417 Y81.212 E5.1096
G1 X97.861 Y81.211 E5.14196
G1 X97.861 Y85.56 E5.39505
M204 S2500
G1 E3.99505 F4800
;WIPE_START
G1 F5760
G1 X97.861 Y84.802 E3.39505
;WIPE_END
G92 E0
G1 X144.622 Y136.752 F7200
G1 E2 F4800
M204 S2000
;TYPE:External perimeter
;WIDTH:0.520088
G1 F3000
G1 X144.622 Y133.541 E2.17195
M204 S2500
G1 E.77195 F4800
;WIPE_START
G1 F5760
G1 X144.622 Y134.299 E.17195
;WIPE_END
G92 E0
G1 X142.472 Y81.969 F7200
G1 E2 F4800
M204 S2000
;WIDTH:0.56
G1 F3000
G1 X142.472 Y86.024 E2.23598
G2 X144.572 Y85.895 I0.512 J-8.820 E2.35870
G3 X144.514 Y86.745 I-3.627 J0.179 E2.40836
G2 X144.472 Y88.769 I18.218 J1.390 E2.52621
G1 X144.472 Y131.259 E4.99891
G2 X144.572 Y132.773 I7.656 J0.255 E5.08730
G1 X144.572 Y133.249 E5.115
G2 X142.472 Y133.119 I-1.587 J8.614 E5.23773
G1 X142.472 Y137.174 E5.47371
G2 X144.572 Y137.045 I0.512 J-8.820 E5.59643
G3 X144.505 Y138.227 I-4.747 J0.324 E5.66546
G2 X144.473 Y140.372 I20.731 J1.382 E5.79033
G1 X89.022 Y140.372 E9.0173
G1 X89.022 Y138.672 E9.11623
G1 X89.896 Y138.672 E9.16709
G1 X89.896 Y83.284 E12.39039
G3 X93.635 Y79.545 I3.727 J-0.012 E12.73226
G2 X96.618 Y79.459 I0.863 J-21.854 E12.90602
G1 X103.065 Y79.46 E13.2812
G2 X105.063 Y79.545 I1.765 J-17.954 E13.39762
G1 X140.272 Y79.545 E15.44661
G1 X140.272 Y78.672 E15.49741
G1 X142.37 Y78.673 E15.6195
G3 X144.442 Y80.410 I-0.000 J2.104 E15.79011
G1 X144.572 Y81.785 E15.87048
G1 X144.572 Y82.099 E15.88875
G2 X142.532 Y81.970 I-1.551 J8.332 E16.00798
M204 S2500
G1 X141.972 Y81.466 F7200
M204 S2000
;TYPE:Perimeter
G1 F3000
G1 X141.972 Y86.527 E16.3025
G2 X144.041 Y86.488 I0.721 J-16.642 E16.42296
G2 X143.972 Y88.767 I15.892 J1.622 E16.55572
G1 X143.972 Y131.268 E19.02906
G2 X144.052 Y132.656 I6.995 J0.293 E19.11005
G2 X141.972 Y132.616 I-1.358 J16.534 E19.23115
G1 X141.972 Y137.677 E19.52567
G2 X144.078 Y137.635 I0.721 J-16.670 E19.64829
G2 X143.974 Y139.872 I12.433 J1.699 E19.77879
G1 X89.522 Y139.872 E22.94762
G1 X89.522 Y139.171 E22.98841
G1 X90.395 Y139.171 E23.03921
G1 X90.395 Y83.299 E26.29068
G3 X93.651 Y80.045 I3.231 J-0.023 E26.58862
G1 X95.831 Y80.019 E26.71549
G2 X95.729 Y81.162 I8.272 J1.314 E26.78231
G1 X95.724 Y87.169 E27.13189
G1 X104.02 Y87.169 E27.61468
G1 X104.019 Y81.635 E27.93673
G2 X103.914 Y80.028 I-8.962 J-0.221 E28.03054
G1 X105.06 Y80.045 E28.09724
G1 X140.772 Y80.045 E30.1755
G1 X140.772 Y79.172 E30.2263
G1 X142.348 Y79.173 E30.31802
G3 X143.948 Y80.501 I0.019 J1.605 E30.44943
G1 X144.043 Y81.506 E30.50818
G2 X142.032 Y81.466 I-1.317 J15.649 E30.62527
M204 S2500
G1 X142.032 Y81.466 F7200
G1 X141.472 Y80.962
M204 S2000
G1 F3000
G1 X141.472 Y87.031 E30.97846
G1 X143.496 Y87.016 E31.09625
G1 X143.472 Y88.766 E31.1981
G1 X143.472 Y131.276 E33.67197
G1 X143.5 Y132.127 E33.72152
G1 X141.472 Y132.112 E33.83954
G1 X141.472 Y138.181 E34.19273
G1 X143.507 Y138.166 E34.31116
G2 X143.476 Y139.372 I11.358 J0.895 E34.38139
G1 X90.895 Y139.372 E37.44134
G1 X90.895 Y83.314 E40.70363
G3 X93.668 Y80.545 I2.735 J-0.034 E40.95761
G1 X95.26 Y80.535 E41.05026
G1 X95.229 Y81.149 E41.08604
G1 X95.223 Y87.669 E41.46547
G1 X104.52 Y87.669 E42.00651
G1 X104.519 Y81.627 E42.35812
G1 X104.486 Y80.536 E42.42164
G1 X141.272 Y80.545 E44.5624
G1 X141.272 Y79.672 E44.6132
G3 X142.562 Y79.693 I0.520 J7.708 E44.68832
G3 X143.491 Y80.977 I-0.244 J1.154 E44.78923
G1 X141.532 Y80.963 E44.90324
M204 S2500
G1 E43.50324 F4800
;WIPE_START
G1 F5760
G1 X141.472 Y80.962 E43.45573
G1 X141.472 Y81.66 E42.90324
;WIPE_END
G92 E0
G1 X119.523 Y102.969 F7200
G1 E2 F4800
M204 S2000
;TYPE:External perimeter
G1 F3000
G1 X119.528 Y100.164 E2.16324
G3 X117.780 Y97.635 I0.958 J-2.531 E2.35358
G1 X117.78 Y92.107 E2.67528
G3 X120.508 Y89.379 I2.740 J0.012 E2.92418
G1 X126.036 Y89.379 E3.24588
G3 X128.764 Y92.107 I-0.012 J2.740 E3.49478
G1 X128.764 Y97.635 E3.81648
G3 X127.016 Y100.164 I-2.697 J0.005 E4.00680
G1 X127.02 Y102.969 E4.17004
G1 X119.583 Y102.969 E4.60284
M204 S2500
G1 X119.583 Y102.969 F7200
G1 X119.023 Y103.469
M204 S2000
;TYPE:Perimeter
G1 F3000
G1 X119.027 Y100.498 E4.77574
G3 X117.280 Y97.653 I1.484 J-2.870 E4.97980
G1 X117.28 Y92.089 E5.3036
G3 X120.490 Y88.879 I3.238 J0.028 E5.59616
G1 X126.054 Y88.879 E5.91996
G3 X129.264 Y92.089 I-0.027 J3.237 E6.21252
G1 X129.264 Y97.653 E6.53632
G3 X127.516 Y100.498 I-3.229 J-0.025 E6.74043
G1 X127.521 Y103.469 E6.91333
G1 X119.083 Y103.469 E7.40438
M204 S2500
G1 X119.083 Y103.469 F7200
G1 X118.522 Y103.969
M204 S2000
G1 F3000
G1 X118.527 Y100.782 E7.58985
G3 X116.780 Y97.670 I1.952 J-3.142 E7.80651
G1 X116.78 Y92.072 E8.13229
G3 X120.472 Y88.380 I3.733 J0.041 E8.46857
G1 X126.072 Y88.38 E8.79446
G3 X129.764 Y92.072 I-0.041 J3.733 E9.13074
G1 X129.764 Y97.67 E9.45652
G3 X128.017 Y100.782 I-3.699 J-0.030 E9.67317
G1 X128.022 Y103.969 E9.85864
G1 X118.582 Y103.969 E10.408
M204 S2500
G1 E9.008 F4800
;WIPE_START
G1 F5760
G1 X118.522 Y103.969 E8.9605
G1 X118.523 Y103.271 E8.408
;WIPE_END
G92 E0
G1 X96.224 Y86.67 F7200
G1 E2 F4800
M204 S2000
;TYPE:External perimeter
G1 F3000
G1 X96.229 Y81.175 E2.31978
G3 X96.341 Y79.959 I8.815 J0.199 E2.39089
G2 X103.403 Y79.959 I3.531 J-2271.867 E2.80187
G3 X103.519 Y81.642 I-9.366 J1.491 E2.90014
G1 X103.52 Y86.67 E3.19274
G1 X96.284 Y86.67 E3.61384
M204 S2500
G1 E2.21384 F4800
;WIPE_START
G1 F5760
G1 X96.224 Y86.67 E2.16634
G1 X96.225 Y85.972 E1.61384
;WIPE_END
G92 E0
G1 X144.622 Y82.391 F7200
G1 E2 F4800
M204 S2000
;WIDTH:0.520088
G1 F3000
G1 X144.622 Y85.602 E2.17195
M204 S2500
G1 E.77195 F4800
;WIPE_START
G1 F5760
G1 X144.622 Y84.844 E.17195
;WIPE_END
G92 E0
G1 X143.282 Y88.033 F7200
G1 E2 F4800
M204 S2000
;TYPE:Solid infill
;WIDTH:0.562474
G1 F3000
G1 X142.695 Y87.447 E2.04851
G1 X141.99 Y87.452 E2.08974
G1 X143.273 Y88.734 E2.19581
M204 S2500
G1 E.79581 F4800
;WIPE_START
G1 F5760
G1 X142.737 Y88.198 E.19581
;WIPE_END
G92 E0
G1 X140.256 Y80.745 F7200
G1 E2 F4800
M204 S2000
G1 F3000
G1 X141.047 Y81.536 E2.06542
G1 X141.047 Y82.246 E2.10694
G1 X139.771 Y80.97 E2.21247
G1 X139.06 Y80.969 E2.25405
G1 X141.047 Y82.957 E2.41843
G1 X141.047 Y83.667 E2.45995
G1 X138.349 Y80.969 E2.68309
G1 X137.639 Y80.969 E2.72461
G1 X141.047 Y84.378 E3.00652
G1 X141.047 Y85.088 E3.04804
G1 X136.928 Y80.969 E3.38871
G1 X136.217 Y80.969 E3.43029
G1 X141.047 Y85.799 E3.82977
G1 X141.047 Y86.509 E3.87129
G1 X135.507 Y80.969 E4.32949
G1 X134.796 Y80.968 E4.37107
G1 X143.047 Y89.219 E5.05349
G1 X143.047 Y89.93 E5.09507
G1 X134.085 Y80.968 E5.83629
G1 X133.375 Y80.968 E5.87781
G1 X143.047 Y90.64 E6.67776
G1 X143.047 Y91.351 E6.71934
G1 X132.664 Y80.968 E7.57809
G1 X131.954 Y80.968 E7.61961
G1 X143.047 Y92.061 E8.53708
G1 X143.047 Y92.772 E8.57866
G1 X131.243 Y80.968 E9.55494
G1 X130.532 Y80.967 E9.59652
G1 X143.047 Y93.482 E10.6316
G1 X143.047 Y94.193 E10.67318
G1 X129.822 Y80.967 E11.76703
G1 X129.111 Y80.967 E11.80861
G1 X143.047 Y94.903 E12.96122
G1 X143.047 Y95.614 E13.0028
G1 X128.4 Y80.967 E14.21422
G1 X127.69 Y80.967 E14.25574
G1 X143.047 Y96.324 E15.52588
G1 X143.047 Y97.035 E15.56746
G1 X126.979 Y80.967 E16.8964
G1 X126.268 Y80.966 E16.93798
G1 X143.047 Y97.745 E18.32573
G1 X143.047 Y98.456 E18.36731
G1 X125.558 Y80.966 E19.81382
G1 X124.847 Y80.966 E19.8554
G1 X143.047 Y99.166 E21.36068
G1 X143.047 Y99.877 E21.40226
G1 X124.136 Y80.966 E22.96634
G1 X123.426 Y80.966 E23.00786
G1 X143.047 Y100.587 E24.63066
G1 X143.047 Y101.298 E24.67224
G1 X122.715 Y80.966 E26.35385
G1 X122.004 Y80.965 E26.39543
G1 X143.047 Y102.008 E28.13584
G1 X143.047 Y102.719 E28.17742
G1 X121.294 Y80.965 E29.9766
G1 X120.583 Y80.965 E30.01818
G1 X143.047 Y103.429 E31.87612
G1 X143.047 Y104.14 E31.9177
G1 X130.072 Y91.164 E32.99087
G3 X130.184 Y91.987 I-2.823 J0.803 E33.03956
G1 X143.047 Y104.85 E34.10343
G1 X143.047 Y105.561 E34.14501
G1 X130.189 Y92.702 E35.2085
G1 X130.189 Y93.413 E35.25008
G1 X143.047 Y106.271 E36.31353
G1 X143.047 Y106.982 E36.35511
G1 X130.189 Y94.123 E37.4186
G1 X130.189 Y94.834 E37.46018
G1 X143.047 Y107.692 E38.52363
G1 X143.047 Y108.403 E38.56521
G1 X130.189 Y95.544 E39.6287
G1 X130.189 Y96.255 E39.67028
G1 X143.047 Y109.113 E40.73373
G1 X143.047 Y109.824 E40.77531
G1 X130.189 Y96.965 E41.8388
G1 X130.189 Y97.676 E41.88038
G1 X143.047 Y110.534 E42.94383
G1 X143.047 Y111.245 E42.98541
G1 X130.127 Y98.324 E44.05403
G3 X129.986 Y98.894 I-2.053 J-0.205 E44.08844
G1 X143.047 Y111.955 E45.16868
G1 X143.047 Y112.666 E45.21026
G1 X129.786 Y99.404 E46.30708
G1 X129.535 Y99.863 E46.33768
G1 X143.047 Y113.376 E47.45526
G1 X143.047 Y114.087 E47.49684
G1 X129.238 Y100.277 E48.63899
G1 X128.893 Y100.642 E48.66836
G1 X143.047 Y114.797 E49.83904
G1 X143.047 Y115.507 E49.88056
G1 X128.504 Y100.965 E51.08333
G1 X128.442 Y101.014 E51.08795
G1 X128.443 Y101.614 E51.12304
G1 X143.047 Y116.218 E52.3309
G1 X143.047 Y116.928 E52.37242
G1 X128.444 Y102.325 E53.5802
G1 X128.445 Y103.037 E53.62184
G1 X143.047 Y117.639 E54.82953
G1 X143.047 Y118.349 E54.87105
G1 X128.446 Y103.748 E56.07866
G1 X128.447 Y104.394 E56.11644
G1 X128.382 Y104.394 E56.12024
G1 X143.047 Y119.06 E57.33319
G1 X143.047 Y119.77 E57.37471
G1 X127.671 Y104.394 E58.64642
G1 X126.961 Y104.394 E58.68794
G1 X143.047 Y120.481 E60.01841
G1 X143.047 Y121.191 E60.05993
G1 X126.25 Y104.394 E61.44917
G1 X125.54 Y104.394 E61.49069
G1 X143.047 Y121.902 E62.93869
G1 X143.047 Y122.612 E62.98021
