; generated by PrusaSlicer 2.7.4+win64 on 2024-07-11 at 04:03:43 UTC
; Postprocessed by [ArcWelder](https://github.com/FormerLurker/ArcWelderLib)
; Copyright(C) 2021 - Brad Hochgesang
; Version: 1.2.0, Branch: HEAD, BuildDate: 2021-11-21T20:25:43Z
; resolution=0.05mm
; path_tolerance=5.0%
; max_radius=9999.00mm
; default_xyz_precision=3
; default_e_precision=5
; extrusion_rate_variance_percent=5.0%


; 

; external perimeters extrusion width = 0.45mm
; perimeters extrusion width = 0.40mm
; infill extrusion width = 0.45mm
; solid infill extrusion width = 0.50mm
; top infill extrusion width = 0.45mm
; support material extrusion width = 0.42mm
; first layer extrusion width = 0.56mm

M201 X2500 Y2500 Z800 E2500 ; sets maximum accelerations, mm/sec^2
M203 X300 Y250 Z8 E80 ; sets maximum feedrates, mm / sec
M204 S2500 T2500 ; sets acceleration (S) and retract acceleration (R), mm/sec^2
M205 X15.00 Y10.00 Z2.00 E10.00 ; sets the jerk limits, mm/sec
M205 S0 T0 ; sets the minimum extruding and travel feed rate, mm/sec
;TYPE:Custom
G90 ; use absolute coordinates
M83 ; extruder relative mode
M104 S215 ; set extruder temp
M140 S60 ; set bed temp
M190 S60 ; wait for bed temp
M109 S215 ; wait for extruder temp
G28                                        ; move X/Y/Z to min endstops
G1 Z0.28                                   ; lift nozzle a bit 
G92 E0 
G1 Y3 F1800                                    ; zero the extruded length 
G1 X60  E25 F500                       ; Extrude 25mm of filament in a 5cm line. 
G92 E0                                     ; zero the extruded length again 
G1 E-2 F500                                ; Retract a little 
G1 X70 F4000                              ; Quickly wipe away from the filament line
M117
G21 ; set units to millimeters
G90 ; use absolute coordinates
M82 ; use absolute distances for extrusion
G92 E0
M107
;LAYER_CHANGE
;Z:0.28
;HEIGHT:0.28
G1 E-2 F4800
G92 E0
G1 Z.28 F7200
G1 X104.836 Y81.615
G1 E2 F4800
G92 E0
M204 S2000
;TYPE:Skirt/Brim
;WIDTH:0.56
G1 F3000
G1 X110.9 Y74.503 E.54391
G1 X112.247 Y73.531 E.64058
G1 X114.699 Y73.463 E.78333
G1 X122.236 Y76.048 E1.24703
G1 X123.576 Y76.884 E1.33894
G1 X127.958 Y81.267 E1.69962
G1 X128.82 Y82.687 E1.79629
G1 X128.977 Y83.947 E1.87018
G1 X125.353 Y144.696 E5.41175
G3 X124.475 Y147.053 I-6.138 J-0.945 E5.55902
G1 X123.335 Y148.285 E5.6567
G1 X122.113 Y149.021 E5.73972
G1 X121.055 Y149.417 E5.80546
G1 X107.957 Y152.021 E6.58261
G1 X106.298 Y151.949 E6.67925
G1 X105.257 Y151.448 E6.74648
G1 X100.552 Y148.127 E7.08162
G1 X99.461 Y146.874 E7.17831
G1 X99.072 Y145.172 E7.27991
G1 X100.52 Y92.144 E10.36702
G1 X100.696 Y89.488 E10.52192
G1 X101.144 Y87.997 E10.61252
G1 X104.455 Y82.159 E11.0031
G1 X104.802 Y81.664 E11.03828
M204 S2500
G1 X105.217 Y81.939 F7200
M204 S2000
G1 F3000
G1 X111.281 Y74.827 E11.58219
G1 X112.543 Y73.952 E11.67156
G1 X114.537 Y73.936 E11.7876
G1 X122.074 Y76.521 E12.2513
G1 X123.222 Y77.238 E12.33007
G1 X127.604 Y81.62 E12.69071
G1 X128.376 Y82.948 E12.7801
G1 X128.478 Y83.918 E12.83686
G1 X124.864 Y144.591 E16.37398
G1 X124.458 Y146.017 E16.46026
G1 X124.038 Y146.811 E16.51253
G1 X123.06 Y147.868 E16.59633
G1 X121.864 Y148.587 E16.67754
G1 X120.957 Y148.927 E16.73391
G1 X107.86 Y151.531 E17.51101
G1 X106.327 Y151.435 E17.6004
G1 X105.545 Y151.039 E17.65141
G1 X100.84 Y147.718 E17.98655
G1 X99.854 Y146.541 E18.0759
G1 X99.571 Y145.186 E18.15646
G1 X101.02 Y92.157 E21.24363
G1 X101.195 Y89.522 E21.39731
G1 X101.579 Y88.244 E21.47497
G1 X105.187 Y81.991 E21.89509
M204 S2500
G1 X105.187 Y81.991 F7200
G1 X105.597 Y82.264
M204 S2000
G1 F3000
G1 X111.661 Y75.151 E22.43904
G1 X112.831 Y74.383 E22.52049
G1 X114.375 Y74.409 E22.61036
G1 X121.912 Y76.994 E23.07406
G1 X122.869 Y77.591 E23.1397
G1 X127.251 Y81.974 E23.50038
G1 X127.978 Y83.888 E23.61953
G1 X124.426 Y144.11 E27.13024
G1 X124.225 Y145.188 E27.19406
G3 X123.600 Y146.570 I-4.981 J-1.420 E27.28256
G1 X122.786 Y147.45 E27.35232
G1 X121.616 Y148.153 E27.43175
G1 X120.86 Y148.437 E27.47875
G1 X107.762 Y151.04 E28.25589
G1 X105.833 Y150.631 E28.37064
G1 X101.129 Y147.31 E28.70574
G1 X100.257 Y146.215 E28.7872
G1 X100.071 Y145.199 E28.84731
G1 X101.519 Y92.171 E31.93442
G1 X101.694 Y89.556 E32.08694
G1 X102.014 Y88.491 E32.15165
G1 X105.567 Y82.316 E32.56624
M204 S2500
G1 E31.16624 F4800
;WIPE_START
G1 F5760
G1 X105.597 Y82.264 E31.11871
G1 X106.05 Y81.733 E30.56624
;WIPE_END
G92 E0
G92 E0
G1 X120.59 Y80.015 F7200
G1 E2 F4800
M204 S2000
;TYPE:Support material interface
;WIDTH:0.42
G1 F3000
G1 X120.2 Y79.624 E2.02314
G1 X119.666 Y79.624 E2.04551
G1 X120.421 Y80.378 E2.09022
G1 X120.421 Y80.912 E2.11259
G1 X119.133 Y79.624 E2.18891
G1 X118.6 Y79.624 E2.21124
G1 X120.421 Y81.445 E2.31914
G1 X120.421 Y81.978 E2.34147
G1 X118.067 Y79.624 E2.48095
G1 X117.555 Y79.646 E2.50242
G1 X120.421 Y82.511 E2.67221
G1 X120.754 Y83.348 E2.70995
G1 X120.878 Y83.472 E2.7173
G1 X117.289 Y79.913 E2.92907
G1 X117.022 Y80.179 E2.94486
G1 X120.315 Y83.472 E3.13998
G1 X119.782 Y83.472 E3.16231
G1 X116.755 Y80.446 E3.34164
G1 X116.686 Y80.516 E3.34576
G1 X116.292 Y80.516 E3.36227
G1 X116.51 Y80.734 E3.37519
G1 X117.414 Y81.109 E3.41619
G1 X117.688 Y81.517 E3.43678
G1 X117.688 Y81.911 E3.45329
G1 X119.248 Y83.472 E3.54575
G1 X118.715 Y83.472 E3.56808
G1 X117.688 Y82.445 E3.62893
G1 X117.688 Y82.978 E3.65126
G1 X118.351 Y83.642 E3.69057
M204 S2500
G1 E2.29057 F4800
;WIPE_START
G1 F5760
G1 X117.815 Y83.106 E1.69057
;WIPE_END
G92 E0
G1 X117.015 Y81.45 F7200
G1 E2 F4800
M204 S2000
;TYPE:Support material
;WIDTH:0.56
G1 F3000
G1 X117.219 Y81.659 E2.017
G1 X117.219 Y83.38 E2.11715
G1 X115.3 Y83.38 E2.22883
G1 X113.006 Y82.43 E2.37332
G1 X113.45 Y81.923 E2.41254
G1 X114.218 Y81.533 E2.46267
G1 X115.096 Y80.655 E2.53493
G1 X116.946 Y81.421 E2.65145
M204 S2500
G1 X116.946 Y81.421 F7200
G1 X116.537 Y83.156
M204 S2000
G1 F3000
G1 X116.537 Y81.739 E2.73391
G1 X115.982 Y81.509 E2.76887
G1 X115.982 Y82.931 E2.85162
G1 X115.426 Y82.931 E2.88398
G1 X115.426 Y81.279 E2.98012
G1 X115.201 Y81.186 E2.99429
G1 X114.871 Y81.516 E3.02145
G1 X114.871 Y82.716 E3.09128
G1 X114.315 Y82.486 E3.1263
G1 X114.315 Y81.736 E3.16995
M204 S2500
G1 E1.76995 F4800
;WIPE_START
G1 F5760
G1 X114.315 Y82.486 E1.1762
G1 X114.322 Y82.489 E1.16995
;WIPE_END
G92 E0
G1 X114.752 Y80.576 F7200
G1 E2 F4800
M204 S2000
;TYPE:Support material interface
;WIDTH:0.42
G1 F3000
G1 X113.8 Y79.624 E2.05641
G1 X113.267 Y79.624 E2.07874
G1 X114.366 Y80.722 E2.14383
G1 X114.099 Y80.989 E2.15965
G1 X112.734 Y79.624 E2.24053
G1 X112.201 Y79.624 E2.26286
G1 X113.783 Y81.206 E2.3566
G1 X113.421 Y81.378 E2.37339
G1 X111.667 Y79.624 E2.47732
G1 X111.138 Y79.624 E2.49948
G1 X113.11 Y81.6 E2.61644
G1 X112.843 Y81.866 E2.63223
G1 X111.138 Y80.161 E2.73325
G1 X111.138 Y80.694 E2.75558
G1 X112.609 Y82.165 E2.84274
G1 X112.452 Y82.542 E2.85985
G1 X111.138 Y81.227 E2.93774
G1 X111.138 Y81.76 E2.96007
G1 X112.321 Y82.944 E3.03019
G1 X112.321 Y83.472 E3.05231
G1 X111.138 Y82.294 E3.12226
G1 X111.138 Y82.827 E3.14459
G1 X111.782 Y83.472 E3.18278
G1 X111.249 Y83.472 E3.20511
G1 X110.968 Y83.191 E3.22176
M204 S2500
G1 E1.82176 F4800
;WIPE_START
G1 F5760
G1 X111.249 Y83.472 E1.50716
G1 X111.61 Y83.472 E1.22176
;WIPE_END
G92 E0
G1 X107.256 Y90.144 F7200
G1 E2 F4800
M204 S2000
G1 F3000
G1 X106.836 Y89.724 E2.02489
G1 X106.302 Y89.724 E2.04726
G1 X107.086 Y90.508 E2.09371
G1 X107.086 Y90.907 E2.11043
G1 X106.978 Y90.932 E2.11507
G1 X105.769 Y89.724 E2.18668
G1 X105.236 Y89.724 E2.20901
G1 X106.711 Y91.199 E2.29641
G1 X106.444 Y91.466 E2.31223
G1 X104.703 Y89.724 E2.41542
G1 X104.188 Y89.724 E2.437
G1 X106.178 Y91.732 E2.55545
G1 X105.911 Y91.999 E2.57127
G1 X104.188 Y90.276 E2.67336
G1 X104.188 Y90.809 E2.69569
G1 X105.721 Y92.342 E2.78652
G1 X105.721 Y92.457 E2.79134
G1 X105.303 Y92.457 E2.80885
G1 X104.188 Y91.342 E2.87492
G1 X104.188 Y91.876 E2.89729
G1 X104.769 Y92.457 E2.93172
G1 X104.236 Y92.457 E2.95405
G1 X104.018 Y92.239 E2.96697
M204 S2500
G1 E1.56697 F4800
;WIPE_START
G1 F5760
G1 X104.236 Y92.457 E1.3229
G1 X104.686 Y92.457 E.96697
;WIPE_END
G92 E0
G1 X122.1 Y84.724 F7200
G1 E2 F4800
M204 S2000
G1 F3000
G1 X121.686 Y84.309 E2.02456
G1 X121.686 Y84.843 E2.04693
G1 X121.931 Y85.088 E2.06145
G1 X121.931 Y85.621 E2.08378
G1 X121.686 Y85.376 E2.0983
G1 X121.686 Y85.909 E2.12063
G1 X121.931 Y86.154 E2.13515
G1 X121.931 Y86.688 E2.15752
G1 X121.686 Y86.443 E2.17204
G1 X121.686 Y86.976 E2.19437
G1 X121.931 Y87.221 E2.20889
G1 X121.931 Y87.754 E2.23122
G1 X121.686 Y87.509 E2.24574
G1 X121.686 Y88.042 E2.26807
G1 X121.931 Y88.287 E2.28259
G1 X121.931 Y88.821 E2.30496
G1 X121.686 Y88.576 E2.31948
G1 X121.686 Y89.109 E2.34181
G1 X121.931 Y89.354 E2.35633
G1 X121.931 Y89.887 E2.37866
G1 X121.686 Y89.642 E2.39318
G1 X121.686 Y90.175 E2.41551
G1 X121.931 Y90.421 E2.43006
G1 X121.931 Y90.954 E2.45239
G1 X121.686 Y90.709 E2.46691
G1 X121.686 Y91.242 E2.48924
G1 X121.931 Y91.487 E2.50376
G1 X121.931 Y92.02 E2.52609
G1 X121.686 Y91.775 E2.54061
G1 X121.686 Y92.309 E2.56298
G1 X121.931 Y92.554 E2.5775
G1 X121.931 Y93.087 E2.59983
G1 X121.686 Y92.842 E2.61435
G1 X121.686 Y93.375 E2.63668
G1 X121.931 Y93.62 E2.6512
G1 X121.931 Y94.153 E2.67353
G1 X121.686 Y93.908 E2.68805
G1 X121.686 Y94.442 E2.71042
G1 X121.931 Y94.687 E2.72494
G1 X121.931 Y95.22 E2.74727
G1 X121.686 Y94.975 E2.76179
G1 X121.686 Y95.508 E2.78412
G1 X121.931 Y95.753 E2.79864
G1 X121.931 Y96.287 E2.82101
G1 X121.686 Y96.041 E2.83556
G1 X121.686 Y96.575 E2.85793
G1 X121.931 Y96.82 E2.87245
G1 X121.931 Y97.353 E2.89478
G1 X121.686 Y97.108 E2.9093
G1 X121.686 Y97.641 E2.93163
G1 X121.931 Y97.886 E2.94615
G1 X121.931 Y98.42 E2.96852
G1 X121.686 Y98.174 E2.98307
G1 X121.686 Y98.708 E3.00544
G1 X121.931 Y98.953 E3.01996
G1 X121.931 Y99.486 E3.04229
G1 X121.686 Y99.241 E3.05681
G1 X121.686 Y99.774 E3.07914
G1 X121.931 Y100.019 E3.09366
G1 X121.931 Y100.553 E3.11603
G1 X121.686 Y100.308 E3.13055
G1 X121.686 Y100.841 E3.15288
G1 X121.931 Y101.086 E3.1674
G1 X121.931 Y101.619 E3.18973
G1 X121.686 Y101.374 E3.20425
G1 X121.686 Y101.907 E3.22658
G1 X121.931 Y102.153 E3.24113
G1 X121.931 Y102.686 E3.26346
G1 X121.686 Y102.441 E3.27798
G1 X121.686 Y102.974 E3.30031
G1 X121.931 Y103.219 E3.31483
G1 X121.931 Y103.752 E3.33716
G1 X121.686 Y103.507 E3.35168
G1 X121.686 Y104.04 E3.37401
G1 X121.931 Y104.286 E3.38856
G1 X121.931 Y104.819 E3.41089
G1 X121.686 Y104.574 E3.42541
G1 X121.686 Y105.107 E3.44774
G1 X121.931 Y105.352 E3.46226
G1 X121.931 Y105.885 E3.48459
G1 X121.686 Y105.64 E3.49911
G1 X121.686 Y106.174 E3.52148
G1 X121.931 Y106.419 E3.536
G1 X121.931 Y106.952 E3.55833
G1 X121.686 Y106.707 E3.57285
G1 X121.686 Y107.24 E3.59518
G1 X121.931 Y107.485 E3.6097
G1 X121.931 Y108.018 E3.63203
G1 X121.686 Y107.773 E3.64655
G1 X121.686 Y108.307 E3.66892
G1 X121.931 Y108.552 E3.68344
G1 X121.931 Y109.085 E3.70577
G1 X121.686 Y108.84 E3.72029
G1 X121.686 Y109.373 E3.74262
G1 X121.931 Y109.618 E3.75714
G1 X121.931 Y110.152 E3.77951
G1 X121.686 Y109.906 E3.79406
G1 X121.686 Y110.44 E3.81643
G1 X121.931 Y110.685 E3.83095
G1 X121.931 Y111.218 E3.85328
G1 X121.686 Y110.973 E3.8678
G1 X121.686 Y111.506 E3.89013
G1 X121.931 Y111.751 E3.90465
G1 X121.931 Y112.285 E3.92702
G1 X121.686 Y112.039 E3.94157
G1 X121.686 Y112.573 E3.96394
G1 X121.931 Y112.818 E3.97846
G1 X121.931 Y113.351 E4.00079
G1 X121.686 Y113.106 E4.01531
G1 X121.686 Y113.639 E4.03764
G1 X121.931 Y113.884 E4.05216
G1 X121.931 Y114.418 E4.07453
G1 X121.686 Y114.173 E4.08905
G1 X121.686 Y114.706 E4.11138
G1 X121.931 Y114.951 E4.1259
G1 X121.931 Y115.484 E4.14823
G1 X121.686 Y115.239 E4.16275
G1 X121.686 Y115.772 E4.18508
G1 X121.931 Y116.018 E4.19963
G1 X121.931 Y116.551 E4.22196
G1 X121.686 Y116.306 E4.23648
G1 X121.686 Y116.839 E4.25881
G1 X121.931 Y117.084 E4.27333
G1 X121.931 Y117.617 E4.29566
G1 X121.686 Y117.372 E4.31018
G1 X121.686 Y117.905 E4.33251
G1 X121.931 Y118.151 E4.34706
G1 X121.931 Y118.684 E4.36939
G1 X121.686 Y118.439 E4.38391
G1 X121.686 Y118.972 E4.40624
G1 X121.931 Y119.217 E4.42076
G1 X121.931 Y119.75 E4.44309
G1 X121.686 Y119.505 E4.45761
G1 X121.686 Y120.039 E4.47998
G1 X121.931 Y120.284 E4.4945
G1 X121.931 Y120.817 E4.51683
G1 X121.686 Y120.572 E4.53135
G1 X121.686 Y121.105 E4.55368
G1 X121.931 Y121.35 E4.5682
G1 X121.931 Y121.884 E4.59057
G1 X121.686 Y121.638 E4.60512
G1 X121.686 Y122.172 E4.62749
G1 X121.931 Y122.417 E4.64201
G1 X121.931 Y122.95 E4.66434
G1 X121.686 Y122.705 E4.67886
G1 X121.686 Y123.238 E4.70119
G1 X121.931 Y123.483 E4.71571
G1 X121.931 Y124.017 E4.73808
G1 X121.686 Y123.771 E4.75263
G1 X121.686 Y124.305 E4.775
G1 X121.931 Y124.55 E4.78952
G1 X121.931 Y125.083 E4.81185
G1 X121.686 Y124.838 E4.82637
G1 X121.686 Y125.371 E4.8487
G1 X121.931 Y125.616 E4.86322
G1 X121.931 Y126.15 E4.88559
G1 X121.686 Y125.905 E4.90011
G1 X121.686 Y126.438 E4.92244
G1 X121.931 Y126.683 E4.93696
G1 X121.931 Y127.216 E4.95929
G1 X121.686 Y126.971 E4.97381
G1 X121.686 Y127.504 E4.99614
G1 X121.931 Y127.749 E5.01066
G1 X121.931 Y128.283 E5.03303
G1 X121.686 Y128.038 E5.04755
G1 X121.686 Y128.571 E5.06988
G1 X121.931 Y128.816 E5.0844
G1 X121.931 Y129.349 E5.10673
G1 X121.686 Y129.104 E5.12125
G1 X121.686 Y129.637 E5.14358
G1 X121.931 Y129.883 E5.15813
G1 X121.931 Y130.416 E5.18046
G1 X121.686 Y130.171 E5.19498
G1 X121.686 Y130.704 E5.21731
G1 X121.931 Y130.949 E5.23183
G1 X121.931 Y131.482 E5.25416
G1 X121.686 Y131.237 E5.26868
G1 X121.686 Y131.77 E5.29101
G1 X121.931 Y132.016 E5.30556
G1 X121.931 Y132.549 E5.32789
G1 X121.686 Y132.304 E5.34241
G1 X121.686 Y132.837 E5.36474
G1 X121.931 Y133.082 E5.37926
G1 X121.931 Y133.615 E5.40159
G1 X121.686 Y133.37 E5.41611
G1 X121.686 Y133.904 E5.43848
G1 X121.931 Y134.149 E5.453
G1 X121.931 Y134.682 E5.47533
G1 X121.686 Y134.437 E5.48985
G1 X121.686 Y134.97 E5.51218
G1 X121.931 Y135.215 E5.5267
G1 X121.931 Y135.749 E5.54907
G1 X121.686 Y135.503 E5.56362
G1 X121.686 Y136.037 E5.58599
G1 X121.931 Y136.282 E5.60051
G1 X121.931 Y136.815 E5.62284
G1 X121.686 Y136.57 E5.63736
G1 X121.686 Y137.103 E5.65969
G1 X121.931 Y137.348 E5.67421
G1 X121.931 Y137.882 E5.69658
G1 X121.686 Y137.636 E5.71113
G1 X121.686 Y138.17 E5.7335
G1 X121.931 Y138.415 E5.74802
G1 X121.931 Y138.948 E5.77035
G1 X121.686 Y138.703 E5.78487
G1 X121.686 Y139.236 E5.8072
G1 X121.931 Y139.481 E5.82172
G1 X121.931 Y140.015 E5.84409
G1 X121.686 Y139.77 E5.85861
G1 X121.686 Y140.303 E5.88094
G1 X121.931 Y140.548 E5.89546
G1 X121.931 Y141.081 E5.91779
G1 X121.686 Y140.836 E5.93231
G1 X121.686 Y141.369 E5.95464
G1 X121.931 Y141.615 E5.96919
G1 X121.931 Y142.148 E5.99152
G1 X121.686 Y141.903 E6.00604
G1 X121.686 Y142.436 E6.02837
G1 X121.931 Y142.681 E6.04289
G1 X121.931 Y143.214 E6.06522
G1 X121.686 Y142.969 E6.07974
G1 X121.686 Y143.502 E6.10207
G1 X121.931 Y143.748 E6.11662
G3 X121.854 Y144.204 I-0.752 J0.107 E6.13623
G1 X121.667 Y144.017 E6.14731
G1 X121.571 Y144.454 E6.16606
G1 X121.78 Y144.664 E6.17847
G1 X121.601 Y145.018 E6.19509
G1 X121.391 Y144.807 E6.20756
G1 X121.149 Y145.099 E6.22345
G1 X121.412 Y145.361 E6.239
G1 X121.09 Y145.573 E6.25515
G1 X120.847 Y145.33 E6.26955
G1 X120.471 Y145.487 E6.28662
G1 X120.703 Y145.719 E6.30037
G3 X120.260 Y145.810 I-0.304 J-0.358 E6.31992
G1 X120.02 Y145.57 E6.33414
G1 X119.487 Y145.57 E6.35647
G1 X119.734 Y145.818 E6.37113
G1 X119.203 Y145.82 E6.39338
G1 X118.954 Y145.57 E6.40816
G1 X118.42 Y145.57 E6.43053
G1 X118.672 Y145.822 E6.44546
G1 X118.141 Y145.824 E6.46771
G1 X117.887 Y145.57 E6.48276
G1 X117.354 Y145.57 E6.50509
G1 X117.61 Y145.826 E6.52026
G1 X117.079 Y145.828 E6.54251
G1 X116.821 Y145.57 E6.5578
G1 X116.288 Y145.57 E6.58013
G1 X116.548 Y145.831 E6.59557
G1 X116.017 Y145.833 E6.61782
G1 X115.754 Y145.57 E6.6334
G1 X115.221 Y145.57 E6.65573
G1 X115.486 Y145.835 E6.67143
G1 X114.955 Y145.837 E6.69368
G1 X114.688 Y145.57 E6.7095
G1 X114.155 Y145.571 E6.73183
G1 X114.424 Y145.839 E6.74774
G1 X113.892 Y145.841 E6.77003
G1 X113.622 Y145.571 E6.78603
G1 X113.088 Y145.571 E6.8084
G1 X113.358 Y145.84 E6.82437
G1 X112.823 Y145.838 E6.84679
G1 X112.555 Y145.571 E6.86264
G1 X112.022 Y145.571 E6.88497
