; generated by PrusaSlicer 2.7.4+win64 on 2024-07-11 at 04:16:28 UTC
; Postprocessed by [ArcWelder](https://github.com/FormerLurker/ArcWelderLib)
; Copyright(C) 2021 - Brad Hochgesang
; Version: 1.2.0, Branch: HEAD, BuildDate: 2021-11-21T20:25:43Z
; resolution=0.05mm
; path_tolerance=5.0%
; max_radius=9999.00mm
; default_xyz_precision=3
; default_e_precision=5
; extrusion_rate_variance_percent=5.0%


; 

; external perimeters extrusion width = 0.45mm
; perimeters extrusion width = 0.40mm
; infill extrusion width = 0.45mm
; solid infill extrusion width = 0.50mm
; top infill extrusion width = 0.45mm
; support material extrusion width = 0.42mm
; first layer extrusion width = 0.56mm

M201 X2500 Y2500 Z800 E2500 ; sets maximum accelerations, mm/sec^2
M203 X300 Y250 Z8 E80 ; sets maximum feedrates, mm / sec
M204 S2500 T2500 ; sets acceleration (S) and retract acceleration (R), mm/sec^2
M205 X15.00 Y10.00 Z2.00 E10.00 ; sets the jerk limits, mm/sec
M205 S0 T0 ; sets the minimum extruding and travel feed rate, mm/sec
;TYPE:Custom
G90 ; use absolute coordinates
M83 ; extruder relative mode
M104 S215 ; set extruder temp
M140 S60 ; set bed temp
M190 S60 ; wait for bed temp
M109 S215 ; wait for extruder temp
G28                                        ; move X/Y/Z to min endstops
G1 Z0.28                                   ; lift nozzle a bit 
G92 E0 
G1 Y3 F1800                                    ; zero the extruded length 
G1 X60  E25 F500                       ; Extrude 25mm of filament in a 5cm line. 
G92 E0                                     ; zero the extruded length again 
G1 E-2 F500                                ; Retract a little 
G1 X70 F4000                              ; Quickly wipe away from the filament line
M117
G21 ; set units to millimeters
G90 ; use absolute coordinates
M82 ; use absolute distances for extrusion
G92 E0
M107
;LAYER_CHANGE
;Z:0.28
;HEIGHT:0.28
G1 E-2 F4800
G92 E0
G1 Z.28 F7200
G1 X97.259 Y85.115
G1 E2 F4800
G92 E0
M204 S2000
;TYPE:Skirt/Brim
;WIDTH:0.56
G1 F3000
G1 X97.823 Y84.616 E.04382
G1 X101.118 Y82.353 E.27644
G1 X101.904 Y81.961 E.32755
G1 X103.054 Y81.617 E.3974
G1 X104.631 Y81.451 E.48968
G1 X129.001 Y81.187 E1.90797
G1 X129.661 Y81.242 E1.94651
G1 X132.462 Y81.776 E2.11245
G3 X134.050 Y82.340 I-1.478 J6.680 E2.21071
G1 X135.985 Y83.485 E2.34155
G3 X137.650 Y84.826 I-4.790 J7.651 E2.46617
G1 X138.863 Y86.263 E2.57561
G1 X139.862 Y87.782 E2.68141
G1 X140.183 Y88.43 E2.72349
G1 X140.839 Y90.191 E2.83285
G1 X141.248 Y92.075 E2.94504
G1 X141.41 Y94.607 E3.09269
G1 X141.408 Y141.088 E5.79765
G1 X141.26 Y143.215 E5.92173
G1 X140.958 Y144.926 E6.02284
G1 X140.478 Y146.143 E6.09897
G1 X139.762 Y147.275 E6.17692
G1 X137.637 Y149.742 E6.3664
G3 X134.820 Y151.597 I-5.954 J-5.975 E6.56406
G1 X131.555 Y152.438 E6.76027
G1 X114.671 Y156.104 E7.76573
G1 X112.846 Y156.148 E7.87197
G1 X111.072 Y155.829 E7.97686
G1 X110.452 Y155.63 E8.01475
G1 X101.243 Y151.697 E8.5975
G1 X99.775 Y150.92 E8.69416
G1 X98.76 Y150.093 E8.77035
G3 X96.119 Y146.693 I29.928 J-25.972 E9.02098
G1 X95.608 Y145.719 E9.08499
G1 X95.179 Y144.451 E9.16289
G1 X94.995 Y143.382 E9.22602
G1 X94.967 Y141.425 E9.33992
G1 X94.96 Y92.566 E12.18327
G1 X95.17 Y89.158 E12.38197
G3 X95.743 Y87.257 I6.681 J0.977 E12.49783
G1 X96.423 Y86.089 E12.57648
G1 X97.219 Y85.16 E12.64767
M204 S2500
G1 X97.219 Y85.16 F7200
G1 X97.598 Y85.486
M204 S2000
G1 F3000
G3 X98.112 Y85.024 I1.905 J1.603 E12.68791
G1 X101.008 Y82.994 E12.89372
G1 X102.127 Y82.408 E12.96723
G1 X103.113 Y82.114 E13.02711
G1 X104.636 Y81.951 E13.11625
G1 X129.007 Y81.687 E14.5346
G1 X129.572 Y81.734 E14.56759
G1 X132.325 Y82.257 E14.73067
G1 X133.799 Y82.772 E14.82153
G1 X135.69 Y83.889 E14.94934
G1 X136.746 Y84.661 E15.02546
G1 X137.268 Y85.148 E15.06701
G1 X138.481 Y86.585 E15.17645
G1 X139.439 Y88.049 E15.27827
G1 X140.371 Y90.366 E15.42361
G1 X140.757 Y92.169 E15.53091
G1 X140.91 Y94.607 E15.67307
G1 X140.908 Y141.088 E18.37803
G1 X140.762 Y143.178 E18.49995
G1 X140.467 Y144.833 E18.59778
G1 X140.055 Y145.876 E18.66304
G1 X139.339 Y147.008 E18.74099
G1 X137.263 Y149.41 E18.92575
G1 X135.707 Y150.633 E19.04092
G1 X134.694 Y151.114 E19.10618
G1 X131.448 Y151.95 E19.30125
G1 X114.577 Y155.613 E20.30593
G1 X112.854 Y155.648 E20.40622
G1 X111.18 Y155.341 E20.50526
G1 X101.439 Y151.238 E21.12037
G1 X100.013 Y150.48 E21.21435
G1 X99.143 Y149.772 E21.27963
G3 X96.519 Y146.394 I29.797 J-25.854 E21.52863
G1 X96.081 Y145.559 E21.5835
G1 X95.653 Y144.291 E21.66138
G1 X95.495 Y143.375 E21.71547
G1 X95.467 Y141.425 E21.82896
G1 X95.46 Y92.566 E24.67231
G1 X95.669 Y89.195 E24.86886
G3 X96.210 Y87.437 I6.136 J0.926 E24.97620
G1 X96.838 Y86.367 E25.0484
G1 X97.559 Y85.532 E25.1126
M204 S2500
G1 X97.559 Y85.532 F7200
G1 X97.954 Y85.905
M204 S2000
G1 F3000
G1 X98.401 Y85.432 E25.15047
G1 X101.287 Y83.409 E25.35557
G1 X102.35 Y82.856 E25.4253
G1 X103.172 Y82.61 E25.47523
G1 X104.641 Y82.451 E25.56122
G1 X129.483 Y82.226 E27.00696
G1 X131.991 Y82.69 E27.15539
G3 X133.548 Y83.205 I-1.143 J6.068 E27.25102
G3 X136.451 Y85.065 I-8.085 J15.814 E27.45190
G1 X136.886 Y85.471 E27.48653
G1 X138.099 Y86.907 E27.59592
G1 X139.017 Y88.316 E27.69378
G1 X139.902 Y90.54 E27.83308
G1 X140.266 Y92.262 E27.93551
G1 X140.41 Y94.607 E28.07223
G1 X140.408 Y141.088 E30.77719
G1 X140.263 Y143.141 E30.89696
G1 X139.976 Y144.739 E30.99144
G1 X139.633 Y145.608 E31.04581
G1 X138.917 Y146.74 E31.12376
G1 X136.889 Y149.079 E31.30392
G1 X135.412 Y150.229 E31.41286
G1 X134.568 Y150.63 E31.46724
G1 X131.341 Y151.461 E31.66116
G1 X114.483 Y155.122 E32.66508
G1 X112.862 Y155.148 E32.75943
G1 X111.288 Y154.853 E32.85262
G1 X101.636 Y150.778 E33.46233
G1 X100.25 Y150.041 E33.55368
G1 X99.526 Y149.45 E33.60807
G3 X96.920 Y146.095 I29.244 J-25.405 E33.85538
G1 X96.555 Y145.399 E33.90112
G1 X96.126 Y144.131 E33.97902
G1 X95.995 Y143.368 E34.02407
G1 X95.967 Y141.425 E34.13715
G1 X95.96 Y92.566 E36.9805
G1 X96.167 Y89.232 E37.1749
G3 X96.676 Y87.618 I5.658 J0.897 E37.27365
G1 X97.254 Y86.645 E37.33951
G1 X97.912 Y85.949 E37.39525
M204 S2500
G1 E35.99525 F4800
;WIPE_START
G1 F5760
G3 X98.439 Y85.405 I34.159 J32.565 E35.39525
;WIPE_END
G92 E0
G92 E0
G1 X133.985 Y91.466 F7200
G1 E2 F4800
M204 S2000
;TYPE:Support material interface
;WIDTH:0.42
G1 F3000
G1 X131.785 Y89.265 E2.13038
G1 X131.711 Y89.376 E2.13597
G1 X131.164 Y89.045 E2.16276
G1 X131.284 Y88.856 E2.17214
G1 X130.542 Y88.555 E2.20569
G1 X133.61 Y91.624 E2.3875
G1 X133.835 Y92.235 E2.41478
G1 X134.052 Y92.133 E2.42483
G3 X134.202 Y92.749 I-2.502 J0.936 E2.45144
G1 X133.208 Y91.755 E2.51034
G1 X133.503 Y92.583 E2.54717
G1 X134.269 Y93.35 E2.59259
G1 X134.038 Y93.322 E2.60234
G1 X134.059 Y93.673 E2.61707
G1 X133.611 Y93.224 E2.64364
G1 X133.64 Y93.787 E2.66726
G1 X134.298 Y94.445 E2.70625
G1 X134.298 Y94.978 E2.72858
G1 X133.64 Y94.32 E2.76757
G1 X133.64 Y94.853 E2.7899
G1 X134.061 Y95.275 E2.81487
G1 X134.061 Y95.803 E2.83699
G1 X134.298 Y95.775 E2.84699
G1 X134.298 Y96.045 E2.8583
G1 X133.64 Y95.386 E2.89732
G1 X133.64 Y95.92 E2.91969
G1 X134.298 Y96.578 E2.95868
G1 X134.298 Y97 E2.97636
G1 X134.172 Y96.985 E2.98168
G1 X133.64 Y96.453 E3.0132
G1 X133.64 Y96.986 E3.03553
G1 X134.298 Y97.645 E3.07455
G1 X134.298 Y98.178 E3.09688
G1 X133.64 Y97.52 E3.13587
G1 X133.64 Y98.053 E3.1582
G1 X134.298 Y98.711 E3.19719
G1 X134.298 Y98.78 E3.20008
G1 X134.061 Y98.751 E3.21008
G1 X134.061 Y99.008 E3.22085
G1 X133.64 Y98.586 E3.24582
G1 X133.64 Y99.119 E3.26815
G1 X134.298 Y99.778 E3.30717
G1 X134.298 Y100.311 E3.3295
G1 X133.64 Y99.653 E3.36849
G1 X133.64 Y100.186 E3.39082
G1 X134.231 Y100.777 E3.42584
M204 S2500
G1 X134.468 Y101.547 F7200
M204 S2000
G1 F3000
G1 X133.64 Y100.719 E3.4749
G1 X133.64 Y101.252 E3.49723
G1 X134.298 Y101.911 E3.53625
G1 X134.298 Y102.34 E3.55422
G1 X134.18 Y102.326 E3.5592
G1 X133.64 Y101.786 E3.5912
G1 X133.64 Y102.319 E3.61353
G1 X134.298 Y102.978 E3.65255
G1 X134.298 Y103.511 E3.67488
G1 X133.64 Y102.852 E3.7139
G1 X133.64 Y103.386 E3.73627
G1 X134.298 Y104.044 E3.77526
G1 X134.298 Y104.12 E3.77844
G1 X134.061 Y104.092 E3.78844
G1 X134.061 Y104.34 E3.79883
G1 X133.64 Y103.919 E3.82378
G1 X133.64 Y104.452 E3.84611
G1 X134.298 Y105.111 E3.88513
G1 X134.298 Y105.644 E3.90746
G1 X133.64 Y104.985 E3.94648
G1 X133.64 Y105.519 E3.96885
G1 X134.231 Y106.11 E4.00387
M204 S2500
G1 X134.231 Y106.11 F7200
G1 X134.468 Y106.88
M204 S2000
G1 F3000
G1 X133.64 Y106.052 E4.05293
G1 X133.64 Y106.585 E4.07526
G1 X134.298 Y107.244 E4.11428
G1 X134.298 Y107.68 E4.13255
G1 X134.188 Y107.667 E4.13719
G1 X133.64 Y107.118 E4.16969
G1 X133.64 Y107.652 E4.19206
G1 X134.298 Y108.31 E4.23105
G1 X134.298 Y108.843 E4.25338
G1 X133.64 Y108.185 E4.29237
G1 X133.64 Y108.718 E4.3147
G1 X134.298 Y109.377 E4.35372
G1 X134.298 Y109.461 E4.35724
G1 X134.061 Y109.432 E4.36724
G1 X134.061 Y109.673 E4.37734
G1 X133.64 Y109.251 E4.40231
G1 X133.64 Y109.785 E4.42468
G1 X134.298 Y110.443 E4.46367
G1 X134.298 Y110.977 E4.48604
G1 X133.64 Y110.318 E4.52506
G1 X133.64 Y110.851 E4.54739
G1 X134.3 Y111.512 E4.58653
M204 S2500
G1 X134.3 Y111.512 F7200
G1 X134.468 Y112.213
M204 S2000
G1 F3000
G1 X133.64 Y111.385 E4.63559
G1 X133.64 Y111.918 E4.65792
G1 X134.298 Y112.576 E4.69691
G1 X134.298 Y113.11 E4.71928
G1 X133.64 Y112.451 E4.7583
G1 X133.64 Y112.984 E4.78063
G1 X134.061 Y113.406 E4.8056
G1 X134.061 Y113.703 E4.81804
G1 X134.298 Y113.674 E4.82804
G1 X134.298 Y114.176 E4.84907
G1 X133.64 Y113.518 E4.88806
G1 X133.64 Y114.051 E4.91039
G1 X134.298 Y114.709 E4.94938
G1 X134.298 Y114.9 E4.95738
G1 X134.061 Y114.872 E4.96738
G1 X134.061 Y115.006 E4.97299
G1 X133.64 Y114.584 E4.99796
G1 X133.64 Y115.117 E5.02029
G1 X134.298 Y115.776 E5.05931
G1 X134.298 Y116.309 E5.08164
G1 X133.64 Y115.651 E5.12063
G1 X133.64 Y116.184 E5.14296
G1 X134.308 Y116.853 E5.18257
M204 S2500
G1 X134.308 Y116.853 F7200
G1 X134.468 Y117.545
M204 S2000
G1 F3000
G1 X133.64 Y116.717 E5.23163
G1 X133.64 Y117.251 E5.254
G1 X134.298 Y117.909 E5.29299
G1 X134.298 Y118.442 E5.31532
G1 X133.64 Y117.784 E5.35431
G1 X133.64 Y118.317 E5.37664
G1 X134.061 Y118.739 E5.40161
G1 X134.061 Y119.043 E5.41435
G1 X134.298 Y119.014 E5.42435
G1 X134.298 Y119.509 E5.44509
G1 X133.64 Y118.85 E5.48411
G1 X133.64 Y119.384 E5.50648
G1 X134.298 Y120.042 E5.54547
G1 X134.298 Y120.24 E5.55377
G1 X134.061 Y120.212 E5.56377
G1 X134.061 Y120.338 E5.56905
G1 X133.64 Y119.917 E5.594
G1 X133.64 Y120.45 E5.61633
G1 X134.298 Y121.109 E5.65535
G1 X134.298 Y121.642 E5.67768
G1 X133.64 Y120.983 E5.7167
G1 X133.64 Y121.517 E5.73907
G1 X134.317 Y122.194 E5.77918
M204 S2500
G1 X134.317 Y122.194 F7200
G1 X134.468 Y122.878
M204 S2000
G1 F3000
G1 X133.64 Y122.05 E5.82824
G1 X133.64 Y122.583 E5.85057
G1 X134.298 Y123.242 E5.88959
G1 X134.298 Y123.775 E5.91192
G1 X133.64 Y123.117 E5.95091
G1 X133.64 Y123.65 E5.97324
G1 X134.061 Y124.071 E5.99819
G1 X134.061 Y124.483 E6.01545
G1 X134.298 Y124.454 E6.02545
G1 X134.298 Y124.842 E6.04171
G1 X133.64 Y124.183 E6.08073
G1 X133.64 Y124.716 E6.10306
G1 X134.298 Y125.375 E6.14208
G1 X134.298 Y125.68 E6.15486
G1 X134.061 Y125.671 E6.1648
G1 X133.64 Y125.25 E6.18975
G1 X133.64 Y125.783 E6.21208
G1 X134.298 Y126.441 E6.25107
G1 X134.298 Y126.975 E6.27344
G1 X133.64 Y126.316 E6.31246
G1 X133.64 Y126.849 E6.33479
G1 X134.421 Y127.63 E6.38107
M204 S2500
G1 X134.421 Y127.63 F7200
G1 X134.468 Y128.211
M204 S2000
G1 F3000
G1 X133.64 Y127.383 E6.43013
G1 X133.64 Y127.916 E6.45246
G1 X134.298 Y128.574 E6.49145
G1 X134.298 Y129.108 E6.51382
G1 X133.64 Y128.449 E6.55284
G1 X133.64 Y128.982 E6.57517
G1 X134.061 Y129.404 E6.60014
G1 X134.061 Y129.823 E6.6177
G1 X134.298 Y129.794 E6.6277
G1 X134.298 Y130.174 E6.64362
G1 X133.64 Y129.516 E6.68261
G1 X133.64 Y130.049 E6.70494
G1 X134.298 Y130.708 E6.74396
G1 X134.298 Y131.02 E6.75703
G1 X134.061 Y131.004 E6.76698
G1 X133.64 Y130.582 E6.79195
G1 X133.64 Y131.116 E6.81432
G1 X134.298 Y131.774 E6.85331
G1 X134.298 Y132.307 E6.87564
G1 X133.64 Y131.649 E6.91463
G1 X133.64 Y132.182 E6.93696
G1 X134.426 Y132.969 E6.98356
M204 S2500
G1 X134.426 Y132.969 F7200
G1 X134.468 Y133.544
M204 S2000
G1 F3000
G1 X133.64 Y132.715 E7.03265
G1 X133.64 Y133.249 E7.05502
G1 X134.298 Y133.907 E7.09401
G1 X134.298 Y134.44 E7.11634
G1 X133.64 Y133.782 E7.15533
G1 X133.64 Y134.315 E7.17766
G1 X134.061 Y134.737 E7.20263
G1 X134.061 Y135.163 E7.22048
G1 X134.298 Y135.134 E7.23048
G1 X134.298 Y135.507 E7.24611
G1 X133.64 Y134.848 E7.28513
G1 X133.64 Y135.382 E7.3075
G1 X134.298 Y136.04 E7.34649
G1 X134.298 Y136.36 E7.3599
G1 X134.061 Y136.336 E7.36988
G1 X133.64 Y135.915 E7.39483
G1 X133.64 Y136.448 E7.41716
G1 X134.298 Y137.107 E7.45618
G1 X134.298 Y137.64 E7.47851
G1 X133.64 Y136.982 E7.5175
G1 X133.64 Y137.515 E7.53983
G1 X134.432 Y138.307 E7.58676
M204 S2500
G1 X134.432 Y138.307 F7200
G1 X134.468 Y138.876
M204 S2000
G1 F3000
G1 X133.64 Y138.048 E7.63582
G1 X133.64 Y138.581 E7.65815
G1 X134.298 Y139.24 E7.69717
G1 X134.298 Y139.773 E7.7195
G1 X133.64 Y139.115 E7.75849
G1 X133.64 Y139.648 E7.78082
G1 X134.061 Y140.069 E7.80577
G1 X134.061 Y140.503 E7.82395
G1 X134.298 Y140.474 E7.83395
G1 X134.298 Y140.84 E7.84928
G1 X133.64 Y140.181 E7.8883
G1 X133.64 Y140.714 E7.91063
G1 X134.298 Y141.373 E7.94965
G1 X134.298 Y141.7 E7.96335
G1 X134.064 Y141.672 E7.97322
G1 X133.64 Y141.248 E7.99834
G1 X133.64 Y141.781 E8.02067
G1 X134.298 Y142.44 E8.05969
G3 X134.254 Y142.929 I-1.770 J0.087 E8.08031
G1 X133.64 Y142.314 E8.11672
G1 X133.587 Y142.795 E8.13699
G1 X134.156 Y143.429 E8.17268
G1 X134.093 Y143.562 E8.17885
G1 X133.765 Y143.424 E8.19376
G1 X133.74 Y143.481 E8.19637
G1 X133.487 Y143.228 E8.21136
G1 X133.337 Y143.611 E8.22859
G1 X133.567 Y143.871 E8.24313
G1 X133.495 Y143.849 E8.24628
G1 X133.285 Y144.092 E8.25974
G1 X133.109 Y143.917 E8.27014
G1 X132.849 Y144.19 E8.28594
G1 X133.021 Y144.362 E8.29613
G1 X132.837 Y144.521 E8.30632
G1 X133.004 Y144.876 E8.32276
G1 X132.448 Y144.352 E8.35477
G1 X132.052 Y144.459 E8.37196
G1 X132.682 Y145.089 E8.40929
G1 X132.329 Y145.27 E8.42591
G1 X131.764 Y144.705 E8.45939
G1 X131.286 Y144.76 E8.47955
G1 X131.684 Y145.158 E8.50313
G3 X131.172 Y145.179 I-0.348 J-2.233 E8.52463
G1 X130.753 Y144.76 E8.54946
G1 X130.219 Y144.76 E8.57183
G1 X130.876 Y145.416 E8.61073
G1 X130.342 Y145.416 E8.6331
G1 X129.686 Y144.76 E8.67197
G1 X129.153 Y144.76 E8.6943
G1 X129.572 Y145.179 E8.71913
G1 X129.356 Y145.179 E8.72818
G1 X129.402 Y145.416 E8.7383
G1 X129.276 Y145.416 E8.74358
G1 X128.619 Y144.76 E8.78248
G1 X128.086 Y144.76 E8.80481
G1 X128.743 Y145.416 E8.84371
G1 X128.209 Y145.416 E8.86608
G1 X127.553 Y144.76 E8.90495
G1 X127.02 Y144.76 E8.92728
G1 X127.622 Y145.416 E8.96458
G1 X127.143 Y145.416 E8.98465
G1 X126.486 Y144.76 E9.02355
G1 X125.953 Y144.76 E9.04588
G1 X126.779 Y145.586 E9.09482
M204 S2500
G1 X126.779 Y145.586 F7200
G1 X126.009 Y145.349
M204 S2000
G1 F3000
G1 X125.42 Y144.76 E9.12972
G1 X124.887 Y144.76 E9.15205
G1 X125.543 Y145.416 E9.19092
G1 X125.01 Y145.416 E9.21325
G1 X124.353 Y144.76 E9.25215
G1 X123.82 Y144.76 E9.27448
G1 X124.24 Y145.18 E9.29937
G1 X124.016 Y145.18 E9.30876
G1 X124.062 Y145.417 E9.31888
G1 X123.944 Y145.417 E9.32382
G1 X123.287 Y144.76 E9.36275
G1 X122.753 Y144.76 E9.38512
G1 X123.41 Y145.417 E9.42405
G1 X122.877 Y145.417 E9.44638
G1 X122.22 Y144.76 E9.48531
G1 X121.687 Y144.76 E9.50764
G1 X122.143 Y145.216 E9.53466
G1 X122.182 Y145.417 E9.54324
G1 X121.811 Y145.417 E9.55878
G1 X121.154 Y144.76 E9.59771
G1 X120.62 Y144.76 E9.62008
G1 X121.278 Y145.417 E9.65904
G1 X120.954 Y145.417 E9.67261
G1 X120.967 Y145.18 E9.68255
G1 X120.507 Y145.18 E9.70182
G1 X120.087 Y144.76 E9.72671
G1 X119.554 Y144.76 E9.74904
G1 X120.211 Y145.417 E9.78797
G1 X119.678 Y145.417 E9.8103
G1 X119.021 Y144.76 E9.84923
G1 X118.487 Y144.76 E9.8716
G1 X119.145 Y145.417 E9.91056
G1 X118.611 Y145.417 E9.93293
G1 X117.954 Y144.76 E9.97186
G1 X117.319 Y144.658 E9.99881
G1 X118.078 Y145.417 E10.04378
G1 X117.545 Y145.417 E10.06611
G1 X116.832 Y144.704 E10.10836
G1 X116.354 Y144.76 E10.12852
G1 X117.012 Y145.417 E10.16748
G1 X116.478 Y145.417 E10.18985
G1 X115.821 Y144.76 E10.22878
G1 X115.288 Y144.76 E10.25111
