; generated by PrusaSlicer 2.7.4+win64 on 2024-07-11 at 04:04:45 UTC
; Postprocessed by [ArcWelder](https://github.com/FormerLurker/ArcWelderLib)
; Copyright(C) 2021 - Brad Hochgesang
; Version: 1.2.0, Branch: HEAD, BuildDate: 2021-11-21T20:25:43Z
; resolution=0.05mm
; path_tolerance=5.0%
; max_radius=9999.00mm
; default_xyz_precision=3
; default_e_precision=5
; extrusion_rate_variance_percent=5.0%


; 

; external perimeters extrusion width = 0.45mm
; perimeters extrusion width = 0.40mm
; infill extrusion width = 0.45mm
; solid infill extrusion width = 0.50mm
; top infill extrusion width = 0.45mm
; support material extrusion width = 0.42mm
; first layer extrusion width = 0.56mm

M201 X2500 Y2500 Z800 E2500 ; sets maximum accelerations, mm/sec^2
M203 X300 Y250 Z8 E80 ; sets maximum feedrates, mm / sec
M204 S2500 T2500 ; sets acceleration (S) and retract acceleration (R), mm/sec^2
M205 X15.00 Y10.00 Z2.00 E10.00 ; sets the jerk limits, mm/sec
M205 S0 T0 ; sets the minimum extruding and travel feed rate, mm/sec
;TYPE:Custom
G90 ; use absolute coordinates
M83 ; extruder relative mode
M104 S215 ; set extruder temp
M140 S60 ; set bed temp
M190 S60 ; wait for bed temp
M109 S215 ; wait for extruder temp
G28                                        ; move X/Y/Z to min endstops
G1 Z0.28                                   ; lift nozzle a bit 
G92 E0 
G1 Y3 F1800                                    ; zero the extruded length 
G1 X60  E25 F500                       ; Extrude 25mm of filament in a 5cm line. 
G92 E0                                     ; zero the extruded length again 
G1 E-2 F500                                ; Retract a little 
G1 X70 F4000                              ; Quickly wipe away from the filament line
M117
G21 ; set units to millimeters
G90 ; use absolute coordinates
M82 ; use absolute distances for extrusion
G92 E0
M107
;LAYER_CHANGE
;Z:0.28
;HEIGHT:0.28
G1 E-2 F4800
G92 E0
G1 Z.28 F7200
G1 X104.789 Y81.471
G1 E2 F4800
G92 E0
M204 S2000
;TYPE:Skirt/Brim
;WIDTH:0.56
G1 F3000
G1 X105.883 Y80.221 E.09667
G1 X107.895 Y79.585 E.21947
G1 X120.4 Y79.587 E.9472
G1 X121.677 Y79.734 E1.02201
G1 X122.644 Y80.039 E1.08102
G1 X123.604 Y80.54 E1.14404
G1 X124.444 Y81.19 E1.20585
G1 X125.119 Y81.936 E1.2644
G1 X125.698 Y82.853 E1.32751
G1 X126.087 Y83.816 E1.38795
G1 X126.304 Y84.831 E1.44835
G1 X126.355 Y85.566 E1.49123
G1 X126.355 Y145.545 E4.9817
G1 X125.96 Y147.159 E5.0784
G1 X124.866 Y148.409 E5.17507
G1 X122.855 Y149.045 E5.29781
G1 X107.895 Y149.045 E6.16841
G1 X106.281 Y148.65 E6.26511
G1 X105.031 Y147.556 E6.36178
G1 X104.395 Y145.545 E6.48452
G1 X104.395 Y83.085 E10.11938
G1 X104.775 Y81.529 E10.21259
M204 S2500
G1 X104.775 Y81.529 F7200
G1 X105.272 Y81.661
M204 S2000
G1 F3000
G1 X105.288 Y81.6 E10.21626
G1 X106.365 Y80.504 E10.30568
G1 X107.895 Y80.085 E10.398
G1 X120.4 Y80.087 E11.12573
G1 X121.055 Y80.132 E11.16394
G1 X122.166 Y80.387 E11.23028
G1 X122.999 Y80.756 E11.2833
G1 X124.091 Y81.544 E11.36167
G3 X125.245 Y83.064 I-3.805 J4.087 E11.47315
G1 X125.716 Y84.361 E11.55345
G1 X125.843 Y85.305 E11.60888
G1 X125.855 Y145.545 E15.11454
G1 X125.461 Y147.03 E15.20395
G1 X124.385 Y148.125 E15.29329
G1 X122.855 Y148.545 E15.38562
G1 X107.895 Y148.545 E16.25622
G1 X106.41 Y148.151 E16.34563
G1 X105.314 Y147.075 E16.43501
G1 X104.895 Y145.545 E16.52733
G1 X104.895 Y83.085 E20.16219
G1 X105.257 Y81.719 E20.24443
M204 S2500
G1 X105.257 Y81.719 F7200
G1 X105.751 Y81.863
M204 S2000
G1 F3000
G1 X105.787 Y81.741 E20.25183
G1 X106.84 Y80.818 E20.33332
G1 X107.895 Y80.585 E20.3962
G1 X120.4 Y80.587 E21.12393
G1 X121.011 Y80.63 E21.15958
G1 X122.008 Y80.861 E21.21914
G1 X122.766 Y81.198 E21.26741
G1 X123.738 Y81.898 E21.33712
G3 X124.791 Y83.275 I-3.436 J3.719 E21.43837
G1 X125.233 Y84.49 E21.51361
G1 X125.345 Y85.348 E21.56396
G1 X125.355 Y145.545 E25.06712
G1 X124.963 Y146.889 E25.14859
G1 X123.91 Y147.811 E25.23004
G1 X122.855 Y148.045 E25.29293
G1 X107.895 Y148.045 E26.16353
G1 X106.551 Y147.653 E26.245
G1 X105.628 Y146.6 E26.32649
G1 X105.395 Y145.545 E26.38937
G1 X105.395 Y83.085 E30.02423
G1 X105.734 Y81.921 E30.09478
M204 S2500
G1 E28.69478 F4800
;WIPE_START
G1 F5760
G3 X105.787 Y81.741 I49.449 J14.462 E28.54623
G1 X106.216 Y81.365 E28.09478
;WIPE_END
G92 E0
G92 E0
G1 X118.972 Y143.531 F7200
G1 E2 F4800
M204 S2000
;TYPE:External perimeter
G1 F3000
G2 X118.701 Y144.358 I1.035 J0.797 E2.05179
G2 X119.219 Y145.265 I2.034 J-0.561 E2.11305
G3 X117.881 Y145.187 I-0.172 J-8.573 E2.19109
G2 X112.865 Y145.187 I-2.508 J120.172 E2.48303
G3 X111.529 Y145.264 I-1.140 J-8.152 E2.56096
G2 X112.046 Y144.358 I-1.494 J-1.453 E2.62215
G2 X109.651 Y144.358 I-1.197 J-0.069 E2.84960
G2 X110.166 Y145.262 I2.012 J-0.547 E2.91063
G3 X108.915 Y145.197 I-0.372 J-4.911 E2.98367
G1 X108.275 Y145.176 E3.02093
G1 X108.275 Y83.465 E6.6122
G1 X108.857 Y83.465 E6.64607
G1 X120.383 Y83.467 E7.31682
G3 X122.475 Y85.582 I-0.011 J2.103 E7.50892
G1 X122.475 Y145.175 E10.97693
G2 X121.340 Y145.261 I-0.112 J6.048 E11.04325
G1 X120.578 Y145.267 E11.0876
G2 X121.097 Y144.358 I-1.502 J-1.460 E11.14900
G2 X119.007 Y143.482 I-1.198 J-0.072 E11.32114
M204 S2500
G1 X119.007 Y143.482 F7200
G1 X118.704 Y143.072
M204 S2000
;TYPE:Perimeter
G1 F3000
G1 X118.664 Y143.104 E11.32412
G2 X118.190 Y144.434 I1.496 J1.283 E11.40833
G1 X118.312 Y144.719 E11.42637
G2 X112.436 Y144.719 I-2.938 J70.583 E11.76847
G1 X112.557 Y144.434 E11.78649
G2 X112.368 Y143.483 I-2.503 J0.003 E11.84319
G2 X109.140 Y144.434 I-1.507 J0.840 E12.11482
G1 X109.27 Y144.739 E12.13411
G1 X108.775 Y144.692 E12.16305
G1 X108.775 Y83.965 E15.69705
G1 X120.361 Y83.967 E16.3713
G3 X121.975 Y85.604 I0.007 J1.608 E16.52011
G1 X121.975 Y144.692 E19.95873
G1 X121.478 Y144.739 E19.98778
G1 X121.608 Y144.434 E20.00707
G2 X121.419 Y143.483 I-2.503 J0.003 E20.06377
G2 X118.751 Y143.035 I-1.509 J0.821 E20.24470
M204 S2500
G1 X118.751 Y143.035 F7200
G1 X118.384 Y142.688
M204 S2000
G1 F3000
G1 X118.299 Y142.755 E20.251
G1 X117.913 Y143.29 E20.28939
G2 X117.714 Y144.185 I2.301 J0.981 E20.34297
G2 X113.033 Y144.180 I-2.469 J120.113 E20.61539
G2 X110.813 Y142.083 I-2.150 J0.053 E20.81275
G2 X109.274 Y142.735 I0.002 J2.147 E20.91233
G1 X109.275 Y84.465 E24.30335
G1 X120.339 Y84.467 E24.94722
G3 X121.475 Y85.626 I0.024 J1.113 E25.05278
G1 X121.475 Y142.736 E28.37629
G2 X118.431 Y142.651 I-1.566 J1.551 E28.57182
M204 S2500
G1 E27.17182 F4800
;WIPE_START
G1 F5760
G2 X117.954 Y143.233 I0.972 J1.283 E26.57182
;WIPE_END
G92 E0
G1 X120.292 Y145.14 F7200
G1 E2 F4800
M204 S2000
;TYPE:External perimeter
;WIDTH:0.445693
G1 F3000
G1 X119.917 Y145.352 E2.01934
G1 X119.882 Y145.352 E2.02091
G1 X119.507 Y145.14 E2.04025
M204 S2500
G1 E.64025 F4800
;WIPE_START
G1 F5760
G1 X119.882 Y145.352 E.29922
G1 X119.917 Y145.352 E.27151
G1 X120.171 Y145.209 E.04025
;WIPE_END
G92 E0
G1 X110.456 Y145.14 F7200
G1 E2 F4800
M204 S2000
;WIDTH:0.444341
G1 F3000
G1 X110.83 Y145.351 E2.01921
G1 X110.867 Y145.351 E2.02087
G1 X111.241 Y145.14 E2.04008
M204 S2500
G1 E.64008 F4800
;WIPE_START
G1 F5760
G1 X110.867 Y145.351 E.30013
G1 X110.83 Y145.351 E.27084
G1 X110.576 Y145.208 E.04008
;WIPE_END
G92 E0
G1 X109.053 Y143.433 F7200
G1 E2 F4800
M204 S2000
;TYPE:Gap fill
;WIDTH:0.1576
G1 F3000
G3 X109.279 Y143.087 I0.394 J0.011 E2.00486
M204 S2500
G1 E.60486 F4800
;WIPE_START
G1 F5760
G2 X109.053 Y143.433 I0.168 J0.357 E0.26585
;WIPE_END
G1 E.00486 F4800
G92 E0
G1 X121.469 Y143.087 F7200
G1 E2 F4800
M204 S2000
;WIDTH:0.14258
G1 F3000
G3 X121.697 Y143.439 I-0.174 J0.363 E2.00417
M204 S2500
G1 E.60417 F4800
;WIPE_START
G1 F5760
G2 X121.469 Y143.087 I-0.402 J0.011 E0.26021
;WIPE_END
G1 E.00417 F4800
G92 E0
G1 X121.265 Y85.515 F7200
G1 E2 F4800
M204 S2000
;TYPE:Solid infill
;WIDTH:0.562799
G1 F3000
G2 X120.702 Y84.983 I-1.766 J1.305 E2.04542
G1 X120.489 Y84.906 E2.05867
G1 X119.931 Y84.891 E2.09134
G1 X121.05 Y86.011 E2.18399
G1 X121.05 Y86.722 E2.2256
G1 X119.22 Y84.891 E2.37709
G1 X118.508 Y84.891 E2.41876
G1 X121.05 Y87.433 E2.62914
G1 X121.05 Y88.144 E2.67075
G1 X117.797 Y84.891 E2.93997
G1 X117.086 Y84.891 E2.98158
G1 X121.05 Y88.855 E3.30964
G1 X121.05 Y89.566 E3.35125
G1 X116.375 Y84.891 E3.73816
G1 X115.664 Y84.891 E3.77977
G1 X121.05 Y90.277 E4.22552
G1 X121.05 Y90.988 E4.26713
G1 X114.953 Y84.891 E4.77172
G1 X114.242 Y84.891 E4.81333
G1 X121.05 Y91.699 E5.37677
G1 X121.05 Y92.41 E5.41838
G1 X113.531 Y84.89 E6.0407
G1 X112.82 Y84.89 E6.08231
G1 X121.05 Y93.12 E6.76343
G1 X121.05 Y93.831 E6.80504
G1 X112.109 Y84.89 E7.545
G1 X111.398 Y84.89 E7.58661
G1 X121.05 Y94.542 E8.38542
G1 X121.05 Y95.253 E8.42703
G1 X110.687 Y84.89 E9.28468
G1 X109.976 Y84.89 E9.32629
G1 X121.05 Y95.964 E10.24278
G1 X121.05 Y96.675 E10.28439
G1 X109.7 Y85.325 E11.22372
G1 X109.7 Y86.036 E11.26533
G1 X121.05 Y97.386 E12.20466
G1 X121.05 Y98.097 E12.24627
G1 X109.7 Y86.746 E13.18565
G1 X109.7 Y87.457 E13.22726
G1 X121.05 Y98.808 E14.16664
G1 X121.05 Y99.519 E14.20825
G1 X109.7 Y88.168 E15.14763
G1 X109.7 Y88.879 E15.18924
G1 X121.05 Y100.23 E16.12862
G1 X121.05 Y100.941 E16.17023
G1 X109.7 Y89.59 E17.10961
G1 X109.7 Y90.301 E17.15122
G1 X121.05 Y101.652 E18.0906
G1 X121.05 Y102.363 E18.13221
G1 X109.7 Y91.012 E19.07159
G1 X109.7 Y91.723 E19.1132
G1 X121.05 Y103.074 E20.05258
G1 X121.05 Y103.785 E20.09419
G1 X109.7 Y92.434 E21.03357
G1 X109.7 Y93.145 E21.07518
G1 X121.05 Y104.496 E22.01456
G1 X121.05 Y105.206 E22.05611
G1 X109.7 Y93.856 E22.99544
G1 X109.7 Y94.567 E23.03705
G1 X121.05 Y105.917 E23.97638
G1 X121.05 Y106.628 E24.01799
G1 X109.7 Y95.278 E24.95732
G1 X109.7 Y95.989 E24.99893
G1 X121.05 Y107.339 E25.93826
G1 X121.05 Y108.05 E25.97987
G1 X109.7 Y96.7 E26.9192
G1 X109.7 Y97.411 E26.96081
G1 X121.05 Y108.761 E27.90014
G1 X121.05 Y109.472 E27.94175
G1 X109.7 Y98.121 E28.88113
G1 X109.7 Y98.832 E28.92274
G1 X121.05 Y110.183 E29.86212
G1 X121.05 Y110.894 E29.90373
G1 X109.7 Y99.543 E30.84311
G1 X109.7 Y100.254 E30.88472
G1 X121.05 Y111.605 E31.8241
G1 X121.05 Y112.316 E31.86571
G1 X109.7 Y100.965 E32.80509
G1 X109.7 Y101.676 E32.8467
G1 X121.05 Y113.027 E33.78608
G1 X121.05 Y113.738 E33.82769
G1 X109.7 Y102.387 E34.76707
G1 X109.7 Y103.098 E34.80868
G1 X121.05 Y114.449 E35.74806
G1 X121.05 Y115.16 E35.78967
G1 X109.7 Y103.809 E36.72905
G1 X109.7 Y104.52 E36.77066
G1 X121.05 Y115.871 E37.71004
G1 X121.05 Y116.582 E37.75165
G1 X109.7 Y105.231 E38.69103
G1 X109.7 Y105.942 E38.73264
G1 X121.05 Y117.292 E39.67197
G1 X121.05 Y118.003 E39.71358
G1 X109.7 Y106.653 E40.65291
G1 X109.7 Y107.364 E40.69452
G1 X121.05 Y118.714 E41.63385
G1 X121.05 Y119.425 E41.67546
G1 X109.7 Y108.075 E42.61479
G1 X109.7 Y108.785 E42.65634
G1 X121.05 Y120.136 E43.59572
G1 X121.05 Y120.847 E43.63733
G1 X109.7 Y109.496 E44.57671
G1 X109.7 Y110.207 E44.61832
G1 X121.05 Y121.558 E45.5577
G1 X121.05 Y122.269 E45.59931
G1 X109.7 Y110.918 E46.53869
G1 X109.7 Y111.629 E46.5803
G1 X121.05 Y122.98 E47.51968
G1 X121.05 Y123.691 E47.56129
G1 X109.7 Y112.34 E48.50067
G1 X109.7 Y113.051 E48.54228
G1 X121.05 Y124.402 E49.48166
G1 X121.05 Y125.113 E49.52327
G1 X109.7 Y113.762 E50.46265
G1 X109.7 Y114.473 E50.50426
G1 X121.05 Y125.824 E51.44364
G1 X121.05 Y126.535 E51.48525
G1 X109.699 Y115.184 E52.42467
G1 X109.699 Y115.895 E52.46628
G1 X121.05 Y127.246 E53.4057
G1 X121.05 Y127.957 E53.44731
G1 X109.699 Y116.606 E54.38673
G1 X109.699 Y117.317 E54.42834
G1 X121.05 Y128.668 E55.36776
G1 X121.05 Y129.379 E55.40937
G1 X109.699 Y118.028 E56.34879
G1 X109.699 Y118.739 E56.3904
G1 X121.05 Y130.089 E57.32978
G1 X121.05 Y130.8 E57.37139
G1 X109.699 Y119.45 E58.31077
G1 X109.699 Y120.16 E58.35232
G1 X121.05 Y131.511 E59.29174
G1 X121.05 Y132.222 E59.33335
G1 X109.699 Y120.871 E60.27277
G1 X109.699 Y121.582 E60.31438
G1 X121.05 Y132.933 E61.2538
G1 X121.05 Y133.644 E61.29541
G1 X109.699 Y122.293 E62.23483
G1 X109.699 Y123.004 E62.27644
G1 X121.05 Y134.355 E63.21586
G1 X121.05 Y135.066 E63.25747
G1 X109.699 Y123.715 E64.19689
G1 X109.699 Y124.426 E64.2385
G1 X121.05 Y135.777 E65.17792
G1 X121.05 Y136.488 E65.21953
G1 X109.699 Y125.137 E66.15895
G1 X109.699 Y125.848 E66.20056
G1 X121.05 Y137.199 E67.13998
G1 X121.05 Y137.91 E67.18159
G1 X109.699 Y126.559 E68.12101
G1 X109.699 Y127.27 E68.16262
G1 X121.05 Y138.621 E69.10204
G1 X121.05 Y139.332 E69.14365
G1 X109.699 Y127.981 E70.08307
G1 X109.699 Y128.692 E70.12468
G1 X121.05 Y140.043 E71.0641
G1 X121.05 Y140.754 E71.10571
G1 X109.699 Y129.403 E72.04513
G1 X109.699 Y130.114 E72.08674
G1 X121.05 Y141.465 E73.02616
G1 X121.05 Y141.932 E73.05349
G1 X120.634 Y141.759 E73.07986
G1 X109.699 Y130.825 E73.98481
G1 X109.699 Y131.535 E74.02636
G1 X119.823 Y141.659 E74.86423
G1 X119.198 Y141.745 E74.90115
G1 X109.699 Y132.246 E75.68729
G1 X109.699 Y132.957 E75.7289
G1 X118.696 Y141.953 E76.47346
G2 X118.269 Y142.238 I0.289 J0.895 E76.50374
G1 X109.699 Y133.668 E77.213
G1 X109.699 Y134.379 E77.25461
G1 X117.901 Y142.581 E77.93341
G1 X117.603 Y142.993 E77.96317
G1 X109.699 Y135.09 E78.61727
G1 X109.699 Y135.801 E78.65888
G1 X117.404 Y143.506 E79.29655
G1 X117.333 Y143.754 E79.31165
G1 X116.936 Y143.748 E79.33489
G1 X109.699 Y136.512 E79.93379
G1 X109.699 Y137.223 E79.9754
G1 X116.217 Y143.741 E80.51483
G1 X115.51 Y143.744 E80.5562
G1 X109.699 Y137.934 E81.03708
G1 X109.699 Y138.645 E81.07869
G1 X114.802 Y143.747 E81.50098
G1 X114.094 Y143.751 E81.54241
G1 X109.699 Y139.356 E81.90614
G1 X109.699 Y140.067 E81.94775
G1 X111.346 Y141.714 E82.08406
G2 X110.603 Y141.682 I-0.437 J1.501 E82.12783
G1 X109.699 Y140.778 E82.20265
G1 X109.699 Y141.489 E82.24426
G1 X110.184 Y141.973 E82.28436
M204 S2500
;LAYER_CHANGE
;Z:0.48
;HEIGHT:0.2
; BEFORE_LAYER_CHANGE 1 @ 0.48mm
G1 E80.88436 F4800
;WIPE_START
G1 F5760
G1 X109.699 Y141.489 E80.34192
G1 X109.699 Y141.416 E80.28436
;WIPE_END
G92 E0
G1 Z.48 F7200
; AFTER_LAYER_CHANGE 1 @ 0.48mm
M104 S190 ; set temperature
G1 X104.395 Y141.416
G1 E2 F4800
G92 E0
;TYPE:Skirt/Brim
;WIDTH:0.56
G1 F6000
G1 X104.395 Y83.085 E2.50796
G1 X104.789 Y81.471 E2.57939
G1 X105.883 Y80.221 E2.65081
G1 X107.895 Y79.585 E2.74154
G1 X120.4 Y79.587 E3.2792
G1 X121.677 Y79.734 E3.33447
G3 X126.355 Y85.566 I-1.358 J5.882 E3.68115
G1 X126.355 Y145.545 E6.25997
G1 X125.96 Y147.159 E6.33141
G1 X124.866 Y148.409 E6.40283
G1 X122.855 Y149.045 E6.49351
G1 X107.895 Y149.045 E7.13672
G1 X106.281 Y148.65 E7.20816
G1 X105.031 Y147.556 E7.27958
G1 X104.395 Y145.545 E7.37026
G1 X104.395 Y141.476 E7.54521
G1 X104.395 Y141.476 F7200
G1 X104.895 Y141.476
G1 F6000
G1 X104.895 Y83.085 E10.05575
G1 X105.288 Y81.6 E10.1218
G1 X106.365 Y80.504 E10.18787
G1 X107.895 Y80.085 E10.25608
G1 X120.4 Y80.087 E10.79374
G1 X121.055 Y80.132 E10.82197
G1 X122.166 Y80.387 E10.87098
G1 X122.999 Y80.756 E10.91015
G1 X124.091 Y81.544 E10.96805
G3 X125.245 Y83.064 I-3.805 J4.087 E11.05041
G1 X125.716 Y84.361 E11.10974
G1 X125.843 Y85.305 E11.15069
G1 X125.855 Y145.545 E13.74073
G1 X125.461 Y147.03 E13.80679
G1 X124.385 Y148.125 E13.8728
G1 X122.855 Y148.545 E13.94102
G1 X107.895 Y148.545 E14.58423
G1 X106.41 Y148.151 E14.65029
G1 X105.314 Y147.075 E14.71633
G1 X104.895 Y145.545 E14.78454
G1 X104.895 Y141.536 E14.95691
G1 X105.395 Y141.536 F7200
G1 F6000
G1 X105.395 Y83.085 E17.47003
G1 X105.787 Y81.741 E17.53022
G1 X106.84 Y80.818 E17.59042
G1 X107.895 Y80.585 E17.63687
G1 X120.4 Y80.587 E18.17453
G1 X121.011 Y80.63 E18.20087
G1 X122.008 Y80.861 E18.24487
G1 X122.766 Y81.198 E18.28054
G1 X123.738 Y81.898 E18.33204
G3 X124.791 Y83.275 I-3.436 J3.719 E18.40685
G1 X125.233 Y84.49 E18.46244
G1 X125.345 Y85.348 E18.49964
G1 X125.355 Y145.545 E21.08783
G1 X124.963 Y146.889 E21.14802
G1 X123.91 Y147.811 E21.2082
G1 X122.855 Y148.045 E21.25466
G1 X107.895 Y148.045 E21.89787
G1 X106.551 Y147.653 E21.95806
G1 X105.628 Y146.6 E22.01826
G1 X105.395 Y145.545 E22.06471
G1 X105.395 Y141.596 E22.2345
G1 E20.8345 F4800
;WIPE_START
G1 F5760
G1 X105.395 Y141.536 E20.787
G1 X105.395 Y140.838 E20.2345
;WIPE_END
G92 E0
G92 E0
G1 X119.111 Y143.597 F7200
G1 E2 F4800
;TYPE:External perimeter
;WIDTH:0.45
G2 X119.247 Y145.154 I0.764 J0.718 E2.05959
G1 X119.191 Y145.32 E2.06552
G1 X111.557 Y145.32 E2.32392
G1 X111.501 Y145.154 E2.32985
